;FLAVOR:Marlin
;TIME:10110
;Filament used: 6.54477m
;Layer height: 0.2
;MINX:-21
;MINY:-39.795
;MINZ:0.3
;MAXX:21
;MAXY:39.796
;MAXZ:20.1
;Generated with Cura_SteamEngine main
M140 S60
M105
M190 S60
M104 S225
M105
M109 S225
M82 ;absolute extrusion mode
G28 ;Home
G1 Z15.0 F6000 ;Move the platform down 15mm
;Prime the extruder
G92 E0
G1 F200 E3
G92 E0
G92 E0
G92 E0
G1 F30000 E-4.1
;LAYER_COUNT:100
;LAYER:0
M107
G1 F600 Z0.5
G0 F3600 X-0.061 Y-9.061 Z0.5
G1 F600 Z0.3
G0 F3600 X-3 Y-10.056
;TYPE:SKIRT
G1 F30000 E0
G1 F900 X-2.325 Y-9.698 E0.03812
G1 X-1.849 Y-9.511 E0.06363
G1 X-1.328 Y-9.359 E0.09071
G1 X-.448 Y-9.17 E0.13561
G1 X-0.061 Y-9.061 E0.15567
G1 X0.68 Y-9.238 E0.19368
G1 X1.053 Y-9.3 E0.21255
G1 X1.585 Y-9.427 E0.23983
G1 X2.213 Y-9.645 E0.273
G1 X3 Y-10.058 E0.31734
G1 X3 Y-19.044 E0.76565
G1 X2.567 Y-19.286 E0.7904
G1 X2.088 Y-19.501 E0.8166
G1 X1.474 Y-19.711 E0.84897
G1 X0.456 Y-19.928 E0.9009
G1 X0.058 Y-20.04 E0.92153
G1 X-.67 Y-19.864 E0.95889
G1 X-1.332 Y-19.741 E0.99249
G1 X-1.968 Y-19.553 E1.02557
G1 X-2.467 Y-19.341 E1.05262
G1 X-3 Y-19.052 E1.08287
G1 X-3 Y-10.056 E1.53168
G0 F3600 X-3.4 Y-9.842
G1 F900 X-2.754 Y-9.46 E1.56913
G1 X-2.23 Y-9.225 E1.59778
G1 X-1.599 Y-9.009 E1.63105
G1 X-.532 Y-8.779 E1.68551
G1 X-0.028 Y-8.636 E1.71164
G1 X0.425 Y-8.784 E1.73542
G1 X1.425 Y-8.971 E1.78617
G1 X2.232 Y-9.207 E1.82812
G1 X3.016 Y-9.601 E1.8719
G1 X3.4 Y-9.841 E1.89449
G1 X3.4 Y-19.259 E2.36436
G1 X2.758 Y-19.639 E2.40158
G1 X2.09 Y-19.937 E2.43807
G1 X1.424 Y-20.13 E2.47266
G1 X0.54 Y-20.319 E2.51776
G1 X0.027 Y-20.465 E2.54437
G1 X-.354 Y-20.34 E2.56438
G1 X-1.128 Y-20.193 E2.60368
G1 X-1.931 Y-20.002 E2.64486
G1 X-2.649 Y-19.698 E2.68376
G1 X-3.132 Y-19.436 E2.71117
G1 X-3.4 Y-19.258 E2.72723
G1 X-3.4 Y-9.842 E3.19699
G0 F3600 X-3.8 Y-9.634
G1 F900 X-3.183 Y-9.214 E3.23423
G1 X-2.379 Y-8.853 E3.2782
G1 X-1.7 Y-8.622 E3.31398
G1 X-.616 Y-8.388 E3.36931
G1 X-0.016 Y-8.214 E3.40047
G1 X0.145 Y-8.282 E3.40919
G1 X0.811 Y-8.449 E3.44345
G1 X1.525 Y-8.583 E3.47969
G1 X2.357 Y-8.827 E3.52295
G1 X2.934 Y-9.102 E3.55484
G1 X3.467 Y-9.405 E3.58543
G1 X3.8 Y-9.633 E3.60556
G1 X3.8 Y-19.467 E4.09618
G1 X3.453 Y-19.704 E4.11715
G1 X2.804 Y-20.073 E4.15439
G1 X2.077 Y-20.358 E4.19335
G1 X1.527 Y-20.517 E4.22191
G1 X0.623 Y-20.71 E4.26803
G1 X0.013 Y-20.886 E4.2997
G1 X-.145 Y-20.819 E4.30827
G1 X-.803 Y-20.653 E4.34212
G1 X-1.204 Y-20.585 E4.36241
G1 X-2.057 Y-20.384 E4.40614
G1 X-2.817 Y-20.062 E4.44732
G1 X-3.333 Y-19.782 E4.47661
G1 X-3.8 Y-19.471 E4.5046
G1 X-3.8 Y-9.634 E4.99537
G0 F3600 X-4.2 Y-9.43
G1 F900 X-3.543 Y-8.976 E5.03521
G1 X-2.833 Y-8.611 E5.07504
G1 X-2.225 Y-8.37 E5.10767
G1 X-1.599 Y-8.191 E5.14015
G1 X-.7 Y-7.997 E5.18603
G1 X-.172 Y-7.842 E5.21349
G1 X-0.036 Y-7.78 E5.22095
G1 X0.506 Y-7.974 E5.24967
G1 X1.271 Y-8.12 E5.28852
G1 X1.925 Y-8.276 E5.32206
G1 X2.856 Y-8.599 E5.37123
G1 X3.701 Y-9.079 E5.41971
G1 X4.2 Y-9.43 E5.45015
G1 X4.2 Y-19.671 E5.96107
G1 X3.669 Y-20.042 E5.99339
G1 X3.114 Y-20.356 E6.02521
G1 X2.517 Y-20.623 E6.05783
G1 X1.785 Y-20.871 E6.09639
G1 X0.707 Y-21.102 E6.15139
G1 X0.178 Y-21.255 E6.17887
G1 X0.034 Y-21.321 E6.18677
G1 X-.506 Y-21.127 E6.2154
G1 X-1.289 Y-20.977 E6.25517
G1 X-2.197 Y-20.759 E6.30176
G1 X-2.986 Y-20.425 E6.3445
G1 X-3.545 Y-20.122 E6.37623
G1 X-4.2 Y-19.686 E6.41548
G1 X-4.2 Y-9.43 E6.92716
G0 F3600 X-4.6 Y-9.239
G1 F900 X-3.918 Y-8.723 E6.96982
G1 X-3.303 Y-8.393 E7.00464
G1 X-2.688 Y-8.115 E7.03831
G1 X-1.915 Y-7.85 E7.07908
G1 X-.785 Y-7.606 E7.13676
G1 X-.285 Y-7.458 E7.16277
G1 X-0.028 Y-7.336 E7.17697
G1 X0.355 Y-7.508 E7.19791
G1 X0.942 Y-7.66 E7.22816
G1 X1.359 Y-7.729 E7.24925
G1 X2.022 Y-7.888 E7.28327
G1 X2.833 Y-8.168 E7.32607
G1 X3.291 Y-8.387 E7.3514
G1 X4.025 Y-8.801 E7.39344
G1 X4.6 Y-9.239 E7.4295
G1 X4.6 Y-19.873 E7.96003
G1 X4 Y-20.314 E7.99718
G1 X3.304 Y-20.708 E8.03709
G1 X2.516 Y-21.062 E8.08018
G1 X1.695 Y-21.3 E8.12283
G1 X0.79 Y-21.493 E8.169
G1 X0.291 Y-21.64 E8.19495
G1 X0.027 Y-21.765 E8.20952
G1 X-.355 Y-21.593 E8.23042
G1 X-.936 Y-21.442 E8.26037
G1 X-1.825 Y-21.275 E8.3055
G1 X-2.516 Y-21.059 E8.34162
G1 X-3.167 Y-20.782 E8.37692
G1 X-3.75 Y-20.466 E8.41
G1 X-4.325 Y-20.083 E8.44447
G1 X-4.6 Y-19.861 E8.4621
G1 X-4.6 Y-9.239 E8.99203
G0 F3600 X-5 Y-9.049
G1 F900 X-4.417 Y-8.597 E9.02884
G1 X-3.956 Y-8.29 E9.05647
G1 X-3.487 Y-8.038 E9.08303
G1 X-2.81 Y-7.733 E9.12008
G1 X-2.01 Y-7.461 E9.16223
G1 X-.869 Y-7.215 E9.22047
G1 X-.4 Y-7.073 E9.24491
G1 X-0.016 Y-6.884 E9.26627
G1 X0.257 Y-7.036 E9.28186
G1 X0.717 Y-7.202 E9.30625
G1 X1.422 Y-7.334 E9.34204
G1 X2.268 Y-7.535 E9.38542
G1 X2.991 Y-7.801 E9.42385
G1 X3.491 Y-8.039 E9.45148
G1 X4.113 Y-8.393 E9.48719
G1 X4.699 Y-8.804 E9.5229
G1 X5 Y-9.048 E9.54223
G1 X5 Y-20.075 E10.09237
G1 X4.218 Y-20.651 E10.14082
G1 X3.478 Y-21.068 E10.1832
G1 X2.655 Y-21.438 E10.22822
G1 X1.794 Y-21.688 E10.27295
G1 X0.874 Y-21.884 E10.31988
G1 X0.405 Y-22.025 E10.34431
G1 X0.014 Y-22.216 E10.36602
G1 X-.257 Y-22.065 E10.3815
G1 X-.717 Y-21.899 E10.40589
G1 X-1.862 Y-21.683 E10.46403
G1 X-2.657 Y-21.433 E10.5056
G1 X-3.344 Y-21.142 E10.54283
G1 X-3.959 Y-20.808 E10.57774
G1 X-4.563 Y-20.406 E10.61394
G1 X-5 Y-20.051 E10.64203
G1 X-5 Y-9.049 E11.19092
G0 F3600 X-5.4 Y-8.862
G1 F900 X-4.808 Y-8.376 E11.22913
G1 X-4.168 Y-7.951 E11.26746
G1 X-3.653 Y-7.673 E11.29666
G1 X-2.789 Y-7.284 E11.34393
G1 X-1.882 Y-7.024 E11.39101
G1 X-.953 Y-6.824 E11.43842
G1 X-.518 Y-6.689 E11.46114
G1 X-0.015 Y-6.407 E11.48991
G1 X0.213 Y-6.565 E11.50375
G1 X0.627 Y-6.755 E11.52647
G1 X1.51 Y-6.944 E11.57152
G1 X2.411 Y-7.16 E11.61775
G1 X3.14 Y-7.429 E11.65652
G1 X3.665 Y-7.679 E11.68553
G1 X4.323 Y-8.053 E11.72329
G1 X4.941 Y-8.485 E11.7609
G1 X5.4 Y-8.871 E11.79083
G1 X5.4 Y-20.229 E12.35748
G1 X5.101 Y-20.498 E12.37754
G1 X4.642 Y-20.835 E12.40595
G1 X3.996 Y-21.245 E12.44412
G1 X3.322 Y-21.585 E12.48179
G1 X2.604 Y-21.869 E12.52031
G1 X1.877 Y-22.079 E12.55806
G1 X0.957 Y-22.275 E12.60499
G1 X0.522 Y-22.409 E12.6277
G1 X0.015 Y-22.693 E12.65669
G1 X-.213 Y-22.536 E12.6705
G1 X-.745 Y-22.292 E12.6997
G1 X-2.028 Y-22.05 E12.76484
G1 X-2.797 Y-21.809 E12.80505
G1 X-3.508 Y-21.507 E12.84359
G1 X-4.171 Y-21.148 E12.8812
G1 X-4.795 Y-20.732 E12.91862
G1 X-5.4 Y-20.243 E12.95743
G1 X-5.4 Y-8.862 E13.52523
G0 F3600 X-5.8 Y-8.667
G1 F900 X-5.034 Y-8.047 E13.57439
G1 X-4.369 Y-7.603 E13.61428
G1 X-3.853 Y-7.326 E13.6435
G1 X-3.115 Y-6.993 E13.6839
G1 X-2.215 Y-6.686 E13.73134
G1 X-1.037 Y-6.433 E13.79145
G1 X-.638 Y-6.306 E13.81234
G1 X-.27 Y-6.106 E13.83323
G1 X-0.012 Y-5.893 E13.84993
G1 X0.227 Y-6.1 E13.8657
G1 X0.59 Y-6.309 E13.8866
G1 X1.139 Y-6.476 E13.91523
G1 X1.983 Y-6.636 E13.95808
G1 X2.751 Y-6.86 E13.998
G1 X3.299 Y-7.061 E14.02712
G1 X3.848 Y-7.323 E14.05747
G1 X4.704 Y-7.809 E14.10657
G1 X5.5 Y-8.423 E14.15673
G1 X5.8 Y-8.692 E14.17683
G1 X5.8 Y-20.407 E14.7613
G1 X5.36 Y-20.803 E14.79083
G1 X4.66 Y-21.318 E14.83418
G1 X3.842 Y-21.78 E14.88105
G1 X3.124 Y-22.104 E14.92035
G1 X2.208 Y-22.417 E14.96865
G1 X1.041 Y-22.666 E15.02818
G1 X0.641 Y-22.793 E15.04912
G1 X0.273 Y-22.992 E15.06999
G1 X0.011 Y-23.207 E15.0869
G1 X-.227 Y-23.001 E15.1026
G1 X-.59 Y-22.792 E15.1235
G1 X-1.135 Y-22.626 E15.15192
G1 X-2.142 Y-22.433 E15.20308
G1 X-2.942 Y-22.182 E15.24491
G1 X-3.686 Y-21.866 E15.28523
G1 X-4.367 Y-21.497 E15.32388
G1 X-5.04 Y-21.048 E15.36424
G1 X-5.8 Y-20.434 E15.41298
G1 X-5.8 Y-8.667 E16.00004
G0 F3600 X-6.2 Y-8.524
G1 F900 X-5.907 Y-8.238 E16.02047
G1 X-5.27 Y-7.723 E16.06134
G1 X-4.581 Y-7.264 E16.10264
G1 X-4.02 Y-6.962 E16.13443
G1 X-3.274 Y-6.626 E16.17525
G1 X-2.326 Y-6.301 E16.22524
G1 X-1.121 Y-6.042 E16.28673
G1 X-.761 Y-5.923 E16.30565
G1 X-.434 Y-5.732 E16.32454
G1 X-.154 Y-5.477 E16.34344
G1 X-0.008 Y-5.273 E16.35595
G1 X0.303 Y-5.651 E16.38037
G1 X0.612 Y-5.871 E16.3993
G1 X0.959 Y-6.023 E16.4182
G1 X1.661 Y-6.158 E16.45386
G1 X2.634 Y-6.39 E16.50377
G1 X3.452 Y-6.691 E16.54725
G1 X4.024 Y-6.963 E16.57885
G1 X4.744 Y-7.372 E16.62016
G1 X5.604 Y-7.975 E16.67257
G1 X6.2 Y-8.525 E16.71303
G1 X6.2 Y-20.586 E17.31475
G1 X5.616 Y-21.112 E17.35396
G1 X5.086 Y-21.501 E17.38676
G1 X4.219 Y-22.05 E17.43796
G1 X3.06 Y-22.569 E17.50132
G1 X2.065 Y-22.857 E17.55299
G1 X1.124 Y-23.058 E17.601
G1 X0.764 Y-23.175 E17.61989
G1 X0.436 Y-23.366 E17.63882
G1 X0.156 Y-23.621 E17.65772
G1 X0.008 Y-23.827 E17.67037
G1 X-.303 Y-23.45 E17.69475
G1 X-.612 Y-23.23 E17.71368
G1 X-1.008 Y-23.057 E17.73524
G1 X-2.23 Y-22.825 E17.79729
G1 X-3.074 Y-22.56 E17.84143
G1 X-3.862 Y-22.226 E17.88413
G1 X-4.576 Y-21.839 E17.92464
G1 X-5.272 Y-21.375 E17.96638
G1 X-5.772 Y-20.971 E17.99845
G1 X-6.2 Y-20.577 E18.02747
G1 X-6.2 Y-8.524 E18.6288
G0 F3600 X-6.6 Y-8.356
G1 F900 X-6.173 Y-7.94 E18.65854
G1 X-5.525 Y-7.413 E18.70021
G1 X-4.782 Y-6.917 E18.74478
G1 X-4.203 Y-6.606 E18.77757
G1 X-3.201 Y-6.155 E18.83239
G1 X-2.174 Y-5.86 E18.8857
G1 X-1.205 Y-5.651 E18.93515
G1 X-.89 Y-5.542 E18.95178
G1 X-.608 Y-5.361 E18.9685
G1 X-.378 Y-5.119 E18.98516
G1 X-.212 Y-4.83 E19.00178
G1 X-.1 Y-4.443 E19.02188
G1 X-.1 Y10.839 E19.7843
G1 X-.14 Y11.171 E19.80099
G1 X-.257 Y11.483 E19.81761
G1 X-.445 Y11.76 E19.83431
G1 X-.693 Y11.983 E19.85095
G1 X-.987 Y12.142 E19.86763
G1 X-1.547 Y12.282 E19.89643
G1 X-2.214 Y12.479 E19.93112
G1 X-2.829 Y12.729 E19.96425
G1 X-3.41 Y13.034 E19.99698
G1 X-3.968 Y13.403 E20.03036
G1 X-4.484 Y13.824 E20.06358
G1 X-4.959 Y14.296 E20.09699
G1 X-5.375 Y14.803 E20.12971
G1 X-5.75 Y15.365 E20.16342
G1 X-6.062 Y15.95 E20.19649
G1 X-6.311 Y16.551 E20.22895
G1 X-6.506 Y17.206 E20.26305
G1 X-6.632 Y17.859 E20.29622
G1 X-6.692 Y18.519 E20.32929
G1 X-6.687 Y19.192 E20.36286
G1 X-6.601 Y20.005 E20.40365
G1 X-6.344 Y20.981 E20.454
G1 X-6.014 Y21.75 E20.49575
G1 X-5.692 Y22.331 E20.52889
G1 X-5.313 Y22.879 E20.56214
G1 X-4.882 Y23.388 E20.59541
G1 X-4.286 Y23.961 E20.63666
G1 X-3.469 Y24.54 E20.68662
G1 X-2.715 Y24.923 E20.72881
G1 X-2.115 Y25.157 E20.76094
G1 X-1.466 Y25.336 E20.79453
G1 X-.798 Y25.45 E20.82833
G1 X-.14 Y25.497 E20.86125
G1 X0.683 Y25.473 E20.90232
G1 X1.68 Y25.293 E20.95287
G1 X2.479 Y25.023 E20.99494
G1 X3.07 Y24.754 E21.02734
G1 X3.809 Y24.324 E21.07
G1 X4.431 Y23.824 E21.10981
G1 X5.041 Y23.226 E21.15243
G1 X5.642 Y22.43 E21.20219
G1 X6.033 Y21.712 E21.24298
G1 X6.3 Y21.077 E21.27734
G1 X6.493 Y20.444 E21.31036
G1 X6.657 Y19.628 E21.35188
G1 X6.707 Y18.634 E21.40154
G1 X6.625 Y17.805 E21.4431
G1 X6.495 Y17.162 E21.47583
G1 X6.303 Y16.531 E21.50873
G1 X5.981 Y15.761 E21.55037
G1 X5.551 Y15.05 E21.59183
G1 X5.158 Y14.527 E21.62447
G1 X4.706 Y14.034 E21.65783
G1 X4.215 Y13.593 E21.69076
G1 X3.681 Y13.203 E21.72375
G1 X3.111 Y12.867 E21.75676
G1 X2.359 Y12.52 E21.79808
G1 X1.551 Y12.284 E21.84007
G1 X0.885 Y12.097 E21.87459
G1 X0.605 Y11.915 E21.89125
G1 X0.375 Y11.673 E21.9079
G1 X0.21 Y11.382 E21.92459
G1 X0.1 Y10.998 E21.94452
G1 X0.1 Y-4.306 E22.70804
G1 X0.14 Y-4.638 E22.72472
G1 X0.257 Y-4.95 E22.74135
G1 X0.445 Y-5.227 E22.75805
G1 X0.693 Y-5.45 E22.77469
G1 X1.056 Y-5.646 E22.79527
G1 X2.183 Y-5.861 E22.85251
G1 X3.023 Y-6.107 E22.89618
G1 X3.61 Y-6.323 E22.92739
G1 X4.198 Y-6.604 E22.9599
G1 X5.144 Y-7.14 E23.01414
G1 X6.022 Y-7.816 E23.06943
G1 X6.6 Y-8.356 E23.10889
G1 X6.6 Y-20.765 E23.72798
G1 X5.864 Y-21.426 E23.77733
G1 X5.323 Y-21.824 E23.81084
G1 X4.41 Y-22.402 E23.86475
G1 X3.204 Y-22.944 E23.93071
G1 X2.164 Y-23.245 E23.98473
G1 X1.208 Y-23.449 E24.0335
G1 X0.892 Y-23.557 E24.05016
G1 X0.61 Y-23.737 E24.06685
G1 X0.38 Y-23.979 E24.08351
G1 X0.213 Y-24.268 E24.10016
G1 X0.1 Y-24.654 E24.12022
G1 X0.1 Y-34.795 E24.62616
G1 X0.14 Y-35.127 E24.64284
G1 X0.257 Y-35.439 E24.65947
G1 X0.445 Y-35.716 E24.67617
G1 X0.693 Y-35.939 E24.69281
G1 X0.987 Y-36.098 E24.70948
G1 X1.361 Y-36.195 E24.72876
G1 X13.622 Y-36.192 E25.34046
G1 X14.282 Y-36.124 E25.37357
G1 X15.008 Y-35.884 E25.41171
G1 X15.346 Y-35.719 E25.43048
G1 X16.103 Y-35.213 E25.47591
G1 X16.597 Y-34.66 E25.5129
G1 X16.871 Y-34.249 E25.53754
G1 X17.185 Y-33.6 E25.57351
G1 X17.369 Y-32.766 E25.61612
G1 X17.4 Y-32.296 E25.63962
G1 X17.4 Y18.835 E28.19056
G1 X17.38 Y19.637 E28.23058
G1 X17.309 Y20.574 E28.27746
G1 X17.21 Y21.36 E28.31699
G1 X17.047 Y22.292 E28.36419
G1 X16.853 Y23.128 E28.40701
G1 X16.637 Y23.895 E28.44676
G1 X16.337 Y24.787 E28.49371
G1 X16.048 Y25.526 E28.5333
G1 X15.692 Y26.318 E28.57662
G1 X15.265 Y27.152 E28.62337
G1 X14.826 Y27.908 E28.66698
G1 X14.357 Y28.631 E28.70998
G1 X13.89 Y29.279 E28.74983
G1 X13.307 Y30.01 E28.79647
G1 X12.774 Y30.613 E28.83663
G1 X12.124 Y31.278 E28.88302
G1 X11.486 Y31.869 E28.92641
G1 X10.871 Y32.385 E28.96646
G1 X10.13 Y32.947 E29.01286
G1 X9.411 Y33.435 E29.05621
G1 X8.671 Y33.885 E29.09942
G1 X7.907 Y34.3 E29.1428
G1 X7.188 Y34.646 E29.1826
G1 X6.323 Y35.01 E29.22942
G1 X5.509 Y35.304 E29.2726
G1 X4.745 Y35.54 E29.3125
G1 X3.839 Y35.77 E29.35913
G1 X2.98 Y35.943 E29.40285
G1 X2.196 Y36.06 E29.44239
G1 X1.335 Y36.148 E29.48557
G1 X0.399 Y36.195 E29.53233
G1 X-.399 Y36.195 E29.57214
G1 X-1.337 Y36.148 E29.619
G1 X-2.196 Y36.06 E29.66208
G1 X-2.984 Y35.942 E29.70183
G1 X-3.839 Y35.77 E29.74534
G1 X-4.752 Y35.537 E29.79235
G1 X-5.514 Y35.302 E29.83213
G1 X-6.39 Y34.984 E29.87863
G1 X-7.189 Y34.645 E29.92193
G1 X-7.906 Y34.299 E29.96165
G1 X-8.731 Y33.851 E30.00848
G1 X-9.412 Y33.434 E30.04832
G1 X-10.185 Y32.908 E30.09497
G1 X-10.822 Y32.425 E30.13485
G1 X-11.532 Y31.828 E30.18113
G1 X-12.175 Y31.231 E30.22491
G1 X-12.732 Y30.659 E30.26474
G1 X-13.354 Y29.954 E30.31164
G1 X-13.893 Y29.274 E30.35493
G1 X-14.356 Y28.632 E30.39442
G1 X-14.832 Y27.898 E30.43807
G1 X-15.298 Y27.091 E30.48456
G1 X-15.665 Y26.375 E30.5247
G1 X-16.047 Y25.526 E30.57115
G1 X-16.364 Y24.714 E30.61464
G1 X-16.638 Y23.89 E30.65796
G1 X-16.87 Y23.06 E30.70096
G1 X-17.048 Y22.284 E30.74068
G1 X-17.2 Y21.426 E30.78415
G1 X-17.316 Y20.497 E30.83086
G1 X-17.38 Y19.631 E30.87418
G1 X-17.4 Y18.8 E30.91565
G1 X-17.397 Y-32.625 E33.48125
G1 X-17.244 Y-33.371 E33.51925
G1 X-16.944 Y-34.111 E33.55908
G1 X-16.619 Y-34.626 E33.58947
G1 X-16.399 Y-34.895 E33.6068
G1 X-15.951 Y-35.32 E33.63761
G1 X-15.292 Y-35.754 E33.67698
G1 X-14.619 Y-36.038 E33.71342
G1 X-13.745 Y-36.192 E33.7577
G1 X-1.5 Y-36.195 E34.3686
G1 X-1.169 Y-36.155 E34.38524
G1 X-.856 Y-36.038 E34.40191
G1 X-.58 Y-35.85 E34.41857
G1 X-.356 Y-35.602 E34.43524
G1 X-.197 Y-35.308 E34.45192
G1 X-.1 Y-34.935 E34.47114
G1 X-.1 Y-24.795 E34.97703
G1 X-.14 Y-24.463 E34.99371
G1 X-.257 Y-24.151 E35.01034
G1 X-.445 Y-23.874 E35.02704
G1 X-.693 Y-23.651 E35.04368
G1 X-1.058 Y-23.454 E35.06437
G1 X-2.326 Y-23.214 E35.12876
G1 X-3.214 Y-22.935 E35.17519
G1 X-4.035 Y-22.586 E35.2197
G1 X-4.783 Y-22.181 E35.26214
G1 X-5.515 Y-21.693 E35.30603
G1 X-6.018 Y-21.286 E35.33831
G1 X-6.6 Y-20.744 E35.37799
G1 X-6.6 Y-8.356 E35.99603
G0 F3600 X-7 Y-8.193
G1 F900 X-6.444 Y-7.645 E36.03497
G1 X-5.747 Y-7.081 E36.07971
G1 X-4.994 Y-6.578 E36.12488
G1 X-4.369 Y-6.242 E36.16029
G1 X-3.351 Y-5.783 E36.216
G1 X-2.263 Y-5.47 E36.27248
G1 X-1.29 Y-5.26 E36.32214
G1 X-1.025 Y-5.162 E36.33624
G1 X-.798 Y-4.994 E36.35033
G1 X-.627 Y-4.77 E36.36439
G1 X-.526 Y-4.507 E36.37844
G1 X-.5 Y-4.282 E36.38974
G1 X-.5 Y10.839 E37.14413
G1 X-.54 Y11.118 E37.15819
G1 X-.656 Y11.375 E37.17226
G1 X-.839 Y11.59 E37.18635
G1 X-1.075 Y11.744 E37.2004
G1 X-1.648 Y11.895 E37.22997
G1 X-2.349 Y12.101 E37.26642
G1 X-2.992 Y12.363 E37.30106
G1 X-3.619 Y12.692 E37.33639
G1 X-4.202 Y13.078 E37.37127
G1 X-4.753 Y13.527 E37.40673
G1 X-5.249 Y14.021 E37.44165
G1 X-5.702 Y14.572 E37.47724
G1 X-6.093 Y15.157 E37.51235
