;FLAVOR:Marlin
;TIME:522
;Filament used: 0.266083m
;Layer height: 0.15
;MINX:3.312
;MINY:-16.066
;MINZ:0.12
;MAXX:27.824
;MAXY:8.545
;MAXZ:5.97
;Generated with Cura_SteamEngine 4.13.1
M140 S70
M105
M190 S70
M104 S235
M105
M109 S235
M82 ;absolute extrusion mode
G28 ;Home
G1 Z15.0 F6000 ;Move the platform down 15mm
;Prime the extruder
G92 E0
G1 F200 E3
G92 E0
G92 E0
G92 E0
G1 F4200 E-4.1
;LAYER_COUNT:40
;LAYER:0
M107
G1 F600 Z0.32
G0 F3600 X3.624 Y-1.871 Z0.32
;TYPE:SKIRT
G1 F600 Z0.12
G1 F4200 E0
G1 F1200 X3.45 Y-2.479 E0.01325
G1 X3.347 Y-3.177 E0.02804
G1 X3.319 Y-3.549 E0.03585
G1 X3.312 Y-4.181 E0.0491
G1 X3.384 Y-4.809 E0.06234
G1 X3.535 Y-5.423 E0.07559
G1 X3.762 Y-6.013 E0.08884
G1 X4.043 Y-6.541 E0.10137
G1 X4.084 Y-6.602 E0.10291
G1 X4.078 Y-6.699 E0.10495
G1 X4.078 Y-7.331 E0.11819
G1 X4.159 Y-7.958 E0.13144
G1 X4.317 Y-8.57 E0.14468
G1 X4.636 Y-9.325 E0.16185
G1 X4.801 Y-9.641 E0.16932
G1 X5.128 Y-10.182 E0.18257
G1 X5.521 Y-10.677 E0.19581
G1 X5.974 Y-11.119 E0.20908
G1 X6.706 Y-11.641 E0.22791
G1 X6.737 Y-11.668 E0.22878
G1 X7.023 Y-12.232 E0.24203
G1 X7.377 Y-12.755 E0.25526
G1 X7.794 Y-13.23 E0.2685
G1 X8.485 Y-13.808 E0.28738
G1 X8.778 Y-14.011 E0.29485
G1 X9.32 Y-14.337 E0.3081
G1 X9.898 Y-14.593 E0.32135
G1 X10.504 Y-14.773 E0.3346
G1 X11.414 Y-14.897 E0.35384
G1 X11.833 Y-15.189 E0.36454
G1 X12.382 Y-15.502 E0.37778
G1 X12.967 Y-15.743 E0.39104
G1 X13.769 Y-15.944 E0.40837
G1 X14.129 Y-16.003 E0.41601
G1 X14.758 Y-16.066 E0.42926
G1 X15.39 Y-16.049 E0.4425
G1 X16.015 Y-15.952 E0.45576
G1 X16.622 Y-15.777 E0.46899
G1 X17.101 Y-15.578 E0.47986
G1 X17.581 Y-15.657 E0.49005
G1 X18.213 Y-15.679 E0.50331
G1 X18.842 Y-15.622 E0.51654
G1 X19.705 Y-15.408 E0.53517
G1 X20.05 Y-15.289 E0.54282
G1 X20.634 Y-15.045 E0.55608
G1 X21.182 Y-14.73 E0.56932
G1 X21.686 Y-14.348 E0.58258
G1 X22.137 Y-13.906 E0.59581
G1 X22.431 Y-13.549 E0.6055
G1 X22.88 Y-13.401 E0.6154
G1 X23.45 Y-13.128 E0.62865
G1 X23.982 Y-12.786 E0.6419
G1 X24.631 Y-12.214 E0.66003
G1 X24.882 Y-11.951 E0.66764
G1 X25.289 Y-11.467 E0.6809
G1 X25.631 Y-10.936 E0.69413
G1 X25.904 Y-10.365 E0.70739
G1 X26.102 Y-9.765 E0.72063
G1 X26.209 Y-9.289 E0.73085
G1 X26.636 Y-8.822 E0.74411
G1 X27 Y-8.306 E0.75735
G1 X27.296 Y-7.747 E0.7706
G1 X27.599 Y-6.868 E0.79008
G1 X27.684 Y-6.518 E0.79763
G1 X27.794 Y-5.896 E0.81086
G1 X27.824 Y-5.264 E0.82412
G1 X27.775 Y-4.634 E0.83736
G1 X27.567 Y-3.758 E0.85623
G1 X27.733 Y-3.128 E0.86988
G1 X27.814 Y-2.502 E0.88311
G1 X27.816 Y-1.869 E0.89637
G1 X27.677 Y-.966 E0.91551
G1 X27.591 Y-.62 E0.92299
G1 X27.4 Y-0.017 E0.93624
G1 X27.135 Y0.556 E0.94947
G1 X26.799 Y1.092 E0.96272
G1 X26.203 Y1.779 E0.98178
G1 X26.061 Y2.404 E0.99521
G1 X25.843 Y2.998 E1.00847
G1 X25.552 Y3.559 E1.02171
G1 X25.013 Y4.293 E1.04079
G1 X24.775 Y4.562 E1.04832
G1 X24.327 Y5.008 E1.06157
G1 X23.826 Y5.394 E1.07482
G1 X23.281 Y5.714 E1.08806
G1 X22.699 Y5.962 E1.10132
G1 X22.404 Y6.056 E1.1078
G1 X22.1 Y6.428 E1.11787
G1 X21.643 Y6.864 E1.13111
G1 X21.133 Y7.239 E1.14437
G1 X20.394 Y7.631 E1.1619
G1 X20.059 Y7.774 E1.16953
G1 X19.463 Y7.984 E1.18277
G1 X18.845 Y8.119 E1.19603
G1 X18.216 Y8.174 E1.20926
G1 X17.584 Y8.149 E1.22251
G1 X17.085 Y8.073 E1.23309
G1 X16.505 Y8.305 E1.24618
G1 X15.893 Y8.464 E1.25943
G1 X15.266 Y8.545 E1.27267
G1 X14.367 Y8.522 E1.29152
G1 X14.014 Y8.481 E1.29896
G1 X13.392 Y8.368 E1.31221
G1 X12.789 Y8.178 E1.32546
G1 X12.215 Y7.913 E1.3387
G1 X11.424 Y7.384 E1.35864
G1 X10.783 Y7.317 E1.37215
G1 X10.168 Y7.171 E1.38539
G1 X9.576 Y6.949 E1.39864
G1 X8.78 Y6.5 E1.41779
G1 X8.488 Y6.298 E1.42523
G1 X7.992 Y5.906 E1.43848
G1 X7.55 Y5.455 E1.45171
G1 X7.167 Y4.951 E1.46497
G1 X6.744 Y4.172 E1.48355
G1 X6.706 Y4.13 E1.48474
G1 X6.181 Y3.777 E1.49799
G1 X5.706 Y3.36 E1.51124
G1 X5.287 Y2.887 E1.52448
G1 X4.809 Y2.146 E1.54295
G1 X4.642 Y1.829 E1.55046
G1 X4.384 Y1.253 E1.56369
G1 X4.2 Y0.648 E1.57694
G1 X4.094 Y0.025 E1.59018
G1 X4.067 Y-.607 E1.60343
G1 X4.084 Y-.934 E1.6103
G1 X3.874 Y-1.29 E1.61896
G1 X3.624 Y-1.871 E1.63221
G0 F3600 X3.984 Y-2.052
G1 F1200 X3.825 Y-2.637 E1.64491
G1 X3.746 Y-3.207 E1.65697
G1 X3.718 Y-3.579 E1.66479
G1 X3.712 Y-4.185 E1.67749
G1 X3.787 Y-4.787 E1.6902
G1 X3.939 Y-5.374 E1.7029
G1 X4.168 Y-5.935 E1.7156
G1 X4.5 Y-6.505 E1.72942
G1 X4.477 Y-6.724 E1.73404
G1 X4.479 Y-7.33 E1.74673
G1 X4.561 Y-7.931 E1.75944
G1 X4.721 Y-8.516 E1.77215
G1 X4.99 Y-9.14 E1.78639
G1 X5.155 Y-9.456 E1.79386
G1 X5.471 Y-9.974 E1.80657
G1 X5.852 Y-10.446 E1.81929
G1 X6.291 Y-10.863 E1.83197
G1 X6.908 Y-11.296 E1.84777
G1 X7.06 Y-11.405 E1.85169
G1 X7.105 Y-11.51 E1.85408
G1 X7.38 Y-12.05 E1.86678
G1 X7.724 Y-12.55 E1.87949
G1 X8.13 Y-13 E1.89219
G1 X8.713 Y-13.479 E1.90801
G1 X9.006 Y-13.682 E1.91547
G1 X9.526 Y-13.994 E1.92818
G1 X10.083 Y-14.234 E1.94089
G1 X10.666 Y-14.4 E1.95359
G1 X11.431 Y-14.497 E1.96975
G1 X11.588 Y-14.506 E1.97304
G1 X12.074 Y-14.868 E1.98574
G1 X12.603 Y-15.164 E1.99844
G1 X13.166 Y-15.388 E2.01114
G1 X13.834 Y-15.549 E2.02554
G1 X14.194 Y-15.608 E2.03318
G1 X14.798 Y-15.667 E2.0459
G1 X15.403 Y-15.645 E2.05858
G1 X16.001 Y-15.544 E2.07129
G1 X16.806 Y-15.273 E2.08909
G1 X17.047 Y-15.165 E2.09462
G1 X17.645 Y-15.261 E2.10732
G1 X18.251 Y-15.278 E2.12002
G1 X18.854 Y-15.215 E2.13272
G1 X19.575 Y-15.03 E2.14832
G1 X19.92 Y-14.911 E2.15597
G1 X20.479 Y-14.676 E2.16867
G1 X21.002 Y-14.369 E2.18138
G1 X21.48 Y-13.996 E2.19408
G1 X22.057 Y-13.378 E2.2118
G1 X22.179 Y-13.212 E2.21612
G1 X22.754 Y-13.02 E2.22882
G1 X23.299 Y-12.755 E2.24152
G1 X23.804 Y-12.419 E2.25423
G1 X24.342 Y-11.938 E2.26935
G1 X24.593 Y-11.675 E2.27697
G1 X24.982 Y-11.21 E2.28967
G1 X25.306 Y-10.697 E2.30239
G1 X25.56 Y-10.147 E2.31508
G1 X25.79 Y-9.329 E2.33288
G1 X25.85 Y-9.08 E2.33825
G1 X25.932 Y-9.001 E2.34064
G1 X26.339 Y-8.552 E2.35334
G1 X26.685 Y-8.054 E2.36604
G1 X26.962 Y-7.515 E2.37874
G1 X27.21 Y-6.774 E2.39511
G1 X27.295 Y-6.424 E2.40266
G1 X27.399 Y-5.826 E2.41538
G1 X27.423 Y-5.22 E2.42809
G1 X27.368 Y-4.617 E2.44077
G1 X27.185 Y-3.871 E2.45687
G1 X27.157 Y-3.724 E2.46001
G1 X27.193 Y-3.615 E2.46241
G1 X27.345 Y-3.028 E2.47512
G1 X27.418 Y-2.426 E2.48782
G1 X27.411 Y-1.82 E2.50052
G1 X27.289 Y-1.062 E2.51661
G1 X27.203 Y-.716 E2.52408
G1 X27.018 Y-.139 E2.53678
G1 X26.759 Y0.409 E2.54948
G1 X26.431 Y0.919 E2.56218
G1 X25.93 Y1.487 E2.57805
G1 X25.827 Y1.608 E2.58138
G1 X25.808 Y1.724 E2.58385
G1 X25.67 Y2.314 E2.59654
G1 X25.457 Y2.881 E2.60923
G1 X25.17 Y3.416 E2.62196
G1 X24.713 Y4.028 E2.63796
G1 X24.475 Y4.297 E2.64549
G1 X24.044 Y4.724 E2.6582
G1 X23.561 Y5.09 E2.6709
G1 X23.034 Y5.39 E2.6836
G1 X22.267 Y5.679 E2.70078
G1 X22.174 Y5.706 E2.70281
G1 X21.79 Y6.175 E2.71551
G1 X21.348 Y6.589 E2.7282
G1 X20.854 Y6.942 E2.74092
G1 X20.237 Y7.263 E2.75549
G1 X19.902 Y7.406 E2.76313
G1 X19.33 Y7.606 E2.77582
G1 X18.736 Y7.73 E2.78854
G1 X18.132 Y7.775 E2.80123
G1 X17.273 Y7.701 E2.8193
G1 X17.023 Y7.66 E2.8246
G1 X16.92 Y7.709 E2.82699
G1 X16.357 Y7.933 E2.83969
G1 X15.769 Y8.08 E2.85239
G1 X15.166 Y8.15 E2.86511
G1 X14.413 Y8.124 E2.8809
G1 X14.06 Y8.083 E2.88835
G1 X13.464 Y7.974 E2.90104
G1 X12.887 Y7.787 E2.91375
G1 X12.34 Y7.526 E2.92645
G1 X11.689 Y7.083 E2.94295
G1 X11.546 Y6.989 E2.94654
G1 X11.429 Y6.984 E2.94899
G1 X10.826 Y6.918 E2.9617
G1 X10.237 Y6.774 E2.97441
G1 X9.672 Y6.553 E2.98712
G1 X9.008 Y6.171 E3.00317
G1 X8.716 Y5.969 E3.01061
G1 X8.241 Y5.592 E3.02332
G1 X7.82 Y5.156 E3.03602
G1 X7.46 Y4.668 E3.04872
G1 X7.111 Y4.013 E3.06427
G1 X7.007 Y3.843 E3.06845
G1 X6.908 Y3.785 E3.07085
G1 X6.406 Y3.445 E3.08356
G1 X5.953 Y3.041 E3.09628
G1 X5.558 Y2.582 E3.10897
G1 X5.163 Y1.96 E3.12441
G1 X4.996 Y1.643 E3.13191
G1 X4.75 Y1.089 E3.14461
G1 X4.578 Y0.508 E3.15731
G1 X4.484 Y-0.091 E3.17002
G1 X4.483 Y-.896 E3.18688
G1 X4.495 Y-1.023 E3.18956
G1 X4.219 Y-1.493 E3.20098
G1 X3.984 Y-2.052 E3.21368
G0 F3600 X4.346 Y-2.231
G1 F1200 X4.202 Y-2.793 E3.22584
G1 X4.117 Y-3.609 E3.24303
G1 X4.113 Y-4.188 E3.25516
G1 X4.19 Y-4.762 E3.2673
G1 X4.344 Y-5.321 E3.27945
G1 X4.673 Y-6.034 E3.2959
G1 X4.915 Y-6.406 E3.3052
G1 X4.876 Y-6.749 E3.31244
G1 X4.88 Y-7.328 E3.32457
G1 X4.964 Y-7.902 E3.33672
G1 X5.125 Y-8.458 E3.34885
G1 X5.345 Y-8.955 E3.36024
G1 X5.51 Y-9.271 E3.36771
G1 X5.813 Y-9.765 E3.37985
G1 X6.181 Y-10.212 E3.39199
G1 X6.607 Y-10.605 E3.40413
G1 X7.11 Y-10.951 E3.41692
G1 X7.373 Y-11.091 E3.42317
G1 X7.473 Y-11.352 E3.42902
G1 X7.737 Y-11.868 E3.44117
G1 X8.07 Y-12.342 E3.45331
G1 X8.465 Y-12.766 E3.46545
G1 X8.941 Y-13.15 E3.47826
G1 X9.234 Y-13.353 E3.48573
G1 X9.732 Y-13.65 E3.49788
G1 X10.266 Y-13.875 E3.51003
G1 X10.825 Y-14.024 E3.52215
G1 X11.448 Y-14.097 E3.53529
G1 X11.731 Y-14.098 E3.54122
G1 X11.848 Y-14.202 E3.5445
G1 X12.313 Y-14.547 E3.55663
G1 X12.821 Y-14.825 E3.56877
G1 X13.363 Y-15.03 E3.58091
G1 X13.899 Y-15.155 E3.59244
G1 X14.259 Y-15.214 E3.60009
G1 X14.836 Y-15.268 E3.61223
G1 X15.414 Y-15.242 E3.62435
G1 X15.984 Y-15.137 E3.6365
G1 X16.644 Y-14.907 E3.65114
G1 X17.027 Y-14.75 E3.65982
G1 X17.136 Y-14.775 E3.66216
G1 X17.708 Y-14.865 E3.67429
G1 X18.288 Y-14.876 E3.68645
G1 X18.863 Y-14.806 E3.69859
G1 X19.445 Y-14.651 E3.71121
G1 X19.79 Y-14.532 E3.71885
G1 X20.323 Y-14.306 E3.73098
G1 X20.82 Y-14.009 E3.74312
G1 X21.271 Y-13.646 E3.75525
G1 X21.741 Y-13.133 E3.76983
G1 X21.97 Y-12.853 E3.77741
G1 X22.077 Y-12.825 E3.77972
G1 X22.626 Y-12.64 E3.79186
G1 X23.145 Y-12.381 E3.80402
G1 X23.622 Y-12.054 E3.81613
G1 X24.052 Y-11.662 E3.82833
G1 X24.303 Y-11.399 E3.83594
G1 X24.673 Y-10.953 E3.84809
G1 X24.979 Y-10.461 E3.86023
G1 X25.213 Y-9.931 E3.87237
G1 X25.396 Y-9.256 E3.88702
G1 X25.445 Y-8.898 E3.89459
G1 X25.654 Y-8.713 E3.90044
G1 X26.042 Y-8.283 E3.91258
G1 X26.368 Y-7.804 E3.92472
G1 X26.625 Y-7.284 E3.93687
G1 X26.821 Y-6.679 E3.9502
G1 X26.906 Y-6.329 E3.95775
G1 X27.004 Y-5.758 E3.96989
G1 X27.022 Y-5.179 E3.98202
G1 X26.96 Y-4.603 E3.99416
G1 X26.806 Y-3.999 E4.00722
G1 X26.713 Y-3.753 E4.01273
G1 X26.813 Y-3.489 E4.01865
G1 X26.956 Y-2.928 E4.03078
G1 X27.021 Y-2.352 E4.04293
G1 X27.006 Y-1.773 E4.05506
G1 X26.901 Y-1.159 E4.06812
G1 X26.815 Y-.813 E4.07559
G1 X26.637 Y-.262 E4.08772
G1 X26.384 Y0.26 E4.09987
G1 X26.063 Y0.742 E4.11201
G1 X25.652 Y1.199 E4.12489
G1 X25.447 Y1.381 E4.13063
G1 X25.413 Y1.659 E4.1365
G1 X25.28 Y2.223 E4.14864
G1 X25.071 Y2.763 E4.16078
G1 X24.789 Y3.269 E4.17291
G1 X24.414 Y3.763 E4.18591
G1 X24.176 Y4.032 E4.19344
G1 X23.763 Y4.438 E4.20557
G1 X23.298 Y4.784 E4.21772
G1 X22.79 Y5.063 E4.22986
G1 X22.16 Y5.294 E4.24392
G1 X21.914 Y5.382 E4.2494
G1 X21.849 Y5.473 E4.25174
G1 X21.48 Y5.92 E4.26388
G1 X21.054 Y6.312 E4.27601
G1 X20.577 Y6.642 E4.28817
G1 X20.08 Y6.895 E4.29985
G1 X19.745 Y7.038 E4.30749
G1 X19.198 Y7.228 E4.31962
G1 X18.63 Y7.341 E4.33175
G1 X18.051 Y7.375 E4.34391
G1 X17.345 Y7.307 E4.35877
G1 X16.983 Y7.224 E4.36655
G1 X16.748 Y7.348 E4.37212
G1 X16.209 Y7.56 E4.38426
G1 X15.646 Y7.696 E4.39639
G1 X15.07 Y7.753 E4.40852
G1 X14.459 Y7.727 E4.42134
G1 X14.106 Y7.686 E4.42878
G1 X13.537 Y7.58 E4.44091
G1 X12.988 Y7.396 E4.45304
G1 X12.469 Y7.138 E4.46519
G1 X11.941 Y6.773 E4.47864
G1 X11.728 Y6.585 E4.48459
G1 X11.446 Y6.584 E4.4905
G1 X10.87 Y6.52 E4.50264
G1 X10.309 Y6.376 E4.51478
G1 X9.772 Y6.157 E4.52693
G1 X9.236 Y5.842 E4.53996
G1 X8.944 Y5.64 E4.5474
G1 X8.491 Y5.278 E4.55955
G1 X8.093 Y4.858 E4.57167
G1 X7.756 Y4.387 E4.58381
G1 X7.478 Y3.854 E4.5964
G1 X7.372 Y3.577 E4.60262
G1 X7.11 Y3.44 E4.60881
G1 X6.631 Y3.113 E4.62097
G1 X6.202 Y2.724 E4.6331
G1 X5.831 Y2.279 E4.64524
G1 X5.517 Y1.774 E4.6577
G1 X5.35 Y1.457 E4.66521
G1 X5.116 Y0.927 E4.67735
G1 X4.957 Y0.37 E4.68949
G1 X4.877 Y-.204 E4.70163
G1 X4.882 Y-.862 E4.71542
G1 X4.913 Y-1.113 E4.72072
G1 X4.857 Y-1.195 E4.7228
G1 X4.566 Y-1.695 E4.73492
G1 X4.346 Y-2.231 E4.74706
G0 F3600 X4.709 Y-2.408
G1 F1200 X4.582 Y-2.945 E4.75862
G1 X4.516 Y-3.639 E4.77323
G1 X4.514 Y-4.19 E4.78478
G1 X4.593 Y-4.735 E4.79632
G1 X4.749 Y-5.264 E4.80787
G1 X5.019 Y-5.833 E4.82107
G1 X5.328 Y-6.301 E4.83282
G1 X5.275 Y-6.774 E4.84279
G1 X5.281 Y-7.325 E4.85434
G1 X5.366 Y-7.869 E4.86588
G1 X5.529 Y-8.396 E4.87744
G1 X5.865 Y-9.086 E4.89352
G1 X6.154 Y-9.554 E4.90504
G1 X6.509 Y-9.976 E4.9166
G1 X6.921 Y-10.342 E4.92815
G1 X7.411 Y-10.664 E4.94043
G1 X7.691 Y-10.802 E4.94697
G1 X7.84 Y-11.195 E4.95578
G1 X8.093 Y-11.684 E4.96732
G1 X8.415 Y-12.132 E4.97888
G1 X8.797 Y-12.528 E4.99041
G1 X9.462 Y-13.025 E5.0078
G1 X9.936 Y-13.305 E5.01934
G1 X10.446 Y-13.513 E5.03088
G1 X10.981 Y-13.646 E5.04243
G1 X11.583 Y-13.703 E5.0551
G1 X11.884 Y-13.694 E5.06141
G1 X12.108 Y-13.898 E5.06776
G1 X12.551 Y-14.225 E5.0793
G1 X13.038 Y-14.484 E5.09086
G1 X13.556 Y-14.67 E5.10239
G1 X14.323 Y-14.819 E5.11876
G1 X14.872 Y-14.868 E5.13031
G1 X15.422 Y-14.838 E5.14185
G1 X15.962 Y-14.728 E5.1534
G1 X16.481 Y-14.541 E5.16496
G1 X16.936 Y-14.308 E5.17567
G1 X17.225 Y-14.385 E5.18194
G1 X17.77 Y-14.469 E5.19349
G1 X18.321 Y-14.473 E5.20504
G1 X18.867 Y-14.398 E5.21659
G1 X19.659 Y-14.154 E5.23395
G1 X20.166 Y-13.937 E5.24551
G1 X20.635 Y-13.649 E5.25704
G1 X21.059 Y-13.297 E5.26859
G1 X21.425 Y-12.888 E5.28009
G1 X21.691 Y-12.503 E5.28989
G1 X21.976 Y-12.438 E5.29602
G1 X22.498 Y-12.26 E5.30757
G1 X22.988 Y-12.009 E5.31911
G1 X23.437 Y-11.69 E5.33065
G1 X24.014 Y-11.123 E5.3476
G1 X24.365 Y-10.697 E5.35917
G1 X24.65 Y-10.226 E5.3707
G1 X24.864 Y-9.718 E5.38225
G1 X25.003 Y-9.184 E5.39382
G1 X25.065 Y-8.699 E5.40406
G1 X25.376 Y-8.425 E5.41275
G1 X25.745 Y-8.015 E5.4243
G1 X26.049 Y-7.556 E5.43584
G1 X26.285 Y-7.057 E5.44741
G1 X26.518 Y-6.235 E5.46531
G1 X26.609 Y-5.691 E5.47687
G1 X26.62 Y-5.14 E5.48841
G1 X26.551 Y-4.594 E5.49995
G1 X26.39 Y-4.017 E5.5125
G1 X26.282 Y-3.759 E5.51836
G1 X26.433 Y-3.364 E5.52722
G1 X26.568 Y-2.829 E5.53878
G1 X26.623 Y-2.281 E5.55032
G1 X26.599 Y-1.731 E5.56186
G1 X26.427 Y-.909 E5.57945
G1 X26.255 Y-.386 E5.59099
G1 X26.01 Y0.108 E5.60255
G1 X25.696 Y0.56 E5.61408
G1 X25.294 Y0.989 E5.6264
G1 X25.067 Y1.178 E5.63259
G1 X25.018 Y1.594 E5.64136
G1 X24.89 Y2.13 E5.65291
G1 X24.685 Y2.642 E5.66447
G1 X24.409 Y3.119 E5.67601
G1 X23.876 Y3.767 E5.6936
G1 X23.482 Y4.152 E5.70514
G1 X23.036 Y4.476 E5.71669
G1 X22.548 Y4.732 E5.72824
G1 X22.052 Y4.909 E5.73927
G1 X21.689 Y4.991 E5.74707
G1 X21.523 Y5.241 E5.75336
G1 X21.171 Y5.665 E5.7649
G1 X20.762 Y6.033 E5.77643
G1 X20.303 Y6.339 E5.78799
G1 X19.588 Y6.67 E5.8045
G1 X19.067 Y6.849 E5.81605
G1 X18.525 Y6.951 E5.8276
G1 X17.975 Y6.973 E5.83914
G1 X17.416 Y6.914 E5.85091
G1 X16.932 Y6.798 E5.86134
G1 X16.576 Y6.986 E5.86978
G1 X16.063 Y7.186 E5.88132
G1 X15.526 Y7.31 E5.89286
G1 X14.977 Y7.355 E5.90441
G1 X14.153 Y7.289 E5.92173
G1 X13.611 Y7.186 E5.93329
G1 X13.091 Y7.005 E5.94483
G1 X12.602 Y6.752 E5.95636
G1 X12.194 Y6.462 E5.96685
G1 X11.886 Y6.185 E5.97553
G1 X11.463 Y6.185 E5.98439
G1 X10.915 Y6.121 E5.99595
G1 X10.383 Y5.979 E6.00749
G1 X9.877 Y5.762 E6.01903
G1 X9.171 Y5.311 E6.03658
G1 X8.742 Y4.966 E6.04812
G1 X8.367 Y4.562 E6.05967
G1 X8.055 Y4.108 E6.07121
G1 X7.8 Y3.591 E6.08329
G1 X7.697 Y3.296 E6.08984
G1 X7.312 Y3.095 E6.09894
G1 X6.858 Y2.782 E6.11049
G1 X6.454 Y2.408 E6.12203
G1 X6.108 Y1.979 E6.13358
G1 X5.704 Y1.27 E6.15068
G1 X5.483 Y0.765 E6.16223
G1 X5.338 Y0.234 E6.17376
G1 X5.271 Y-.313 E6.18531
G1 X5.28 Y-.827 E6.19608
G1 X5.334 Y-1.216 E6.20431
G1 X5.188 Y-1.419 E6.20955
G1 X4.913 Y-1.896 E6.22109
G1 X4.709 Y-2.408 E6.23264
G0 F3600 X5.074 Y-2.583
G1 F1200 X4.943 Y-3.297 E6.24785
G1 X4.915 Y-3.669 E6.25566
G1 X4.915 Y-4.19 E6.26658
G1 X4.996 Y-4.705 E6.2775
G1 X5.154 Y-5.201 E6.28841
