;FLAVOR:Marlin
;TIME:7017
;Filament used: 4.54222m
;Layer height: 0.15
;MINX:-21.25
;MINY:-40.045
;MINZ:0.3
;MAXX:21.25
;MAXY:40.045
;MAXZ:19.95
;Generated with Cura_SteamEngine main
M140 S60
M105
M190 S60
M104 S200
M105
M109 S200
M82 ;absolute extrusion mode
G28 ;Home
G1 Z15.0 F6000 ;Move the platform down 15mm
;Prime the extruder
G92 E0
G1 F200 E3
G92 E0
G92 E0
G92 E0
G1 F30000 E-4.1
;LAYER_COUNT:132
;LAYER:0
M107
G1 F600 Z0.5
G0 F3600 X-0.034 Y-9.313 Z0.5
G0 X-2.75 Y-10.196
;TYPE:SKIRT
G1 F600 Z0.3
G1 F30000 E0
G1 F900 X-2.231 Y-9.931 E0.05088
G1 X-1.754 Y-9.742 E0.09567
G1 X-1.262 Y-9.601 E0.14036
G1 X-.395 Y-9.414 E0.21779
G1 X-0.034 Y-9.313 E0.25052
G1 X0.639 Y-9.485 E0.31117
G1 X1.02 Y-9.548 E0.34489
G1 X1.525 Y-9.67 E0.39024
G1 X2.113 Y-9.874 E0.44458
G1 X2.75 Y-10.199 E0.50702
G1 X2.75 Y-18.928 E1.26913
G1 X1.876 Y-19.324 E1.3529
G1 X1.25 Y-19.504 E1.40977
G1 X0.404 Y-19.684 E1.48529
G1 X0.032 Y-19.788 E1.51901
G1 X-.628 Y-19.618 E1.57852
G1 X-1.257 Y-19.502 E1.63436
G1 X-1.877 Y-19.32 E1.69077
G1 X-2.366 Y-19.112 E1.73717
G1 X-2.75 Y-18.904 E1.7753
G1 X-2.75 Y-10.196 E2.53558
G0 F3600 X-3.45 Y-9.815
G1 F900 X-3.164 Y-9.624 E2.5656
G1 X-2.519 Y-9.292 E2.62894
G1 X-1.972 Y-9.077 E2.68025
G1 X-1.423 Y-8.919 E2.73013
G1 X-.543 Y-8.73 E2.80871
G1 X-0.03 Y-8.583 E2.8553
G1 X0.398 Y-8.721 E2.89457
G1 X1.353 Y-8.898 E2.97936
G1 X2.247 Y-9.16 E3.0607
G1 X3.026 Y-9.549 E3.13672
G1 X3.45 Y-9.814 E3.18038
G1 X3.45 Y-19.286 E4.00736
G1 X2.905 Y-19.627 E4.06348
G1 X2.104 Y-19.986 E4.14012
G1 X1.43 Y-20.18 E4.20136
G1 X0.55 Y-20.368 E4.27992
G1 X0.027 Y-20.517 E4.3274
G1 X-.398 Y-20.38 E4.36639
G1 X-1.142 Y-20.241 E4.43247
G1 X-1.947 Y-20.05 E4.5047
G1 X-2.67 Y-19.744 E4.57324
G1 X-3.154 Y-19.482 E4.6213
G1 X-3.45 Y-19.284 E4.65239
G1 X-3.45 Y-9.815 E5.47911
G0 F3600 X-4.15 Y-9.457
G1 F900 X-3.366 Y-8.915 E5.56232
G1 X-2.364 Y-8.463 E5.65829
G1 X-1.594 Y-8.241 E5.72826
G1 X-.69 Y-8.046 E5.809
G1 X-.158 Y-7.89 E5.8574
G1 X-0.037 Y-7.835 E5.86901
G1 X0.461 Y-8.013 E5.91518
G1 X1.274 Y-8.172 E5.98751
G1 X1.895 Y-8.319 E6.04322
G1 X2.837 Y-8.646 E6.13028
G1 X3.662 Y-9.114 E6.21309
G1 X4.15 Y-9.456 E6.26512
G1 X4.15 Y-19.644 E7.15461
G1 X3.638 Y-20.002 E7.20916
G1 X3.108 Y-20.302 E7.26233
G1 X2.36 Y-20.639 E7.33396
G1 X1.59 Y-20.862 E7.40395
G1 X0.696 Y-21.053 E7.48376
G1 X0.164 Y-21.207 E7.53212
G1 X0.035 Y-21.266 E7.5445
G1 X-.461 Y-21.088 E7.59051
G1 X-1.289 Y-20.926 E7.66417
G1 X-2.178 Y-20.714 E7.74396
G1 X-2.964 Y-20.38 E7.81853
G1 X-3.524 Y-20.076 E7.87416
G1 X-4.15 Y-19.659 E7.93983
G1 X-4.15 Y-9.457 E8.83054
G0 F3600 X-4.85 Y-9.12
G1 F900 X-4.312 Y-8.707 E8.88976
G1 X-3.885 Y-8.422 E8.93458
G1 X-3.41 Y-8.166 E8.98169
G1 X-2.767 Y-7.877 E9.04324
G1 X-1.964 Y-7.603 E9.11732
G1 X-.837 Y-7.361 E9.21796
G1 X-.357 Y-7.217 E9.26171
G1 X-0.021 Y-7.055 E9.29428
G1 X0.116 Y-7.136 E9.30817
G1 X0.583 Y-7.319 E9.35196
G1 X1.412 Y-7.484 E9.42576
G1 X2.082 Y-7.645 E9.48592
G1 X2.924 Y-7.935 E9.56368
G1 X3.431 Y-8.177 E9.61272
G1 X4.036 Y-8.521 E9.67349
G1 X4.85 Y-9.094 E9.7604
G1 X4.85 Y-20 E10.71258
G1 X4.142 Y-20.52 E10.78927
G1 X3.402 Y-20.939 E10.86352
G1 X2.602 Y-21.296 E10.94
G1 X1.765 Y-21.54 E11.01612
G1 X0.843 Y-21.737 E11.09844
G1 X0.362 Y-21.881 E11.14227
G1 X0.02 Y-22.046 E11.17543
G1 X-.116 Y-21.965 E11.18925
G1 X-.673 Y-21.747 E11.24147
G1 X-1.899 Y-21.514 E11.35042
G1 X-2.607 Y-21.292 E11.41521
G1 X-3.277 Y-21.007 E11.47877
G1 X-3.88 Y-20.681 E11.53862
G1 X-4.475 Y-20.284 E11.60107
G1 X-4.85 Y-19.98 E11.64322
G1 X-4.85 Y-9.12 E12.59138
G0 F3600 X-5.55 Y-8.786
G1 F900 X-4.886 Y-8.249 E12.66594
G1 X-4.247 Y-7.823 E12.73299
G1 X-3.713 Y-7.536 E12.78592
G1 X-3.028 Y-7.228 E12.85149
G1 X-2.154 Y-6.929 E12.93214
G1 X-.984 Y-6.677 E13.03664
G1 X-.562 Y-6.545 E13.07524
G1 X-0.023 Y-6.224 E13.13001
G1 X0.355 Y-6.472 E13.16948
G1 X0.763 Y-6.643 E13.20811
G1 X1.545 Y-6.797 E13.27769
G1 X2.454 Y-7.016 E13.35933
G1 X3.198 Y-7.29 E13.42855
G1 X3.734 Y-7.546 E13.48041
G1 X4.409 Y-7.929 E13.54817
G1 X5.03 Y-8.365 E13.61442
G1 X5.55 Y-8.804 E13.67383
G1 X5.55 Y-20.296 E14.67717
G1 X5.2 Y-20.611 E14.71828
G1 X4.534 Y-21.101 E14.79047
G1 X3.728 Y-21.558 E14.87137
G1 X2.843 Y-21.956 E14.95609
G1 X1.906 Y-22.226 E15.04123
G1 X0.989 Y-22.422 E15.1231
G1 X0.566 Y-22.553 E15.16176
G1 X0.022 Y-22.876 E15.21699
G1 X-.355 Y-22.629 E15.25634
G1 X-.835 Y-22.428 E15.30178
G1 X-2.072 Y-22.194 E15.41169
G1 X-2.851 Y-21.949 E15.48299
G1 X-3.571 Y-21.643 E15.55129
G1 X-4.242 Y-21.28 E15.6179
G1 X-4.897 Y-20.843 E15.68665
G1 X-5.55 Y-20.314 E15.76002
G1 X-5.55 Y-8.786 E16.7665
G0 F3600 X-6.25 Y-8.503
G1 F900 X-5.949 Y-8.21 E16.80318
G1 X-5.294 Y-7.679 E16.8768
G1 X-4.603 Y-7.218 E16.94932
G1 X-3.815 Y-6.795 E17.0274
G1 X-2.874 Y-6.425 E17.11568
G1 X-2.076 Y-6.196 E17.18817
G1 X-1.132 Y-5.993 E17.27247
G1 X-.777 Y-5.876 E17.3051
G1 X-.455 Y-5.686 E17.33775
G1 X-.181 Y-5.432 E17.37037
G1 X-0.005 Y-5.18 E17.3972
G1 X0.098 Y-5.354 E17.41486
G1 X0.352 Y-5.627 E17.44741
G1 X0.659 Y-5.841 E17.48009
G1 X1.004 Y-5.984 E17.51269
G1 X1.658 Y-6.106 E17.57078
G1 X2.658 Y-6.345 E17.66054
G1 X3.468 Y-6.644 E17.73593
G1 X4.046 Y-6.919 E17.79181
G1 X4.783 Y-7.337 E17.86579
G1 X5.645 Y-7.943 E17.95778
G1 X6.25 Y-8.504 E18.02982
G1 X6.25 Y-20.608 E19.08659
G1 X5.643 Y-21.154 E19.15787
G1 X5.135 Y-21.527 E19.2129
G1 X4.243 Y-22.093 E19.30513
G1 X3.263 Y-22.533 E19.39892
G1 X2.321 Y-22.853 E19.48578
G1 X1.135 Y-23.107 E19.59168
G1 X0.78 Y-23.223 E19.62428
G1 X0.458 Y-23.412 E19.65688
G1 X0.183 Y-23.666 E19.68956
G1 X0.004 Y-23.92 E19.71669
G1 X-0.098 Y-23.747 E19.73423
G1 X-.352 Y-23.474 E19.76678
G1 X-.659 Y-23.26 E19.79946
G1 X-1.004 Y-23.117 E19.83206
G1 X-1.942 Y-22.941 E19.91539
G1 X-2.497 Y-22.794 E19.96551
G1 X-3.086 Y-22.609 E20.01941
G1 X-3.887 Y-22.269 E20.09539
G1 X-4.6 Y-21.883 E20.16618
G1 X-5.306 Y-21.412 E20.24027
G1 X-5.79 Y-21.021 E20.2946
G1 X-6.25 Y-20.598 E20.34916
G1 X-6.25 Y-8.503 E21.40515
G0 F3600 X-6.95 Y-8.213
G1 F900 X-6.407 Y-7.68 E21.47158
G1 X-5.713 Y-7.117 E21.5496
G1 X-4.968 Y-6.621 E21.62774
G1 X-4.355 Y-6.291 E21.68852
G1 X-3.333 Y-5.83 E21.78641
G1 X-2.226 Y-5.512 E21.88697
G1 X-1.279 Y-5.308 E21.97154
G1 X-1.007 Y-5.209 E21.99682
G1 X-.773 Y-5.04 E22.02202
G1 X-.594 Y-4.813 E22.04726
G1 X-.484 Y-4.546 E22.07247
G1 X-.45 Y-4.282 E22.09571
G1 X-.45 Y10.839 E23.41589
G1 X-.49 Y11.125 E23.4411
G1 X-.606 Y11.39 E23.46636
G1 X-.79 Y11.613 E23.4916
G1 X-1.028 Y11.777 E23.51684
G1 X-1.636 Y11.943 E23.57186
G1 X-2.335 Y12.149 E23.63548
G1 X-2.963 Y12.405 E23.69469
G1 X-3.594 Y12.736 E23.75691
G1 X-4.173 Y13.119 E23.81752
G1 X-4.721 Y13.566 E23.87926
G1 X-5.215 Y14.057 E23.94007
G1 X-5.661 Y14.601 E24.00149
G1 X-6.049 Y15.181 E24.06241
G1 X-6.378 Y15.8 E24.12361
G1 X-6.644 Y16.442 E24.18429
G1 X-6.843 Y17.112 E24.24531
G1 X-6.979 Y17.808 E24.30722
G1 X-7.043 Y18.51 E24.36877
G1 X-7.036 Y19.212 E24.43006
G1 X-6.945 Y20.074 E24.50574
G1 X-6.677 Y21.093 E24.59773
G1 X-6.33 Y21.902 E24.67459
G1 X-5.987 Y22.521 E24.73637
G1 X-5.596 Y23.086 E24.79636
G1 X-5.14 Y23.625 E24.858
G1 X-4.502 Y24.238 E24.93525
G1 X-3.657 Y24.838 E25.02573
G1 X-2.856 Y25.243 E25.1041
G1 X-2.228 Y25.488 E25.16295
G1 X-1.538 Y25.679 E25.22546
G1 X-.841 Y25.798 E25.28719
G1 X-.155 Y25.847 E25.34724
G1 X0.729 Y25.821 E25.42445
G1 X1.762 Y25.634 E25.51611
G1 X2.601 Y25.35 E25.59344
G1 X3.234 Y25.063 E25.65412
G1 X4.011 Y24.611 E25.7326
G1 X4.664 Y24.086 E25.80576
G1 X5.307 Y23.456 E25.88435
G1 X5.933 Y22.626 E25.97511
G1 X6.351 Y21.858 E26.05146
G1 X6.626 Y21.204 E26.1134
G1 X6.834 Y20.522 E26.17565
G1 X7.005 Y19.674 E26.25118
G1 X7.057 Y18.624 E26.34296
G1 X6.971 Y17.751 E26.41955
G1 X6.833 Y17.069 E26.4803
G1 X6.633 Y16.413 E26.54018
G1 X6.293 Y15.6 E26.61712
G1 X5.847 Y14.863 E26.69233
G1 X5.424 Y14.3 E26.75381
G1 X4.952 Y13.785 E26.8148
G1 X4.434 Y13.319 E26.87563
G1 X3.876 Y12.912 E26.93593
G1 X3.268 Y12.553 E26.99758
G1 X2.485 Y12.192 E27.07286
G1 X1.636 Y11.944 E27.15008
G1 X1.004 Y11.765 E27.20743
G1 X0.771 Y11.594 E27.23266
G1 X0.592 Y11.367 E27.2579
G1 X0.483 Y11.099 E27.28316
G1 X0.45 Y10.839 E27.30604
G1 X0.45 Y-4.306 E28.62832
G1 X0.49 Y-4.592 E28.65353
G1 X0.606 Y-4.857 E28.67879
G1 X0.79 Y-5.08 E28.70403
G1 X1.028 Y-5.244 E28.72927
G1 X1.328 Y-5.342 E28.75682
G1 X1.816 Y-5.423 E28.80001
G1 X2.852 Y-5.672 E28.89304
G1 X3.739 Y-5.997 E28.97551
G1 X4.375 Y-6.3 E29.03702
G1 X5.345 Y-6.852 E29.13446
G1 X6.375 Y-7.646 E29.24801
G1 X6.95 Y-8.209 E29.31827
G1 X6.95 Y-20.887 E30.42516
G1 X6.577 Y-21.256 E30.47096
G1 X6.085 Y-21.698 E30.52871
G1 X5.525 Y-22.109 E30.58936
G1 X4.576 Y-22.711 E30.68748
G1 X3.333 Y-23.269 E30.80643
G1 X2.246 Y-23.585 E30.90527
G1 X1.281 Y-23.791 E30.99142
G1 X1.009 Y-23.89 E31.01669
G1 X0.775 Y-24.059 E31.04189
G1 X0.595 Y-24.286 E31.06718
G1 X0.484 Y-24.553 E31.09243
G1 X0.45 Y-24.818 E31.11575
G1 X0.45 Y-34.795 E31.98682
G1 X0.49 Y-35.081 E32.01204
G1 X0.606 Y-35.346 E32.03729
G1 X0.79 Y-35.569 E32.06254
G1 X1.028 Y-35.733 E32.08777
G1 X1.358 Y-35.845 E32.1182
G1 X13.622 Y-35.842 E33.18894
G1 X14.214 Y-35.779 E33.24092
G1 X14.898 Y-35.552 E33.30384
G1 X15.152 Y-35.428 E33.32852
G1 X15.869 Y-34.948 E33.40385
G1 X16.306 Y-34.465 E33.46072
G1 X16.58 Y-34.054 E33.50384
G1 X16.814 Y-33.565 E33.55117
G1 X16.992 Y-32.918 E33.60976
G1 X17.05 Y-32.296 E33.6643
G1 X17.05 Y18.826 E38.12765
G1 X17.03 Y19.628 E38.1977
G1 X16.962 Y20.53 E38.27667
G1 X16.863 Y21.316 E38.34584
G1 X16.706 Y22.213 E38.42534
G1 X16.516 Y23.033 E38.49883
G1 X16.3 Y23.8 E38.5684
G1 X16.011 Y24.659 E38.64753
G1 X15.701 Y25.448 E38.72154
G1 X15.351 Y26.221 E38.79563
G1 X14.988 Y26.93 E38.86517
G1 X14.532 Y27.718 E38.94466
G1 X14.073 Y28.426 E39.01833
G1 X13.606 Y29.074 E39.08806
G1 X13.045 Y29.778 E39.16666
G1 X12.476 Y30.42 E39.24155
G1 X11.886 Y31.022 E39.31515
G1 X11.3 Y31.566 E39.38496
G1 X10.606 Y32.148 E39.46403
G1 X9.933 Y32.658 E39.53776
G1 X9.273 Y33.108 E39.6075
G1 X8.503 Y33.578 E39.68626
G1 X7.803 Y33.96 E39.75589
G1 X6.989 Y34.352 E39.83477
G1 X6.253 Y34.662 E39.90449
G1 X5.406 Y34.969 E39.98315
G1 X4.59 Y35.22 E40.05769
G1 X3.818 Y35.416 E40.12723
G1 X2.982 Y35.587 E40.20173
G1 X2.094 Y35.72 E40.28012
G1 X1.248 Y35.804 E40.35435
G1 X0.452 Y35.844 E40.42393
G1 X-.452 Y35.844 E40.50286
G1 X-1.301 Y35.8 E40.57708
G1 X-2.094 Y35.72 E40.64667
G1 X-2.986 Y35.586 E40.72542
G1 X-3.769 Y35.427 E40.79518
G1 X-4.599 Y35.216 E40.86995
G1 X-5.459 Y34.951 E40.94852
G1 X-6.204 Y34.681 E41.0177
G1 X-7.037 Y34.33 E41.09662
G1 X-7.799 Y33.961 E41.17054
G1 X-8.501 Y33.58 E41.24028
G1 X-9.272 Y33.108 E41.3192
G1 X-9.973 Y32.629 E41.39333
G1 X-10.61 Y32.146 E41.46312
G1 X-11.294 Y31.572 E41.54108
G1 X-11.924 Y30.987 E41.61614
G1 X-12.516 Y30.377 E41.69036
G1 X-13.045 Y29.778 E41.76013
G1 X-13.609 Y29.069 E41.83923
G1 X-14.102 Y28.383 E41.91298
G1 X-14.538 Y27.708 E41.98314
G1 X-14.986 Y26.931 E42.06145
G1 X-15.376 Y26.167 E42.13634
G1 X-15.721 Y25.399 E42.20985
G1 X-16.032 Y24.603 E42.28446
G1 X-16.301 Y23.795 E42.35881
G1 X-16.516 Y23.032 E42.42802
G1 X-16.717 Y22.152 E42.50683
G1 X-16.863 Y21.314 E42.5811
G1 X-16.967 Y20.471 E42.65526
G1 X-17.03 Y19.622 E42.72958
G1 X-17.05 Y18.8 E42.80137
G1 X-17.047 Y-32.587 E47.28786
G1 X-16.914 Y-33.253 E47.34716
G1 X-16.648 Y-33.924 E47.41018
G1 X-16.251 Y-34.552 E47.47504
G1 X-15.71 Y-35.066 E47.5402
G1 X-15.112 Y-35.454 E47.60243
G1 X-14.519 Y-35.7 E47.65848
G1 X-13.713 Y-35.842 E47.72994
G1 X-1.5 Y-35.845 E48.79623
G1 X-1.214 Y-35.805 E48.82144
G1 X-.949 Y-35.689 E48.8467
G1 X-.726 Y-35.505 E48.87194
G1 X-.562 Y-35.267 E48.89717
G1 X-.45 Y-34.937 E48.9276
G1 X-.45 Y-24.795 E49.81308
G1 X-.49 Y-24.509 E49.83829
G1 X-.606 Y-24.244 E49.86355
G1 X-.79 Y-24.021 E49.88879
G1 X-1.028 Y-23.857 E49.91402
G1 X-1.326 Y-23.76 E49.94138
G1 X-2.417 Y-23.552 E50.03835
G1 X-3.334 Y-23.264 E50.12227
G1 X-4.191 Y-22.9 E50.20356
G1 X-4.964 Y-22.482 E50.28029
G1 X-5.725 Y-21.974 E50.36017
G1 X-6.42 Y-21.413 E50.43815
G1 X-6.95 Y-20.891 E50.5031
G1 X-6.95 Y-8.213 E51.60999
G0 F3600 X-7.65 Y-7.913
G1 F900 X-6.871 Y-7.154 E51.70495
G1 X-6.138 Y-6.56 E51.78732
G1 X-5.328 Y-6.019 E51.87236
G1 X-4.685 Y-5.673 E51.93611
G1 X-4.017 Y-5.354 E52.00074
G1 X-3.099 Y-5.018 E52.08609
G1 X-2.396 Y-4.833 E52.14956
G1 X-1.426 Y-4.624 E52.23619
G1 X-1.277 Y-4.552 E52.25064
G1 X-1.178 Y-4.418 E52.26518
G1 X-1.15 Y-4.282 E52.27731
G1 X-1.15 Y10.839 E53.59749
G1 X-1.189 Y11 E53.61195
G1 X-1.299 Y11.125 E53.62649
G1 X-1.803 Y11.263 E53.67211
G1 X-2.567 Y11.488 E53.74165
G1 X-3.262 Y11.771 E53.80716
G1 X-3.951 Y12.133 E53.87512
G1 X-4.594 Y12.558 E53.94241
G1 X-5.184 Y13.039 E54.00887
G1 X-5.733 Y13.585 E54.07647
G1 X-6.225 Y14.185 E54.14422
G1 X-6.651 Y14.822 E54.21112
G1 X-7.013 Y15.503 E54.27846
G1 X-7.303 Y16.204 E54.34469
G1 X-7.524 Y16.944 E54.41212
G1 X-7.673 Y17.711 E54.48033
G1 X-7.743 Y18.483 E54.54801
G1 X-7.736 Y19.25 E54.61498
G1 X-7.635 Y20.202 E54.69856
G1 X-7.341 Y21.32 E54.79949
G1 X-6.956 Y22.217 E54.88472
G1 X-6.589 Y22.88 E54.95088
G1 X-6.146 Y23.52 E55.01884
G1 X-5.651 Y24.104 E55.08568
G1 X-4.951 Y24.778 E55.17052
G1 X-4.015 Y25.442 E55.27071
G1 X-3.152 Y25.879 E55.35517
G1 X-2.442 Y26.156 E55.42171
G1 X-1.695 Y26.362 E55.48936
G1 X-.928 Y26.493 E55.55729
G1 X-.164 Y26.548 E55.62417
G1 X0.802 Y26.52 E55.70854
G1 X1.935 Y26.315 E55.80907
G1 X2.86 Y26.002 E55.89433
G1 X3.556 Y25.685 E55.9611
G1 X4.406 Y25.191 E56.04694
G1 X5.131 Y24.608 E56.12816
G1 X5.833 Y23.92 E56.21398
G1 X6.525 Y23.004 E56.31421
G1 X6.98 Y22.168 E56.39731
G1 X7.288 Y21.435 E56.46672
G1 X7.512 Y20.699 E56.53389
G1 X7.701 Y19.762 E56.61735
G1 X7.759 Y18.599 E56.71901
G1 X7.665 Y17.654 E56.80193
G1 X7.514 Y16.905 E56.86864
G1 X7.29 Y16.169 E56.9358
G1 X6.919 Y15.28 E57.01991
G1 X6.428 Y14.469 E57.10268
G1 X5.968 Y13.857 E57.16952
G1 X5.442 Y13.284 E57.23743
G1 X4.879 Y12.778 E57.30352
G1 X4.262 Y12.327 E57.37025
G1 X3.596 Y11.935 E57.43772
G1 X2.727 Y11.533 E57.52132
G1 X1.808 Y11.265 E57.60489
G1 X1.425 Y11.181 E57.63913
G1 X1.276 Y11.108 E57.65361
G1 X1.177 Y10.974 E57.66816
G1 X1.15 Y10.839 E57.68018
G1 X1.15 Y-4.306 E59.00246
G1 X1.189 Y-4.467 E59.01692
G1 X1.299 Y-4.592 E59.03146
G1 X1.443 Y-4.651 E59.04504
G1 X1.929 Y-4.732 E59.08806
G1 X2.869 Y-4.957 E59.17245
G1 X3.361 Y-5.113 E59.21751
G1 X4.013 Y-5.352 E59.27814
G1 X4.688 Y-5.674 E59.34344
G1 X5.738 Y-6.27 E59.44885
G1 X6.848 Y-7.128 E59.57134
G1 X7.65 Y-7.915 E59.66944
G1 X7.65 Y-21.161 E60.82592
G1 X7.051 Y-21.771 E60.90056
G1 X6.528 Y-22.241 E60.96195
G1 X5.727 Y-22.83 E61.04876
G1 X4.897 Y-23.328 E61.13327
G1 X4.011 Y-23.749 E61.21891
G1 X3.343 Y-23.995 E61.28106
G1 X2.631 Y-24.219 E61.34623
G1 X1.427 Y-24.476 E61.45371
G1 X1.277 Y-24.548 E61.46824
G1 X1.178 Y-24.681 E61.48272
G1 X1.15 Y-24.818 E61.49492
G1 X1.15 Y-34.795 E62.36599
G1 X1.189 Y-34.956 E62.38046
G1 X1.299 Y-35.081 E62.395
G1 X1.5 Y-35.145 E62.41341
G1 X13.622 Y-35.142 E63.47176
G1 X14.098 Y-35.079 E63.51368
G1 X14.725 Y-34.871 E63.57135
G1 X15.376 Y-34.436 E63.63971
G1 X15.723 Y-34.077 E63.68331
G1 X16.026 Y-33.614 E63.73162
G1 X16.194 Y-33.224 E63.76869
G1 X16.313 Y-32.748 E63.81153
G1 X16.35 Y-32.296 E63.85112
G1 X16.35 Y18.809 E68.31299
G1 X16.329 Y19.628 E68.38452
G1 X16.267 Y20.443 E68.45588
G1 X16.166 Y21.245 E68.52646
G1 X16.024 Y22.056 E68.59834
G1 X15.842 Y22.843 E68.66886
G1 X15.621 Y23.626 E68.7399
G1 X15.359 Y24.404 E68.81157
G1 X15.063 Y25.16 E68.88245
G1 X14.728 Y25.902 E68.95353
G1 X14.365 Y26.611 E69.02308
G1 X13.944 Y27.338 E69.09642
G1 X13.505 Y28.017 E69.16702
G1 X13.028 Y28.678 E69.23818
G1 X12.52 Y29.315 E69.30932
G1 X11.975 Y29.931 E69.38113
G1 X11.41 Y30.509 E69.4517
