;FLAVOR:Marlin
;TIME:6404
;Filament used: 7.41733m
;Layer height: 0.28
;MINX:156.7
;MINY:107.205
;MINZ:0.12
;MAXX:204.7
;MAXY:192.795
;MAXZ:20
;Generated with Cura_SteamEngine 4.13.1
M140 S70
M105
M190 S70
M104 S205
M105
M109 S205
M82 ;absolute extrusion mode
M201 X500.00 Y500.00 Z100.00 E5000.00 ;Setup machine max acceleration
M203 X500.00 Y500.00 Z10.00 E50.00 ;Setup machine max feedrate
M204 P500.00 R1000.00 T500.00 ;Setup Print/Retract/Travel acceleration
M205 X8.00 Y8.00 Z0.40 E5.00 ;Setup Jerk
M220 S100 ;Reset Feedrate
M221 S100 ;Reset Flowrate

G28 ;Home

G92 E0 ;Reset Extruder
G1 Z2.0 F3000 ;Move Z Axis up
G1 X10.1 Y20 Z0.28 F5000.0 ;Move to start position
G1 X10.1 Y200.0 Z0.28 F1500.0 E15 ;Draw the first line
G1 X10.4 Y200.0 Z0.28 F5000.0 ;Move to side a little
G1 X10.4 Y20 Z0.28 F1500.0 E30 ;Draw the second line
G92 E0 ;Reset Extruder
G1 Z2.0 F3000 ;Move Z Axis up

G92 E0
G92 E0
G1 F2700 E-5
;LAYER_COUNT:72
;LAYER:0
M107
G0 F6000 X158.36 Y112.04 Z0.12
;TYPE:SKIRT
G1 F2700 E0
G1 F1200 X158.864 Y111.329 E0.02739
G1 X159.091 Y111.043 E0.03887
G1 X159.851 Y110.211 E0.07429
G1 X160.078 Y109.995 E0.08414
G1 X160.53 Y109.596 E0.10309
G1 X161.01 Y109.23 E0.12206
G1 X161.285 Y109.036 E0.13264
G1 X162.256 Y108.448 E0.16832
G1 X162.562 Y108.291 E0.17912
G1 X162.988 Y108.088 E0.19396
G1 X163.688 Y107.815 E0.21757
G1 X164.008 Y107.707 E0.22819
G1 X165.153 Y107.412 E0.26535
G1 X165.506 Y107.348 E0.27663
G1 X166.583 Y107.226 E0.31069
G1 X166.869 Y107.213 E0.31969
G1 X167.237 Y107.205 E0.33126
G1 X178.924 Y107.205 E0.69859
G1 X179.728 Y107.245 E0.7239
G1 X180.524 Y107.365 E0.7492
G1 X180.703 Y107.41 E0.755
G1 X180.954 Y107.349 E0.76312
G1 X181.751 Y107.238 E0.78841
G1 X182.476 Y107.205 E0.81122
G1 X194.196 Y107.205 E1.17959
G1 X194.569 Y107.212 E1.19132
G1 X195.342 Y107.272 E1.21569
G1 X195.661 Y107.312 E1.22579
G1 X196.064 Y107.373 E1.2386
G1 X196.855 Y107.552 E1.26409
G1 X197.188 Y107.645 E1.27496
G1 X198.301 Y108.045 E1.31213
G1 X198.609 Y108.182 E1.32273
G1 X199.579 Y108.695 E1.35722
G1 X199.878 Y108.88 E1.36827
G1 X200.304 Y109.163 E1.38434
G1 X200.912 Y109.637 E1.40857
G1 X201.168 Y109.857 E1.41918
G1 X201.982 Y110.663 E1.45519
G1 X202.208 Y110.921 E1.46597
G1 X202.921 Y111.866 E1.50318
G1 X203.112 Y112.162 E1.51425
G1 X203.675 Y113.192 E1.55114
G1 X203.826 Y113.523 E1.56258
G1 X204.124 Y114.271 E1.58788
G1 X204.266 Y114.732 E1.60305
G1 X204.36 Y115.073 E1.61416
G1 X204.455 Y115.453 E1.62647
G1 X204.594 Y116.249 E1.65187
G1 X204.635 Y116.579 E1.66232
G1 X204.694 Y117.376 E1.68744
G1 X204.7 Y117.698 E1.69757
G1 X204.7 Y168.796 E3.30362
G1 X204.697 Y169.001 E3.31006
G1 X204.677 Y169.791 E3.3349
G1 X204.658 Y170.188 E3.34739
G1 X204.599 Y170.979 E3.37232
G1 X204.558 Y171.385 E3.38515
G1 X204.458 Y172.182 E3.4104
G1 X204.399 Y172.573 E3.42282
G1 X204.264 Y173.343 E3.4474
G1 X204.185 Y173.736 E3.46
G1 X204.009 Y174.512 E3.485
G1 X203.905 Y174.921 E3.49827
G1 X203.685 Y175.7 E3.52371
G1 X203.567 Y176.082 E3.53628
G1 X203.317 Y176.825 E3.56092
G1 X203.179 Y177.204 E3.57359
G1 X202.889 Y177.942 E3.59852
G1 X202.732 Y178.314 E3.61121
G1 X202.41 Y179.027 E3.6358
G1 X202.243 Y179.376 E3.64796
G1 X201.876 Y180.095 E3.67333
G1 X201.672 Y180.469 E3.68672
G1 X201.282 Y181.143 E3.7112
G1 X201.076 Y181.479 E3.72358
G1 X200.637 Y182.159 E3.74902
G1 X200.4 Y182.507 E3.76226
G1 X199.946 Y183.136 E3.78664
G1 X199.713 Y183.443 E3.79875
G1 X199.219 Y184.063 E3.82367
G1 X198.954 Y184.379 E3.83663
G1 X198.422 Y184.981 E3.86188
G1 X198.145 Y185.278 E3.87465
G1 X197.586 Y185.85 E3.89979
G1 X197.311 Y186.119 E3.91188
G1 X196.735 Y186.655 E3.93661
G1 X196.42 Y186.933 E3.94981
G1 X195.821 Y187.435 E3.97438
G1 X195.507 Y187.685 E3.98699
G1 X194.865 Y188.171 E4.0123
G1 X194.539 Y188.405 E4.02491
G1 X193.882 Y188.853 E4.04991
G1 X193.54 Y189.074 E4.06271
G1 X192.862 Y189.488 E4.08767
G1 X192.524 Y189.684 E4.09995
G1 X191.843 Y190.056 E4.12434
G1 X191.463 Y190.25 E4.13775
G1 X190.75 Y190.592 E4.16261
G1 X190.397 Y190.751 E4.17478
G1 X189.646 Y191.068 E4.2004
G1 X189.243 Y191.226 E4.214
G1 X188.505 Y191.492 E4.23866
G1 X188.161 Y191.607 E4.25006
G1 X187.411 Y191.84 E4.27475
G1 X186.994 Y191.958 E4.28837
G1 X186.219 Y192.154 E4.31349
G1 X185.849 Y192.238 E4.32542
G1 X185.078 Y192.395 E4.35015
G1 X184.66 Y192.469 E4.36349
G1 X183.864 Y192.588 E4.38879
G1 X183.471 Y192.637 E4.40124
G1 X182.68 Y192.716 E4.42622
G1 X182.287 Y192.745 E4.43861
G1 X181.522 Y192.784 E4.46268
G1 X181.11 Y192.795 E4.47564
G1 X180.29 Y192.795 E4.50141
G1 X179.881 Y192.785 E4.51427
G1 X179.11 Y192.746 E4.53853
G1 X178.708 Y192.715 E4.55121
G1 X177.913 Y192.635 E4.57632
G1 X177.522 Y192.586 E4.58871
G1 X176.729 Y192.467 E4.61391
G1 X176.315 Y192.394 E4.62712
G1 X175.544 Y192.237 E4.65185
G1 X175.167 Y192.151 E4.66401
G1 X174.391 Y191.954 E4.68917
G1 X173.982 Y191.839 E4.70252
G1 X173.238 Y191.608 E4.72701
G1 X172.882 Y191.488 E4.73882
G1 X172.131 Y191.216 E4.76392
G1 X171.741 Y191.063 E4.77709
G1 X170.999 Y190.75 E4.8024
G1 X170.632 Y190.584 E4.81506
G1 X169.92 Y190.241 E4.8399
G1 X169.545 Y190.049 E4.85314
G1 X168.862 Y189.675 E4.87762
G1 X168.534 Y189.485 E4.88953
G1 X167.857 Y189.072 E4.91446
G1 X167.503 Y188.843 E4.92771
G1 X166.845 Y188.393 E4.95277
G1 X166.528 Y188.165 E4.96504
G1 X165.886 Y187.679 E4.99035
G1 X165.58 Y187.436 E5.00263
G1 X164.989 Y186.942 E5.02684
G1 X164.672 Y186.649 E5.04041
G1 X164.666 Y186.655 E5.04067
G1 X164.073 Y186.104 E5.06612
G1 X163.786 Y185.823 E5.07874
G1 X163.249 Y185.272 E5.10292
G1 X162.98 Y184.982 E5.11536
G1 X162.441 Y184.372 E5.14094
G1 X162.172 Y184.051 E5.15411
G1 X161.69 Y183.445 E5.17844
G1 X161.456 Y183.136 E5.19063
G1 X160.98 Y182.475 E5.21623
G1 X160.746 Y182.133 E5.22925
G1 X160.319 Y181.471 E5.25401
G1 X160.11 Y181.128 E5.26664
G1 X159.72 Y180.452 E5.29117
G1 X159.526 Y180.095 E5.30394
G1 X159.159 Y179.378 E5.32925
G1 X158.985 Y179.016 E5.34188
G1 X158.66 Y178.295 E5.36673
G1 X158.502 Y177.921 E5.3795
G1 X158.216 Y177.191 E5.40414
G1 X158.079 Y176.813 E5.41678
G1 X157.827 Y176.062 E5.44167
G1 X157.707 Y175.672 E5.4545
G1 X157.49 Y174.898 E5.47976
G1 X157.393 Y174.518 E5.49209
G1 X157.215 Y173.74 E5.51718
G1 X157.13 Y173.317 E5.53074
G1 X156.997 Y172.55 E5.5552
G1 X156.941 Y172.174 E5.56715
G1 X156.842 Y171.385 E5.59215
G1 X156.802 Y170.982 E5.60487
G1 X156.743 Y170.194 E5.62971
G1 X156.722 Y169.775 E5.6429
G1 X156.702 Y168.905 E5.67025
G1 X156.7 Y168.719 E5.6761
G1 X156.7 Y117.7 E7.27967
G1 X156.725 Y117.067 E7.29958
G1 X156.754 Y116.697 E7.31124
G1 X156.856 Y115.899 E7.33653
G1 X156.939 Y115.5 E7.34934
G1 X157.013 Y115.181 E7.35963
G1 X157.341 Y114.109 E7.39487
G1 X157.468 Y113.778 E7.40601
G1 X157.965 Y112.718 E7.44281
G1 X158.131 Y112.422 E7.45347
G1 X158.36 Y112.04 E7.46747
G0 F6000 X158.867 Y112.36
G1 F1200 X159.333 Y111.702 E7.49281
G1 X159.56 Y111.416 E7.50429
G1 X160.265 Y110.646 E7.5371
G1 X160.492 Y110.43 E7.54695
G1 X160.911 Y110.06 E7.56452
G1 X161.356 Y109.721 E7.5821
G1 X161.631 Y109.527 E7.59268
G1 X162.53 Y108.982 E7.62573
G1 X162.836 Y108.825 E7.63654
G1 X163.232 Y108.636 E7.65033
G1 X163.88 Y108.384 E7.67218
G1 X164.2 Y108.276 E7.6828
G1 X165.26 Y108.002 E7.71721
G1 X165.613 Y107.938 E7.72848
G1 X166.61 Y107.826 E7.76002
G1 X166.896 Y107.813 E7.76902
G1 X167.237 Y107.805 E7.77974
G1 X178.924 Y107.805 E8.14707
G1 X179.697 Y107.845 E8.1714
G1 X180.462 Y107.964 E8.19573
G1 X180.7 Y108.027 E8.20347
G1 X181.239 Y107.908 E8.22082
G1 X182.009 Y107.82 E8.24518
G1 X182.476 Y107.805 E8.25986
G1 X194.196 Y107.805 E8.62823
G1 X194.551 Y107.812 E8.63939
G1 X195.267 Y107.867 E8.66196
G1 X195.586 Y107.907 E8.67207
G1 X195.961 Y107.964 E8.68399
G1 X196.693 Y108.129 E8.70757
G1 X197.026 Y108.222 E8.71844
G1 X198.057 Y108.593 E8.75288
G1 X198.365 Y108.73 E8.76348
G1 X199.263 Y109.205 E8.79541
G1 X199.562 Y109.39 E8.80646
G1 X199.958 Y109.653 E8.8214
G1 X200.521 Y110.092 E8.84384
G1 X200.777 Y110.312 E8.85445
G1 X201.531 Y111.058 E8.88779
G1 X201.757 Y111.316 E8.89857
G1 X202.417 Y112.192 E8.93304
G1 X202.608 Y112.488 E8.94411
G1 X203.13 Y113.441 E8.97826
G1 X203.281 Y113.772 E8.9897
G1 X203.565 Y114.492 E9.01403
G1 X203.687 Y114.892 E9.02717
G1 X203.781 Y115.233 E9.03829
G1 X203.869 Y115.586 E9.04972
G1 X203.999 Y116.323 E9.07324
G1 X204.04 Y116.653 E9.0837
G1 X204.095 Y117.391 E9.10696
G1 X204.1 Y117.698 E9.11661
G1 X204.1 Y168.796 E10.72266
G1 X204.098 Y168.986 E10.72863
G1 X204.078 Y169.776 E10.75347
G1 X204.059 Y170.144 E10.76505
G1 X204 Y170.935 E10.78998
G1 X203.963 Y171.311 E10.80186
G1 X203.863 Y172.108 E10.82711
G1 X203.808 Y172.469 E10.83858
G1 X203.673 Y173.239 E10.86315
G1 X203.6 Y173.603 E10.87482
G1 X203.424 Y174.379 E10.89983
G1 X203.328 Y174.758 E10.91212
G1 X203.108 Y175.537 E10.93756
G1 X202.998 Y175.891 E10.94921
G1 X202.748 Y176.634 E10.97385
G1 X202.62 Y176.985 E10.9856
G1 X202.33 Y177.723 E11.01052
G1 X202.185 Y178.067 E11.02225
G1 X201.863 Y178.78 E11.04684
G1 X201.708 Y179.103 E11.0581
G1 X201.341 Y179.822 E11.08348
G1 X201.153 Y180.168 E11.09585
G1 X200.763 Y180.842 E11.12033
G1 X200.572 Y181.154 E11.13183
G1 X200.133 Y181.834 E11.15727
G1 X199.913 Y182.155 E11.1695
G1 X199.459 Y182.784 E11.19388
G1 X199.244 Y183.069 E11.2051
G1 X198.75 Y183.689 E11.23002
G1 X198.504 Y183.981 E11.24202
G1 X197.972 Y184.583 E11.26727
G1 X197.716 Y184.859 E11.2791
G1 X197.157 Y185.431 E11.30424
G1 X196.902 Y185.68 E11.31544
G1 X196.326 Y186.216 E11.34017
G1 X196.034 Y186.473 E11.3524
G1 X195.435 Y186.975 E11.37696
G1 X195.145 Y187.207 E11.38863
G1 X194.503 Y187.693 E11.41394
G1 X194.201 Y187.91 E11.42563
G1 X193.544 Y188.358 E11.45062
G1 X193.228 Y188.562 E11.46245
G1 X192.55 Y188.976 E11.48742
G1 X192.236 Y189.157 E11.49881
G1 X191.555 Y189.529 E11.5232
G1 X191.204 Y189.709 E11.53559
G1 X190.491 Y190.051 E11.56045
G1 X190.164 Y190.199 E11.57173
G1 X189.413 Y190.516 E11.59735
G1 X189.039 Y190.662 E11.60997
G1 X188.301 Y190.928 E11.63463
G1 X187.983 Y191.034 E11.64516
G1 X187.233 Y191.267 E11.66985
G1 X186.847 Y191.376 E11.68245
G1 X186.072 Y191.572 E11.70758
G1 X185.73 Y191.65 E11.71861
G1 X184.959 Y191.807 E11.74334
G1 X184.571 Y191.876 E11.75572
G1 X183.775 Y191.995 E11.78102
G1 X183.411 Y192.04 E11.79255
G1 X182.62 Y192.119 E11.81753
G1 X182.257 Y192.146 E11.82897
G1 X181.492 Y192.185 E11.85305
G1 X181.11 Y192.195 E11.86506
G1 X180.29 Y192.195 E11.89083
G1 X179.911 Y192.185 E11.90275
G1 X179.14 Y192.146 E11.92701
G1 X178.768 Y192.118 E11.93874
G1 X177.973 Y192.038 E11.96385
G1 X177.611 Y191.993 E11.97532
G1 X176.818 Y191.874 E12.00052
G1 X176.434 Y191.806 E12.01278
G1 X175.663 Y191.649 E12.03751
G1 X175.315 Y191.569 E12.04873
G1 X174.539 Y191.372 E12.0739
G1 X174.16 Y191.266 E12.08627
G1 X173.416 Y191.035 E12.11075
G1 X173.086 Y190.924 E12.1217
G1 X172.335 Y190.652 E12.1468
G1 X171.974 Y190.51 E12.15899
G1 X171.232 Y190.197 E12.18431
G1 X170.892 Y190.044 E12.19602
G1 X170.18 Y189.701 E12.22086
G1 X169.833 Y189.522 E12.23314
G1 X169.15 Y189.148 E12.25761
G1 X168.846 Y188.973 E12.26864
G1 X168.169 Y188.56 E12.29356
G1 X167.841 Y188.348 E12.30584
G1 X167.183 Y187.898 E12.33089
G1 X166.89 Y187.687 E12.34224
G1 X166.248 Y187.201 E12.36755
G1 X165.965 Y186.975 E12.37893
G1 X165.374 Y186.481 E12.40314
G1 X165.08 Y186.209 E12.41573
G1 X165.075 Y186.215 E12.41598
G1 X164.482 Y185.664 E12.44142
G1 X164.216 Y185.405 E12.45309
G1 X163.679 Y184.854 E12.47727
G1 X163.43 Y184.585 E12.48879
G1 X162.891 Y183.975 E12.51438
G1 X162.641 Y183.678 E12.52658
G1 X162.159 Y183.072 E12.55092
G1 X161.943 Y182.786 E12.56218
G1 X161.467 Y182.125 E12.58778
G1 X161.25 Y181.807 E12.59989
G1 X160.823 Y181.145 E12.62465
G1 X160.63 Y180.828 E12.63631
G1 X160.24 Y180.152 E12.66084
G1 X160.06 Y179.821 E12.67268
G1 X159.693 Y179.104 E12.698
G1 X159.532 Y178.769 E12.70968
G1 X159.207 Y178.048 E12.73454
G1 X159.061 Y177.702 E12.74634
G1 X158.775 Y176.972 E12.77098
G1 X158.648 Y176.622 E12.78269
G1 X158.396 Y175.871 E12.80759
G1 X158.284 Y175.51 E12.81947
G1 X158.067 Y174.736 E12.84473
G1 X157.978 Y174.384 E12.85614
G1 X157.8 Y173.606 E12.88123
G1 X157.721 Y173.214 E12.8938
G1 X157.588 Y172.447 E12.91826
G1 X157.536 Y172.1 E12.92929
G1 X157.437 Y171.311 E12.95428
G1 X157.4 Y170.937 E12.9661
G1 X157.341 Y170.149 E12.99093
G1 X157.322 Y169.761 E13.00314
G1 X157.302 Y168.891 E13.0305
G1 X157.3 Y168.719 E13.0359
G1 X157.3 Y117.7 E14.63947
G1 X157.323 Y117.114 E14.6579
G1 X157.352 Y116.744 E14.66957
G1 X157.523 Y115.635 E14.70484
G1 X157.597 Y115.316 E14.71513
G1 X157.901 Y114.324 E14.74774
G1 X158.028 Y113.993 E14.75888
G1 X158.488 Y113.011 E14.79297
G1 X158.654 Y112.715 E14.80364
G1 X158.867 Y112.36 E14.81665
G0 F6000 X159.374 Y112.68
G1 F1200 X159.803 Y112.075 E14.83996
G1 X160.03 Y111.789 E14.85144
G1 X160.679 Y111.08 E14.88165
G1 X160.906 Y110.864 E14.89149
G1 X161.293 Y110.523 E14.90771
G1 X161.701 Y110.211 E14.92385
G1 X161.976 Y110.017 E14.93443
G1 X162.804 Y109.516 E14.96485
G1 X163.11 Y109.359 E14.97566
G1 X163.476 Y109.185 E14.98839
G1 X164.072 Y108.952 E15.00851
G1 X164.392 Y108.844 E15.01912
G1 X165.367 Y108.593 E15.05077
G1 X165.72 Y108.529 E15.06204
G1 X166.638 Y108.425 E15.09108
G1 X166.924 Y108.412 E15.10008
G1 X167.237 Y108.405 E15.10992
G1 X178.924 Y108.405 E15.47725
G1 X179.666 Y108.445 E15.50061
G1 X180.399 Y108.564 E15.52395
G1 X180.69 Y108.645 E15.53344
G1 X180.789 Y108.614 E15.5367
G1 X181.518 Y108.472 E15.56005
G1 X182.476 Y108.405 E15.59023
G1 X194.196 Y108.405 E15.9586
G1 X194.534 Y108.412 E15.96923
G1 X195.192 Y108.463 E15.98997
G1 X195.511 Y108.503 E16.00007
G1 X195.858 Y108.555 E16.0111
G1 X196.532 Y108.707 E16.03282
G1 X196.865 Y108.8 E16.04369
G1 X197.813 Y109.142 E16.07536
G1 X198.121 Y109.279 E16.08596
G1 X198.947 Y109.715 E16.11531
G1 X199.246 Y109.9 E16.12636
G1 X199.612 Y110.143 E16.14017
G1 X200.13 Y110.547 E16.16082
G1 X200.386 Y110.767 E16.17143
G1 X201.079 Y111.453 E16.20208
G1 X201.305 Y111.711 E16.21286
G1 X201.913 Y112.517 E16.24459
G1 X202.104 Y112.813 E16.25566
G1 X202.584 Y113.69 E16.28709
G1 X202.735 Y114.021 E16.29852
G1 X203.109 Y115.051 E16.33296
G1 X203.203 Y115.392 E16.34408
G1 X203.284 Y115.719 E16.35467
G1 X203.403 Y116.397 E16.37631
G1 X203.444 Y116.727 E16.38676
G1 X203.495 Y117.406 E16.40816
G1 X203.5 Y117.698 E16.41734
G1 X203.5 Y168.796 E18.02339
G1 X203.498 Y168.971 E18.02889
G1 X203.478 Y169.761 E18.05373
G1 X203.461 Y170.099 E18.06437
G1 X203.402 Y170.89 E18.0893
G1 X203.367 Y171.236 E18.10023
G1 X203.267 Y172.033 E18.12548
G1 X203.217 Y172.366 E18.13606
G1 X203.082 Y173.136 E18.16063
G1 X203.015 Y173.47 E18.17134
G1 X202.839 Y174.246 E18.19635
G1 X202.75 Y174.595 E18.20767
G1 X202.53 Y175.374 E18.23311
G1 X202.43 Y175.699 E18.2438
G1 X202.18 Y176.442 E18.26844
G1 X202.062 Y176.766 E18.27927
G1 X201.772 Y177.504 E18.3042
G1 X201.638 Y177.82 E18.31499
G1 X201.316 Y178.533 E18.33957
G1 X201.174 Y178.83 E18.34992
G1 X200.807 Y179.549 E18.37529
G1 X200.633 Y179.868 E18.38672
G1 X200.243 Y180.542 E18.41119
G1 X200.068 Y180.828 E18.42173
G1 X199.629 Y181.508 E18.44717
G1 X199.427 Y181.804 E18.45843
G1 X198.973 Y182.433 E18.48281
G1 X198.774 Y182.695 E18.49316
G1 X198.28 Y183.315 E18.51807
G1 X198.054 Y183.584 E18.52911
G1 X197.522 Y184.186 E18.55437
G1 X197.287 Y184.44 E18.56524
G1 X196.728 Y185.012 E18.59038
G1 X196.493 Y185.24 E18.60067
G1 X195.917 Y185.776 E18.6254
G1 X195.649 Y186.013 E18.63665
G1 X195.05 Y186.515 E18.66121
G1 X194.783 Y186.728 E18.67195
G1 X194.141 Y187.214 E18.69725
G1 X193.863 Y187.414 E18.70802
G1 X193.206 Y187.862 E18.73301
G1 X192.915 Y188.05 E18.7439
G1 X192.237 Y188.464 E18.76887
G1 X191.949 Y188.63 E18.77932
G1 X191.268 Y189.002 E18.80371
