;FLAVOR:Marlin
;TIME:4054
;Filament used: 7.7253m
;Layer height: 0.3
;MINX:-35.25
;MINY:-42.25
;MINZ:0.2
;MAXX:35.25
;MAXY:42.25
;MAXZ:35
;Generated with Cura_SteamEngine 4.13.1
M140 S70
M105
M190 S70
M104 S205
M105
M109 S205
M82 ;absolute extrusion mode
G28 ;Home
G1 Z15.0 F6000 ;Move the platform down 15mm
;Prime the extruder
G92 E0
G1 F200 E3
G92 E0
G92 E0
G92 E0
G1 F4200 E-4.1
;LAYER_COUNT:117
;LAYER:0
M107
G1 F600 Z0.4
G0 F3600 X32.247 Y-19.56 Z0.4
;TYPE:SKIRT
G1 F600 Z0.2
G1 F4200 E0
G1 F1200 X32.545 Y-19.418 E0.02017
G1 X33.091 Y-19.069 E0.05978
G1 X33.59 Y-18.656 E0.09936
G1 X34.035 Y-18.185 E0.13897
G1 X34.418 Y-17.663 E0.17853
G1 X34.733 Y-17.097 E0.21812
G1 X34.977 Y-16.497 E0.25771
G1 X35.145 Y-15.871 E0.29732
G1 X35.234 Y-15.23 E0.33687
G1 X35.25 Y-14.826 E0.36158
G1 X35.25 Y36.795 E3.51642
G1 X35.21 Y37.442 E3.55604
G1 X35.091 Y38.078 E3.59558
G1 X34.894 Y38.695 E3.63517
G1 X34.623 Y39.284 E3.67479
G1 X34.281 Y39.834 E3.71437
G1 X33.712 Y40.507 E3.76824
G1 X33.507 Y40.712 E3.78595
G1 X33.022 Y41.141 E3.82553
G1 X32.487 Y41.507 E3.86514
G1 X31.912 Y41.804 E3.9047
G1 X31.304 Y42.028 E3.9443
G1 X30.673 Y42.176 E3.98391
G1 X29.795 Y42.25 E4.03776
G1 X13.711 Y42.25 E5.02074
G1 X13.064 Y42.21 E5.06035
G1 X12.428 Y42.091 E5.0999
G1 X11.811 Y41.894 E5.13948
G1 X11.222 Y41.623 E5.17911
G1 X10.672 Y41.281 E5.21869
G1 X10.168 Y40.874 E5.25828
G1 X9.718 Y40.408 E5.29787
G1 X9.329 Y39.891 E5.33741
G1 X9.006 Y39.329 E5.37703
G1 X8.755 Y38.732 E5.41661
G1 X8.579 Y38.108 E5.45623
G1 X8.482 Y37.468 E5.49579
G1 X8.468 Y36.952 E5.52734
G1 X7.751 Y36.952 E5.57116
G1 X7.74 Y37.446 E5.60136
G1 X7.645 Y38.086 E5.6409
G1 X7.472 Y38.711 E5.68053
G1 X7.224 Y39.309 E5.7201
G1 X6.904 Y39.872 E5.75968
G1 X6.517 Y40.391 E5.79924
G1 X6.068 Y40.859 E5.83888
G1 X5.566 Y41.268 E5.87845
G1 X5.017 Y41.612 E5.91805
G1 X4.43 Y41.886 E5.95764
G1 X3.814 Y42.085 E5.9972
G1 X3.178 Y42.207 E6.03678
G1 X2.509 Y42.25 E6.07775
G1 X-13.496 Y42.25 E7.0559
G1 X-14.143 Y42.21 E7.09552
G1 X-14.779 Y42.091 E7.13507
G1 X-15.396 Y41.894 E7.17465
G1 X-15.985 Y41.623 E7.21427
G1 X-16.535 Y41.281 E7.25386
G1 X-17.039 Y40.874 E7.29345
G1 X-17.489 Y40.408 E7.33304
G1 X-17.878 Y39.891 E7.37258
G1 X-18.201 Y39.329 E7.4122
G1 X-18.452 Y38.732 E7.45178
G1 X-18.582 Y38.273 E7.48093
G1 X-18.757 Y38.845 E7.51749
G1 X-19.021 Y39.436 E7.55705
G1 X-19.357 Y39.99 E7.59665
G1 X-19.758 Y40.499 E7.63625
G1 X-20.218 Y40.954 E7.67579
G1 X-20.732 Y41.349 E7.71541
G1 X-21.29 Y41.678 E7.755
G1 X-21.884 Y41.936 E7.79458
G1 X-22.505 Y42.119 E7.83414
G1 X-23.145 Y42.223 E7.87377
G1 X-23.672 Y42.25 E7.90602
G1 X-29.795 Y42.25 E8.28023
G1 X-30.442 Y42.21 E8.31985
G1 X-31.078 Y42.091 E8.35939
G1 X-31.695 Y41.894 E8.39897
G1 X-32.284 Y41.623 E8.4386
G1 X-32.834 Y41.281 E8.47818
G1 X-33.507 Y40.712 E8.53204
G1 X-33.712 Y40.507 E8.54976
G1 X-34.141 Y40.022 E8.58933
G1 X-34.507 Y39.487 E8.62895
G1 X-34.804 Y38.912 E8.6685
G1 X-35.028 Y38.304 E8.7081
G1 X-35.176 Y37.673 E8.74771
G1 X-35.25 Y36.795 E8.80156
G1 X-35.25 Y-15.996 E12.02791
G1 X-35.21 Y-16.643 E12.06753
G1 X-35.091 Y-17.279 E12.10707
G1 X-34.894 Y-17.896 E12.14665
G1 X-34.623 Y-18.485 E12.18628
G1 X-34.281 Y-19.035 E12.22586
G1 X-33.874 Y-19.539 E12.26545
G1 X-33.408 Y-19.989 E12.30504
G1 X-32.891 Y-20.378 E12.34459
G1 X-32.329 Y-20.701 E12.3842
G1 X-32.246 Y-20.736 E12.38971
G1 X-32.25 Y-20.789 E12.39295
G1 X-32.25 Y-26.048 E12.71436
G1 X-32.247 Y-26.095 E12.71724
G1 X-32.667 Y-26.309 E12.74605
G1 X-33.203 Y-26.672 E12.78561
G1 X-33.691 Y-27.098 E12.8252
G1 X-34.123 Y-27.581 E12.8648
G1 X-34.492 Y-28.113 E12.90437
G1 X-34.792 Y-28.687 E12.94396
G1 X-35.02 Y-29.294 E12.98358
G1 X-35.171 Y-29.924 E13.02318
G1 X-35.25 Y-30.831 E13.07882
G1 X-35.25 Y-36.795 E13.44331
G1 X-35.21 Y-37.442 E13.48293
G1 X-35.091 Y-38.078 E13.52247
G1 X-34.894 Y-38.695 E13.56206
G1 X-34.623 Y-39.284 E13.60168
G1 X-34.281 Y-39.834 E13.64126
G1 X-33.712 Y-40.507 E13.69512
G1 X-33.507 Y-40.712 E13.71284
G1 X-33.022 Y-41.141 E13.75241
G1 X-32.487 Y-41.507 E13.79203
G1 X-31.912 Y-41.804 E13.83158
G1 X-31.304 Y-42.028 E13.87118
G1 X-30.673 Y-42.176 E13.91079
G1 X-29.795 Y-42.25 E13.96464
G1 X29.795 Y-42.25 E17.60651
G1 X30.442 Y-42.21 E17.64613
G1 X31.078 Y-42.091 E17.68568
G1 X31.695 Y-41.894 E17.72526
G1 X32.284 Y-41.623 E17.76488
G1 X32.834 Y-41.281 E17.80447
G1 X33.507 Y-40.712 E17.85833
G1 X33.712 Y-40.507 E17.87605
G1 X34.141 Y-40.022 E17.91562
G1 X34.507 Y-39.487 E17.95523
G1 X34.804 Y-38.912 E17.99479
G1 X35.028 Y-38.304 E18.03439
G1 X35.176 Y-37.673 E18.074
G1 X35.25 Y-36.795 E18.12785
G1 X35.25 Y-29.371 E18.58157
G1 X35.21 Y-28.724 E18.62119
G1 X35.091 Y-28.088 E18.66073
G1 X34.894 Y-27.471 E18.70031
G1 X34.623 Y-26.882 E18.73994
G1 X34.281 Y-26.332 E18.77952
G1 X33.874 Y-25.828 E18.81911
G1 X33.408 Y-25.378 E18.8587
G1 X32.891 Y-24.989 E18.89824
G1 X32.329 Y-24.666 E18.93786
G1 X32.246 Y-24.631 E18.94336
G1 X32.25 Y-24.578 E18.94661
G1 X32.25 Y-19.611 E19.25017
G1 X32.247 Y-19.56 E19.2533
G0 F3600 X32.004 Y-18.911
G1 F1200 X32.526 Y-18.61 E19.29012
G1 X33.004 Y-18.243 E19.32695
G1 X33.43 Y-17.816 E19.36381
G1 X33.795 Y-17.336 E19.40067
G1 X34.094 Y-16.812 E19.43754
G1 X34.32 Y-16.253 E19.47439
G1 X34.471 Y-15.67 E19.5112
G1 X34.55 Y-14.826 E19.563
G1 X34.55 Y36.795 E22.71785
G1 X34.51 Y37.397 E22.75472
G1 X34.391 Y37.988 E22.79156
G1 X34.195 Y38.558 E22.8284
G1 X33.925 Y39.097 E22.86524
G1 X33.586 Y39.596 E22.90211
G1 X33.217 Y40.012 E22.9361
G1 X33.012 Y40.217 E22.95381
G1 X32.559 Y40.615 E22.99067
G1 X32.056 Y40.948 E23.02754
G1 X31.514 Y41.213 E23.06441
G1 X30.942 Y41.403 E23.10124
G1 X30.35 Y41.516 E23.13808
G1 X29.795 Y41.55 E23.17206
G1 X13.711 Y41.55 E24.15504
G1 X13.109 Y41.51 E24.19191
G1 X12.518 Y41.391 E24.22876
G1 X11.948 Y41.195 E24.2656
G1 X11.409 Y40.925 E24.30244
G1 X10.91 Y40.586 E24.33931
G1 X10.461 Y40.184 E24.37614
G1 X10.068 Y39.726 E24.41302
G1 X9.74 Y39.22 E24.44988
G1 X9.481 Y38.676 E24.4867
G1 X9.296 Y38.102 E24.52356
G1 X9.189 Y37.508 E24.56044
G1 X9.162 Y36.906 E24.59727
G1 X9.214 Y36.305 E24.63414
G1 X9.226 Y36.252 E24.63746
G1 X6.988 Y36.252 E24.77424
G1 X7.045 Y36.639 E24.79814
G1 X7.053 Y37.242 E24.835
G1 X6.981 Y37.84 E24.87181
G1 X6.83 Y38.424 E24.90868
G1 X6.604 Y38.983 E24.94553
G1 X6.306 Y39.507 E24.98237
G1 X5.941 Y39.987 E25.01922
G1 X5.516 Y40.415 E25.05608
G1 X5.038 Y40.783 E25.09295
G1 X4.515 Y41.084 E25.12983
G1 X3.958 Y41.313 E25.16664
G1 X3.375 Y41.467 E25.20349
G1 X2.509 Y41.55 E25.25666
G1 X-13.496 Y41.55 E26.23481
G1 X-14.098 Y41.51 E26.27168
G1 X-14.689 Y41.391 E26.30853
G1 X-15.259 Y41.195 E26.34536
G1 X-15.798 Y40.925 E26.38221
G1 X-16.297 Y40.586 E26.41908
G1 X-16.746 Y40.184 E26.45591
G1 X-17.139 Y39.726 E26.49279
G1 X-17.467 Y39.22 E26.52965
G1 X-17.726 Y38.676 E26.56647
G1 X-17.911 Y38.102 E26.60333
G1 X-18.018 Y37.508 E26.64021
G1 X-18.045 Y36.906 E26.67704
G1 X-17.993 Y36.305 E26.71391
G1 X-17.981 Y36.252 E26.71723
G1 X-19.189 Y36.252 E26.79106
G1 X-19.128 Y36.762 E26.82245
G1 X-19.137 Y37.365 E26.8593
G1 X-19.225 Y37.961 E26.89612
G1 X-19.391 Y38.541 E26.93299
G1 X-19.632 Y39.093 E26.96981
G1 X-19.945 Y39.609 E27.00669
G1 X-20.322 Y40.079 E27.04351
G1 X-20.759 Y40.495 E27.08039
G1 X-21.247 Y40.85 E27.11727
G1 X-21.777 Y41.137 E27.1541
G1 X-22.341 Y41.351 E27.19097
G1 X-22.928 Y41.489 E27.22782
G1 X-23.672 Y41.55 E27.27344
G1 X-29.795 Y41.55 E27.64766
G1 X-30.397 Y41.51 E27.68453
G1 X-30.988 Y41.391 E27.72137
G1 X-31.558 Y41.195 E27.75821
G1 X-32.097 Y40.925 E27.79505
G1 X-32.596 Y40.586 E27.83192
G1 X-33.012 Y40.217 E27.86591
G1 X-33.217 Y40.012 E27.88362
G1 X-33.615 Y39.559 E27.92048
G1 X-33.948 Y39.056 E27.95734
G1 X-34.213 Y38.514 E27.99422
G1 X-34.403 Y37.942 E28.03105
G1 X-34.516 Y37.35 E28.06789
G1 X-34.55 Y36.795 E28.10187
G1 X-34.55 Y-15.996 E31.32822
G1 X-34.51 Y-16.598 E31.36509
G1 X-34.391 Y-17.189 E31.40193
G1 X-34.195 Y-17.759 E31.43877
G1 X-33.925 Y-18.298 E31.47561
G1 X-33.586 Y-18.797 E31.51248
G1 X-33.184 Y-19.246 E31.54932
G1 X-32.726 Y-19.639 E31.5862
G1 X-32.22 Y-19.967 E31.62305
G1 X-31.676 Y-20.226 E31.65987
G1 X-31.519 Y-20.277 E31.66996
G1 X-31.55 Y-20.789 E31.70131
G1 X-31.55 Y-26.048 E32.02272
G1 X-31.517 Y-26.544 E32.0531
G1 X-31.56 Y-26.557 E32.05584
G1 X-32.112 Y-26.801 E32.09273
G1 X-32.626 Y-27.115 E32.12954
G1 X-33.094 Y-27.495 E32.16638
G1 X-33.508 Y-27.934 E32.20326
G1 X-33.861 Y-28.423 E32.24012
G1 X-34.145 Y-28.955 E32.27698
G1 X-34.357 Y-29.519 E32.3138
G1 X-34.492 Y-30.107 E32.35067
G1 X-34.55 Y-30.831 E32.39506
G1 X-34.55 Y-36.795 E32.75955
G1 X-34.51 Y-37.397 E32.79643
G1 X-34.391 Y-37.988 E32.83327
G1 X-34.195 Y-38.558 E32.87011
G1 X-33.925 Y-39.097 E32.90695
G1 X-33.586 Y-39.596 E32.94382
G1 X-33.217 Y-40.012 E32.9778
G1 X-33.012 Y-40.217 E32.99552
G1 X-32.559 Y-40.615 E33.03238
G1 X-32.056 Y-40.948 E33.06924
G1 X-31.514 Y-41.213 E33.10611
G1 X-30.942 Y-41.403 E33.14295
G1 X-30.35 Y-41.516 E33.17978
G1 X-29.795 Y-41.55 E33.21377
G1 X29.795 Y-41.55 E36.85564
G1 X30.397 Y-41.51 E36.89251
G1 X30.988 Y-41.391 E36.92936
G1 X31.558 Y-41.195 E36.96619
G1 X32.097 Y-40.925 E37.00304
G1 X32.596 Y-40.586 E37.03991
G1 X33.012 Y-40.217 E37.07389
G1 X33.217 Y-40.012 E37.09161
G1 X33.615 Y-39.559 E37.12846
G1 X33.948 Y-39.056 E37.16533
G1 X34.213 Y-38.514 E37.2022
G1 X34.403 Y-37.942 E37.23904
G1 X34.516 Y-37.35 E37.27587
G1 X34.55 Y-36.795 E37.30985
G1 X34.55 Y-29.371 E37.76357
G1 X34.51 Y-28.769 E37.80045
G1 X34.391 Y-28.178 E37.83729
G1 X34.195 Y-27.608 E37.87413
G1 X33.925 Y-27.069 E37.91097
G1 X33.586 Y-26.57 E37.94784
G1 X33.184 Y-26.121 E37.98467
G1 X32.726 Y-25.728 E38.02156
G1 X32.22 Y-25.4 E38.05841
G1 X31.676 Y-25.141 E38.09523
G1 X31.519 Y-25.09 E38.10532
G1 X31.55 Y-24.578 E38.13667
G1 X31.55 Y-19.611 E38.44023
G1 X31.517 Y-19.111 E38.47085
G1 X32.004 Y-18.911 E38.50303
G0 F3600 X30.85 Y-19.611
G1 F1200 X30.81 Y-19.058 E38.53691
G1 X30.709 Y-18.6 E38.56558
G1 X30.99 Y-18.547 E38.58305
G1 X31.514 Y-18.366 E38.61694
G1 X32.007 Y-18.111 E38.65086
G1 X32.458 Y-17.789 E38.68472
G1 X32.859 Y-17.405 E38.71866
G1 X33.2 Y-16.967 E38.75258
G1 X33.474 Y-16.485 E38.78647
G1 X33.676 Y-15.969 E38.82033
G1 X33.802 Y-15.429 E38.85422
G1 X33.85 Y-14.826 E38.89119
G1 X33.85 Y36.795 E42.04603
G1 X33.81 Y37.348 E42.07992
G1 X33.691 Y37.89 E42.11383
G1 X33.495 Y38.409 E42.14774
G1 X33.227 Y38.894 E42.1816
G1 X32.722 Y39.517 E42.23062
G1 X32.517 Y39.722 E42.24833
G1 X32.098 Y40.085 E42.28221
G1 X31.631 Y40.384 E42.3161
G1 X31.125 Y40.613 E42.35005
G1 X30.593 Y40.766 E42.38388
G1 X29.795 Y40.85 E42.43292
G1 X13.711 Y40.85 E43.4159
G1 X13.158 Y40.81 E43.44979
G1 X12.616 Y40.691 E43.4837
G1 X12.097 Y40.495 E43.5176
G1 X11.612 Y40.227 E43.55147
G1 X11.17 Y39.892 E43.58536
G1 X10.781 Y39.497 E43.61925
G1 X10.452 Y39.05 E43.65317
G1 X10.191 Y38.561 E43.68704
G1 X10.004 Y38.039 E43.72093
G1 X9.893 Y37.495 E43.75486
G1 X9.861 Y36.941 E43.78878
G1 X9.91 Y36.389 E43.82265
G1 X10.037 Y35.849 E43.85655
G1 X10.154 Y35.552 E43.87606
G1 X6.071 Y35.552 E44.12559
G1 X6.226 Y35.996 E44.15433
G1 X6.331 Y36.54 E44.18819
G1 X6.358 Y37.094 E44.22209
G1 X6.304 Y37.646 E44.25599
G1 X6.172 Y38.185 E44.2899
G1 X5.964 Y38.699 E44.32379
G1 X5.684 Y39.178 E44.3577
G1 X5.338 Y39.611 E44.39157
G1 X4.933 Y39.991 E44.42552
G1 X4.478 Y40.308 E44.45941
G1 X3.983 Y40.557 E44.49327
G1 X3.456 Y40.732 E44.52721
G1 X2.91 Y40.829 E44.5611
G1 X2.509 Y40.85 E44.58564
G1 X-13.496 Y40.85 E45.56379
G1 X-14.049 Y40.81 E45.59768
G1 X-14.591 Y40.691 E45.63159
G1 X-15.11 Y40.495 E45.6655
G1 X-15.595 Y40.227 E45.69936
G1 X-16.037 Y39.892 E45.73326
G1 X-16.426 Y39.497 E45.76714
G1 X-16.755 Y39.05 E45.80106
G1 X-17.016 Y38.561 E45.83494
G1 X-17.203 Y38.039 E45.86882
G1 X-17.314 Y37.495 E45.90276
G1 X-17.346 Y36.941 E45.93667
G1 X-17.297 Y36.389 E45.97054
G1 X-17.17 Y35.849 E46.00444
G1 X-17.053 Y35.552 E46.02395
G1 X-20.106 Y35.552 E46.21054
G1 X-20.098 Y35.569 E46.21168
G1 X-19.929 Y36.097 E46.24557
G1 X-19.838 Y36.644 E46.27946
G1 X-19.827 Y37.199 E46.31338
G1 X-19.896 Y37.749 E46.34726
G1 X-20.042 Y38.284 E46.38115
G1 X-20.265 Y38.792 E46.41506
G1 X-20.557 Y39.263 E46.44893
G1 X-20.915 Y39.687 E46.48284
G1 X-21.33 Y40.055 E46.51674
G1 X-21.793 Y40.36 E46.55062
G1 X-22.295 Y40.595 E46.5845
G1 X-22.826 Y40.756 E46.61841
G1 X-23.375 Y40.838 E46.65233
G1 X-23.672 Y40.85 E46.6705
G1 X-29.795 Y40.85 E47.04471
G1 X-30.348 Y40.81 E47.07859
G1 X-30.89 Y40.691 E47.11251
G1 X-31.409 Y40.495 E47.14641
G1 X-31.894 Y40.227 E47.18028
G1 X-32.517 Y39.722 E47.22929
G1 X-32.722 Y39.517 E47.24701
G1 X-33.085 Y39.098 E47.28089
G1 X-33.384 Y38.631 E47.31478
G1 X-33.613 Y38.125 E47.34872
G1 X-33.766 Y37.593 E47.38256
G1 X-33.85 Y36.795 E47.4316
G1 X-33.85 Y-15.996 E50.65794
G1 X-33.81 Y-16.549 E50.69183
G1 X-33.691 Y-17.091 E50.72574
G1 X-33.495 Y-17.61 E50.75965
G1 X-33.227 Y-18.095 E50.79351
G1 X-32.892 Y-18.537 E50.82741
G1 X-32.497 Y-18.926 E50.86129
G1 X-32.05 Y-19.255 E50.89521
G1 X-31.561 Y-19.516 E50.92909
G1 X-31.039 Y-19.703 E50.96297
G1 X-30.703 Y-19.772 E50.98394
G1 X-30.766 Y-19.991 E50.99786
G1 X-30.85 Y-20.789 E51.0469
G1 X-30.85 Y-26.048 E51.36831
G1 X-30.81 Y-26.601 E51.4022
G1 X-30.71 Y-27.056 E51.43067
G1 X-31.089 Y-27.138 E51.45437
G1 X-31.608 Y-27.333 E51.48825
G1 X-32.094 Y-27.6 E51.52214
G1 X-32.537 Y-27.935 E51.55608
G1 X-32.926 Y-28.329 E51.58992
G1 X-33.256 Y-28.776 E51.62388
G1 X-33.517 Y-29.265 E51.65775
G1 X-33.706 Y-29.786 E51.69163
G1 X-33.817 Y-30.33 E51.72556
G1 X-33.85 Y-30.831 E51.75624
G1 X-33.85 Y-36.795 E52.12074
G1 X-33.81 Y-37.348 E52.15462
G1 X-33.691 Y-37.89 E52.18853
G1 X-33.495 Y-38.409 E52.22244
G1 X-33.227 Y-38.894 E52.2563
G1 X-32.722 Y-39.517 E52.30532
G1 X-32.517 Y-39.722 E52.32304
G1 X-32.098 Y-40.085 E52.35692
G1 X-31.631 Y-40.384 E52.39081
G1 X-31.125 Y-40.613 E52.42475
G1 X-30.593 Y-40.766 E52.45858
G1 X-29.795 Y-40.85 E52.50762
G1 X29.795 Y-40.85 E56.14949
G1 X30.348 Y-40.81 E56.18338
G1 X30.89 Y-40.691 E56.21729
G1 X31.409 Y-40.495 E56.2512
G1 X31.894 Y-40.227 E56.28506
G1 X32.517 Y-39.722 E56.33408
G1 X32.722 Y-39.517 E56.35179
G1 X33.085 Y-39.098 E56.38567
G1 X33.384 Y-38.631 E56.41956
G1 X33.613 Y-38.125 E56.45351
G1 X33.766 Y-37.593 E56.48734
G1 X33.85 Y-36.795 E56.53638
G1 X33.85 Y-29.371 E56.9901
G1 X33.81 Y-28.818 E57.02399
G1 X33.691 Y-28.276 E57.0579
G1 X33.495 Y-27.757 E57.09181
G1 X33.227 Y-27.272 E57.12567
G1 X32.892 Y-26.83 E57.15957
G1 X32.497 Y-26.441 E57.19345
G1 X32.05 Y-26.112 E57.22737
G1 X31.561 Y-25.851 E57.26124
G1 X31.039 Y-25.664 E57.29513
G1 X30.703 Y-25.595 E57.31609
G1 X30.766 Y-25.376 E57.33002
G1 X30.85 Y-24.578 E57.37906
G1 X30.85 Y-19.611 E57.68262
G0 F3600 X30.15 Y-19.611
G1 F1200 X30.11 Y-19.111 E57.71328
G1 X29.991 Y-18.624 E57.74392
G1 X29.797 Y-18.161 E57.7746
G1 X29.667 Y-17.954 E57.78954
G1 X30.103 Y-17.974 E57.81621
G1 X30.601 Y-17.918 E57.84684
G1 X31.084 Y-17.783 E57.87749
G1 X31.54 Y-17.574 E57.90814
G1 X31.957 Y-17.295 E57.93881
G1 X32.324 Y-16.953 E57.96947
G1 X32.632 Y-16.557 E58.00013
G1 X32.873 Y-16.117 E58.03079
G1 X33.042 Y-15.645 E58.06143
G1 X33.133 Y-15.152 E58.09206
G1 X33.15 Y-14.826 E58.11202
G1 X33.15 Y36.795 E61.26686
G1 X33.11 Y37.295 E61.29751
G1 X32.991 Y37.782 E61.32815
G1 X32.797 Y38.245 E61.35883
G1 X32.531 Y38.67 E61.38947
G1 X32.022 Y39.227 E61.43559
G1 X31.641 Y39.553 E61.46623
G1 X31.212 Y39.813 E61.49689
G1 X30.747 Y40.003 E61.52759
G1 X30.259 Y40.116 E61.55821
G1 X29.795 Y40.15 E61.58664
G1 X13.711 Y40.15 E62.56962
G1 X13.211 Y40.11 E62.60028
G1 X12.724 Y39.991 E62.63091
G1 X12.261 Y39.797 E62.66159
G1 X11.836 Y39.531 E62.69224
G1 X11.458 Y39.201 E62.7229
