;FLAVOR:Marlin
;TIME:5735
;Filament used: 10.7707m
;Layer height: 0.3
;MINX:-49.68
;MINY:-49.68
;MINZ:0.2
;MAXX:49.681
;MAXY:49.68
;MAXZ:44.6
;Generated with Cura_SteamEngine 4.13.1
M140 S70
M105
M190 S70
M104 S205
M105
M109 S205
M82 ;absolute extrusion mode
G28 ;Home
G1 Z15.0 F6000 ;Move the platform down 15mm
;Prime the extruder
G92 E0
G1 F200 E3
G92 E0
G92 E0
G92 E0
G1 F4200 E-4.1
;LAYER_COUNT:149
;LAYER:0
M107
G1 F600 Z0.4
G0 F3600 X48.932 Y-8.544 Z0.4
;TYPE:SKIRT
G1 F600 Z0.2
G1 F4200 E0
G1 F1200 X49.029 Y-8.002 E0.03365
G1 X49.133 Y-7.362 E0.07328
G1 X49.228 Y-6.688 E0.11488
G1 X49.31 Y-6.082 E0.15225
G1 X49.392 Y-5.353 E0.19708
G1 X49.465 Y-4.636 E0.24113
G1 X49.509 Y-4.108 E0.27351
G1 X49.582 Y-3.081 E0.33644
G1 X49.637 Y-2.037 E0.40033
G1 X49.67 Y-.998 E0.46386
G1 X49.681 Y0.059 E0.52846
G1 X49.67 Y1.006 E0.58634
G1 X49.636 Y2.068 E0.65128
G1 X49.599 Y2.826 E0.69766
G1 X49.564 Y3.423 E0.73421
G1 X49.553 Y3.572 E0.74334
G1 X49.438 Y4.898 E0.82468
G1 X49.39 Y5.404 E0.85575
G1 X49.305 Y6.125 E0.90012
G1 X49.195 Y6.946 E0.95074
G1 X48.945 Y8.543 E1.04953
G1 X48.92 Y8.689 E1.05858
G1 X48.804 Y9.311 E1.09725
G1 X48.577 Y10.421 E1.1665
G1 X48.297 Y11.65 E1.24353
G1 X48.14 Y12.294 E1.28404
G1 X48.097 Y12.458 E1.2944
G1 X47.916 Y13.107 E1.33558
G1 X47.746 Y13.738 E1.37552
G1 X47.707 Y13.876 E1.38428
G1 X47.516 Y14.512 E1.42487
G1 X47.197 Y15.513 E1.48908
G1 X46.994 Y16.093 E1.52663
G1 X46.807 Y16.658 E1.563
G1 X46.491 Y17.522 E1.61923
G1 X46.066 Y18.604 E1.69027
G1 X45.573 Y19.786 E1.76854
G1 X45.309 Y20.385 E1.80855
G1 X45.005 Y21.03 E1.85213
G1 X44.74 Y21.609 E1.89105
G1 X44.347 Y22.397 E1.94486
G1 X43.695 Y23.65 E2.03119
G1 X43.375 Y24.229 E2.07162
G1 X42.773 Y25.27 E2.14511
G1 X42.451 Y25.807 E2.18338
G1 X42.101 Y26.377 E2.22426
G1 X41.747 Y26.938 E2.2648
G1 X41.406 Y27.453 E2.30255
G1 X40.744 Y28.431 E2.37472
G1 X40.386 Y28.936 E2.41255
G1 X40.014 Y29.446 E2.45113
G1 X39.622 Y29.972 E2.49123
G1 X39.25 Y30.46 E2.52873
G1 X38.583 Y31.302 E2.59438
G1 X37.91 Y32.113 E2.65878
G1 X37.568 Y32.508 E2.69072
G1 X37.527 Y32.56 E2.69476
G1 X37.067 Y33.081 E2.73724
G1 X36.536 Y33.668 E2.78561
G1 X36.118 Y34.119 E2.8232
G1 X35.631 Y34.627 E2.8662
G1 X34.794 Y35.466 E2.93863
G1 X34.291 Y35.951 E2.98134
G1 X33.621 Y36.581 E3.03754
G1 X33.093 Y37.054 E3.08087
G1 X32.206 Y37.83 E3.15289
G1 X31.72 Y38.238 E3.19167
G1 X31.171 Y38.686 E3.23498
G1 X30.477 Y39.237 E3.28914
G1 X29.99 Y39.608 E3.32655
G1 X28.968 Y40.364 E3.40424
G1 X27.907 Y41.105 E3.48334
G1 X27.795 Y41.181 E3.49161
G1 X26.703 Y41.9 E3.57151
G1 X25.849 Y42.433 E3.63304
G1 X25.152 Y42.848 E3.68261
G1 X24.04 Y43.482 E3.76084
G1 X23.312 Y43.876 E3.81143
G1 X22.171 Y44.464 E3.88988
G1 X21.621 Y44.734 E3.92733
G1 X21.029 Y45.015 E3.96738
G1 X20.182 Y45.401 E4.02426
G1 X19.218 Y45.819 E4.08848
G1 X18.262 Y46.208 E4.15156
G1 X17.189 Y46.617 E4.22174
G1 X16.292 Y46.939 E4.27998
G1 X15.212 Y47.298 E4.34954
G1 X14.565 Y47.502 E4.391
G1 X13.78 Y47.733 E4.44101
G1 X13.233 Y47.889 E4.47577
G1 X12.579 Y48.067 E4.5172
G1 X11.742 Y48.279 E4.56996
G1 X11.195 Y48.404 E4.60426
G1 X9.972 Y48.672 E4.68077
G1 X9.314 Y48.793 E4.72166
G1 X8.773 Y48.899 E4.75536
G1 X8.132 Y49.013 E4.79514
G1 X7.519 Y49.11 E4.83307
G1 X6.953 Y49.194 E4.86804
G1 X6.805 Y49.214 E4.87717
G1 X6.262 Y49.279 E4.91059
G1 X5.665 Y49.356 E4.94738
G1 X5.014 Y49.429 E4.98742
G1 X4.369 Y49.49 E5.02701
G1 X3.864 Y49.53 E5.05797
G1 X2.806 Y49.603 E5.12279
G1 X1.867 Y49.646 E5.18024
G1 X0.722 Y49.675 E5.25024
G1 X-.21 Y49.68 E5.3072
G1 X-1.369 Y49.662 E5.37804
G1 X-2.523 Y49.621 E5.44861
G1 X-3.284 Y49.576 E5.4952
G1 X-3.851 Y49.53 E5.52997
G1 X-4.404 Y49.482 E5.56389
G1 X-4.915 Y49.441 E5.59522
G1 X-6.18 Y49.295 E5.67304
G1 X-6.934 Y49.198 E5.7195
G1 X-7.537 Y49.109 E5.75676
G1 X-8.199 Y49.002 E5.79774
G1 X-8.942 Y48.874 E5.84382
G1 X-9.523 Y48.764 E5.87996
G1 X-10.162 Y48.635 E5.9198
G1 X-10.817 Y48.488 E5.96082
G1 X-11.946 Y48.229 E6.03162
G1 X-12.085 Y48.195 E6.04036
G1 X-12.72 Y48.03 E6.08046
G1 X-13.358 Y47.849 E6.12099
G1 X-13.994 Y47.675 E6.16129
G1 X-14.618 Y47.488 E6.2011
G1 X-15.23 Y47.292 E6.24037
G1 X-15.909 Y47.067 E6.28409
G1 X-16.388 Y46.897 E6.31515
G1 X-17.042 Y46.671 E6.35744
G1 X-17.677 Y46.435 E6.39884
G1 X-18.247 Y46.211 E6.43627
G1 X-18.883 Y45.951 E6.47826
G1 X-19.924 Y45.517 E6.54719
G1 X-20.058 Y45.459 E6.55612
G1 X-20.654 Y45.189 E6.5961
G1 X-21.736 Y44.676 E6.66929
G1 X-22.482 Y44.309 E6.7201
G1 X-22.65 Y44.222 E6.73166
G1 X-23.182 Y43.936 E6.76857
G1 X-23.693 Y43.672 E6.80373
G1 X-23.841 Y43.593 E6.81398
G1 X-24.465 Y43.244 E6.85767
G1 X-25.5 Y42.637 E6.93101
G1 X-26.04 Y42.31 E6.96959
G1 X-26.603 Y41.959 E7.01013
G1 X-27.194 Y41.582 E7.05298
G1 X-28.112 Y40.966 E7.12054
G1 X-28.637 Y40.6 E7.15965
G1 X-29.162 Y40.226 E7.19905
G1 X-30.215 Y39.441 E7.27932
G1 X-30.651 Y39.102 E7.31307
G1 X-31.123 Y38.728 E7.34988
G1 X-31.68 Y38.275 E7.39375
G1 X-32.145 Y37.883 E7.43092
G1 X-32.598 Y37.493 E7.46746
G1 X-32.664 Y37.44 E7.47263
G1 X-33.092 Y37.061 E7.50757
G1 X-33.535 Y36.661 E7.54405
G1 X-34.042 Y36.192 E7.58626
G1 X-34.52 Y35.734 E7.62671
G1 X-34.977 Y35.287 E7.66578
G1 X-35.428 Y34.834 E7.70485
G1 X-36.296 Y33.931 E7.7814
G1 X-36.403 Y33.817 E7.79095
G1 X-37.084 Y33.063 E7.85305
G1 X-37.941 Y32.078 E7.93284
G1 X-38.031 Y31.972 E7.94134
G1 X-38.431 Y31.486 E7.97981
G1 X-38.9 Y30.901 E8.02563
G1 X-39.371 Y30.308 E8.07192
G1 X-39.754 Y29.804 E8.1106
G1 X-40.522 Y28.751 E8.19025
G1 X-40.941 Y28.152 E8.23493
G1 X-41.268 Y27.672 E8.27043
G1 X-41.648 Y27.084 E8.31321
G1 X-42.012 Y26.528 E8.35383
G1 X-42.095 Y26.397 E8.36331
G1 X-42.489 Y25.754 E8.40939
G1 X-42.911 Y25.048 E8.45966
G1 X-43.606 Y23.818 E8.546
G1 X-43.677 Y23.688 E8.55506
G1 X-44.022 Y23.033 E8.6003
G1 X-44.355 Y22.392 E8.64445
G1 X-44.631 Y21.839 E8.68222
G1 X-45.043 Y20.973 E8.74083
G1 X-45.509 Y19.946 E8.80975
G1 X-45.876 Y19.085 E8.86696
G1 X-46.307 Y18.014 E8.93751
G1 X-46.679 Y17.026 E9.00203
G1 X-46.91 Y16.37 E9.04454
G1 X-47.285 Y15.256 E9.11637
G1 X-47.473 Y14.662 E9.15445
G1 X-47.661 Y14.043 E9.19399
G1 X-47.963 Y12.972 E9.26199
G1 X-48.111 Y12.418 E9.29704
G1 X-48.131 Y12.333 E9.30238
G1 X-48.34 Y11.495 E9.35516
G1 X-48.468 Y10.928 E9.39068
G1 X-48.748 Y9.602 E9.47351
G1 X-48.867 Y8.974 E9.51257
G1 X-48.967 Y8.403 E9.548
G1 X-49.075 Y7.743 E9.58888
G1 X-49.241 Y6.629 E9.65771
G1 X-49.269 Y6.41 E9.6712
G1 X-49.323 Y5.902 E9.70242
G1 X-49.417 Y5.117 E9.75074
G1 X-49.488 Y4.419 E9.79362
G1 X-49.536 Y3.837 E9.82931
G1 X-49.612 Y2.649 E9.90207
G1 X-49.659 Y1.508 E9.97186
G1 X-49.68 Y0.473 E10.03512
G1 X-49.679 Y-.583 E10.09966
G1 X-49.655 Y-1.655 E10.1652
G1 X-49.606 Y-2.712 E10.22986
G1 X-49.57 Y-3.346 E10.26867
G1 X-49.529 Y-3.946 E10.30543
G1 X-49.516 Y-4.101 E10.31493
G1 X-49.384 Y-5.44 E10.39716
G1 X-49.317 Y-6.051 E10.43473
G1 X-49.23 Y-6.712 E10.47548
G1 X-49.145 Y-7.283 E10.51076
G1 X-49.059 Y-7.822 E10.54411
G1 X-48.981 Y-8.336 E10.57589
G1 X-48.955 Y-8.489 E10.58537
G1 X-48.838 Y-9.128 E10.62507
G1 X-48.704 Y-9.832 E10.66887
G1 X-48.582 Y-10.406 E10.70474
G1 X-48.434 Y-11.062 E10.74584
G1 X-48.296 Y-11.652 E10.78287
G1 X-48.128 Y-12.351 E10.8268
G1 X-47.995 Y-12.857 E10.85878
G1 X-47.777 Y-13.613 E10.90686
G1 X-47.604 Y-14.234 E10.94626
G1 X-47.403 Y-14.89 E10.98819
G1 X-47.364 Y-15.013 E10.99608
G1 X-47.156 Y-15.632 E11.03599
G1 X-46.978 Y-16.181 E11.07126
G1 X-46.679 Y-17.02 E11.1257
G1 X-46.255 Y-18.126 E11.19809
G1 X-46.03 Y-18.694 E11.23542
G1 X-45.764 Y-19.349 E11.27863
G1 X-45.496 Y-19.972 E11.32008
G1 X-45.221 Y-20.567 E11.36014
G1 X-44.952 Y-21.168 E11.40038
G1 X-44.861 Y-21.361 E11.41342
G1 X-44.276 Y-22.536 E11.49364
G1 X-43.95 Y-23.177 E11.53759
G1 X-43.671 Y-23.697 E11.57365
G1 X-43.378 Y-24.225 E11.61056
G1 X-42.707 Y-25.391 E11.69278
G1 X-42.385 Y-25.928 E11.73104
G1 X-42.04 Y-26.486 E11.77114
G1 X-41.359 Y-27.528 E11.84721
G1 X-40.89 Y-28.225 E11.89856
G1 X-40.552 Y-28.708 E11.93459
G1 X-40.198 Y-29.2 E11.97163
G1 X-39.829 Y-29.699 E12.00956
G1 X-39.459 Y-30.192 E12.04723
G1 X-38.916 Y-30.889 E12.10123
G1 X-38.368 Y-31.566 E12.15446
G1 X-37.955 Y-32.061 E12.19386
G1 X-37.421 Y-32.683 E12.24396
G1 X-36.88 Y-33.294 E12.29384
G1 X-36.488 Y-33.723 E12.32935
G1 X-36.012 Y-34.232 E12.37194
G1 X-35.55 Y-34.709 E12.41253
G1 X-35.083 Y-35.181 E12.45311
G1 X-34.605 Y-35.65 E12.49403
G1 X-34.021 Y-36.213 E12.54361
G1 X-33.893 Y-36.331 E12.55425
G1 X-33.081 Y-37.064 E12.6211
G1 X-32.534 Y-37.55 E12.66582
G1 X-32.057 Y-37.959 E12.70422
G1 X-31.463 Y-38.447 E12.75121
G1 X-30.779 Y-38.998 E12.80489
G1 X-30.239 Y-39.425 E12.84696
G1 X-29.626 Y-39.884 E12.89376
G1 X-28.557 Y-40.658 E12.97442
G1 X-27.985 Y-41.052 E13.01687
G1 X-27.081 Y-41.658 E13.08338
G1 X-26.289 Y-42.163 E13.14079
G1 X-25.29 Y-42.769 E13.2122
G1 X-24.695 Y-43.113 E13.2542
G1 X-23.592 Y-43.729 E13.33141
G1 X-23.47 Y-43.795 E13.33989
G1 X-22.54 Y-44.281 E13.40402
G1 X-21.614 Y-44.738 E13.46713
G1 X-20.65 Y-45.193 E13.53228
G1 X-19.966 Y-45.496 E13.578
G1 X-19.322 Y-45.776 E13.62092
G1 X-18.728 Y-46.019 E13.66014
G1 X-17.89 Y-46.354 E13.7153
G1 X-16.895 Y-46.726 E13.78022
G1 X-16.779 Y-46.768 E13.78776
G1 X-15.706 Y-47.138 E13.85712
G1 X-15.105 Y-47.334 E13.89576
G1 X-14.405 Y-47.552 E13.94056
G1 X-13.781 Y-47.737 E13.98034
G1 X-12.791 Y-48.011 E14.04312
G1 X-12.712 Y-48.03 E14.04809
G1 X-12.076 Y-48.196 E14.08826
G1 X-11.349 Y-48.373 E14.13399
G1 X-11.21 Y-48.405 E14.1427
G1 X-10.544 Y-48.548 E14.18433
G1 X-9.302 Y-48.801 E14.2618
G1 X-8.681 Y-48.919 E14.30043
G1 X-8.031 Y-49.03 E14.34073
G1 X-7.476 Y-49.119 E14.37508
G1 X-7.294 Y-49.145 E14.38632
G1 X-6.741 Y-49.214 E14.42038
G1 X-6.162 Y-49.297 E14.45613
G1 X-5.207 Y-49.41 E14.5149
G1 X-4.533 Y-49.476 E14.55629
G1 X-3.806 Y-49.534 E14.60086
G1 X-3.362 Y-49.566 E14.62806
G1 X-2.773 Y-49.602 E14.66413
G1 X-2.297 Y-49.627 E14.69326
G1 X-1.241 Y-49.665 E14.75784
G1 X-.203 Y-49.68 E14.82128
G1 X0.846 Y-49.673 E14.8854
G1 X1.906 Y-49.644 E14.9502
G1 X2.95 Y-49.593 E15.01408
G1 X4.083 Y-49.518 E15.08348
G1 X4.23 Y-49.506 E15.09249
G1 X4.846 Y-49.447 E15.13031
G1 X5.626 Y-49.365 E15.17824
G1 X6.74 Y-49.222 E15.24689
G1 X7.241 Y-49.155 E15.27778
G1 X8.037 Y-49.031 E15.32701
G1 X8.654 Y-48.925 E15.36527
G1 X10.412 Y-48.583 E15.47473
G1 X11.039 Y-48.445 E15.51396
G1 X11.68 Y-48.292 E15.55424
G1 X12.263 Y-48.145 E15.59099
G1 X13.523 Y-47.809 E15.67068
G1 X13.653 Y-47.773 E15.67893
G1 X14.279 Y-47.587 E15.71884
G1 X14.866 Y-47.401 E15.75647
G1 X15.454 Y-47.22 E15.79407
G1 X15.591 Y-47.176 E15.80286
G1 X16.127 Y-46.995 E15.83744
G1 X16.866 Y-46.726 E15.8855
G1 X17.575 Y-46.473 E15.93151
G1 X18.202 Y-46.232 E15.97256
G1 X18.754 Y-46.007 E16.00899
G1 X19.355 Y-45.753 E16.04887
G1 X20.452 Y-45.281 E16.12186
G1 X21.04 Y-45.01 E16.16142
G1 X22.471 Y-44.314 E16.25868
G1 X23.011 Y-44.035 E16.29582
G1 X23.532 Y-43.756 E16.33194
G1 X24.736 Y-43.089 E16.41606
G1 X24.891 Y-43 E16.42699
G1 X25.948 Y-42.364 E16.50238
G1 X26.479 Y-42.034 E16.54059
G1 X27.05 Y-41.67 E16.58197
G1 X27.66 Y-41.27 E16.62655
G1 X28.058 Y-41.001 E16.65591
G1 X28.552 Y-40.658 E16.69267
G1 X29.352 Y-40.085 E16.75281
G1 X29.804 Y-39.746 E16.78734
G1 X30.254 Y-39.405 E16.82184
G1 X30.763 Y-39.012 E16.86114
G1 X31.245 Y-38.628 E16.89881
G1 X32.181 Y-37.853 E16.97307
G1 X32.696 Y-37.41 E17.01459
G1 X33.151 Y-37.005 E17.05182
G1 X33.65 Y-36.551 E17.09305
G1 X34.258 Y-35.984 E17.14386
G1 X34.725 Y-35.532 E17.18358
G1 X35.195 Y-35.068 E17.22394
G1 X35.62 Y-34.631 E17.2612
G1 X36.096 Y-34.135 E17.30321
G1 X36.572 Y-33.623 E17.34594
G1 X37.398 Y-32.708 E17.42127
G1 X37.504 Y-32.587 E17.4311
G1 X38.273 Y-31.679 E17.50382
G1 X38.777 Y-31.06 E17.55261
G1 X39.406 Y-30.258 E17.6149
G1 X39.487 Y-30.152 E17.62305
G1 X40.208 Y-29.183 E17.69687
G1 X40.614 Y-28.614 E17.73959
G1 X40.958 Y-28.124 E17.77618
G1 X41.728 Y-26.969 E17.86101
G1 X42.359 Y-25.969 E17.93328
G1 X42.718 Y-25.368 E17.97606
G1 X43.346 Y-24.285 E18.05257
G1 X43.827 Y-23.403 E18.11397
G1 X44.15 Y-22.787 E18.15648
G1 X44.439 Y-22.219 E18.19543
G1 X44.862 Y-21.356 E18.25417
G1 X45.294 Y-20.421 E18.31711
G1 X45.719 Y-19.453 E18.38173
G1 X46.115 Y-18.494 E18.44514
G1 X46.491 Y-17.53 E18.50837
G1 X46.736 Y-16.859 E18.55203
G1 X47.124 Y-15.741 E18.62436
G1 X47.171 Y-15.604 E18.63321
G1 X47.528 Y-14.478 E18.7054
G1 X47.72 Y-13.832 E18.74659
G1 X48.004 Y-12.816 E18.81106
G1 X48.236 Y-11.908 E18.86834
G1 X48.421 Y-11.131 E18.91715
G1 X48.55 Y-10.554 E18.95328
G1 X48.808 Y-9.283 E19.03255
G1 X48.845 Y-9.081 E19.0451
G1 X48.932 Y-8.544 E19.07834
G0 F3600 X48.243 Y-8.423
G1 F1200 X48.338 Y-7.889 E19.11149
G1 X48.44 Y-7.265 E19.15013
G1 X48.534 Y-6.594 E19.19154
G1 X48.629 Y-5.88 E19.23556
G1 X48.696 Y-5.28 E19.27246
G1 X48.768 Y-4.577 E19.31565
G1 X48.811 Y-4.058 E19.34748
G1 X48.883 Y-3.044 E19.4096
G1 X48.938 Y-2.014 E19.47264
G1 X48.97 Y-.99 E19.53526
G1 X48.981 Y0.051 E19.59888
G1 X48.968 Y1.093 E19.66257
G1 X48.933 Y2.123 E19.72555
G1 X48.9 Y2.785 E19.76606
G1 X48.856 Y3.511 E19.81051
G1 X48.741 Y4.832 E19.89155
G1 X48.681 Y5.449 E19.92944
G1 X48.602 Y6.1 E19.96952
G1 X48.503 Y6.838 E20.01502
G1 X48.232 Y8.561 E20.12162
G1 X48.118 Y9.171 E20.15955
G1 X47.891 Y10.281 E20.22879
G1 X47.599 Y11.559 E20.30891
G1 X47.46 Y12.128 E20.3447
G1 X47.423 Y12.27 E20.35367
G1 X47.253 Y12.88 E20.39237
G1 X47.071 Y13.556 E20.43516
G1 X46.85 Y14.297 E20.48242
G1 X46.687 Y14.801 E20.51479
G1 X46.529 Y15.302 E20.5469
G1 X46.325 Y15.889 E20.58487
G1 X46.143 Y16.437 E20.62016
G1 X45.839 Y17.267 E20.67419
G1 X45.419 Y18.336 E20.74438
G1 X44.932 Y19.506 E20.82183
G1 X44.676 Y20.087 E20.86063
G1 X44.372 Y20.732 E20.90421
G1 X44.104 Y21.318 E20.94359
G1 X43.693 Y22.138 E20.99965
G1 X43.083 Y23.312 E21.08051
G1 X42.812 Y23.803 E21.11478
G1 X42.172 Y24.91 E21.19293
G1 X41.854 Y25.441 E21.23076
G1 X41.508 Y26.005 E21.2712
G1 X41.163 Y26.552 E21.31072
G1 X40.826 Y27.061 E21.34803
G1 X40.172 Y28.027 E21.41932
G1 X39.821 Y28.523 E21.45646
G1 X39.452 Y29.028 E21.49468
G1 X39.065 Y29.548 E21.5343
G1 X38.701 Y30.026 E21.57102
G1 X38.043 Y30.856 E21.63575
G1 X37.38 Y31.656 E21.69925
G1 X37.002 Y32.097 E21.73475
G1 X36.547 Y32.612 E21.77675
G1 X36.022 Y33.193 E21.82461
G1 X35.612 Y33.635 E21.86145
G1 X35.135 Y34.132 E21.90355
G1 X34.234 Y35.035 E21.98151
G1 X33.812 Y35.441 E22.0173
G1 X33.142 Y36.071 E22.07351
G1 X32.631 Y36.528 E22.1154
G1 X31.746 Y37.303 E22.1873
G1 X31.271 Y37.701 E22.22517
G1 X30.735 Y38.138 E22.26744
G1 X30.052 Y38.68 E22.32073
G1 X29.574 Y39.045 E22.35748
G1 X28.552 Y39.801 E22.43517
G1 X27.507 Y40.531 E22.51308
G1 X27.41 Y40.597 E22.52025
G1 X26.332 Y41.306 E22.5991
G1 X25.398 Y41.888 E22.66636
G1 X24.806 Y42.24 E22.70845
G1 X23.605 Y42.923 E22.79289
G1 X22.991 Y43.254 E22.83552
G1 X21.862 Y43.836 E22.91315
G1 X21.321 Y44.102 E22.94999
G1 X20.738 Y44.378 E22.98942
G1 X19.903 Y44.759 E23.04551
G1 X18.954 Y45.171 E23.10874
G1 X18.012 Y45.554 E23.17088
G1 X16.952 Y45.959 E23.24023
G1 X16.071 Y46.275 E23.29744
G1 X15 Y46.631 E23.36641
G1 X14.367 Y46.831 E23.40698
G1 X13.587 Y47.06 E23.45667
G1 X13.047 Y47.214 E23.49098
G1 X12.406 Y47.389 E23.53159
G1 X11.585 Y47.597 E23.58335
G1 X11.045 Y47.721 E23.61721
G1 X9.822 Y47.989 E23.69373
G1 X9.164 Y48.109 E23.73461
G1 X8.649 Y48.21 E23.76668
G1 X8.022 Y48.322 E23.80561
G1 X7.416 Y48.418 E23.84311
G1 X6.85 Y48.502 E23.87808
G1 X6.12 Y48.591 E23.92302
G1 X5.667 Y48.65 E23.95094
G1 X4.946 Y48.732 E23.99529
G1 X4.313 Y48.793 E24.03416
G1 X3.816 Y48.832 E24.06462
G1 X2.774 Y48.903 E24.12845
G1 X1.744 Y48.949 E24.19146
G1 X0.718 Y48.975 E24.25419
G1 X-.31 Y48.979 E24.31702
G1 X-1.345 Y48.962 E24.38028
G1 X-2.611 Y48.916 E24.4577
