;FLAVOR:Marlin
;TIME:11383
;Filament used: 20.2331m
;Layer height: 0.3
;MINX:-57.75
;MINY:-66
;MINZ:0.2
;MAXX:57.75
;MAXY:66
;MAXZ:35.9
;Generated with Cura_SteamEngine 4.13.1
M140 S70
M105
M190 S70
M104 S205
M105
M109 S205
M82 ;absolute extrusion mode
G28 ;Home
G1 Z15.0 F6000 ;Move the platform down 15mm
;Prime the extruder
G92 E0
G1 F200 E3
G92 E0
G92 E0
G92 E0
G1 F4200 E-4.1
;LAYER_COUNT:120
;LAYER:0
M107
G1 F600 Z0.4
G0 F3600 X-57.75 Y15.788 Z0.4
;TYPE:SKIRT
G1 F600 Z0.2
G1 F4200 E0
G1 F1200 X-57.75 Y-60.545 E4.66513
G1 X-57.71 Y-61.192 E4.70475
G1 X-57.591 Y-61.828 E4.74429
G1 X-57.394 Y-62.445 E4.78387
G1 X-57.123 Y-63.034 E4.8235
G1 X-56.781 Y-63.584 E4.86308
G1 X-56.212 Y-64.257 E4.91694
G1 X-56.007 Y-64.462 E4.93466
G1 X-55.522 Y-64.891 E4.97423
G1 X-54.987 Y-65.257 E5.01385
G1 X-54.412 Y-65.554 E5.0534
G1 X-53.804 Y-65.778 E5.093
G1 X-53.173 Y-65.926 E5.13261
G1 X-52.295 Y-66 E5.18646
G1 X52.295 Y-66 E11.57853
G1 X52.942 Y-65.96 E11.61815
G1 X53.578 Y-65.841 E11.65769
G1 X54.195 Y-65.644 E11.69728
G1 X54.784 Y-65.373 E11.7369
G1 X55.334 Y-65.031 E11.77648
G1 X56.007 Y-64.462 E11.83034
G1 X56.212 Y-64.257 E11.84806
G1 X56.641 Y-63.772 E11.88763
G1 X57.007 Y-63.237 E11.92725
G1 X57.304 Y-62.662 E11.9668
G1 X57.528 Y-62.054 E12.0064
G1 X57.676 Y-61.423 E12.04601
G1 X57.75 Y-60.545 E12.09986
G1 X57.749 Y15.829 E16.7675
G1 X57.736 Y16.712 E16.82147
G1 X57.732 Y16.87 E16.83113
G1 X57.692 Y17.762 E16.8857
G1 X57.683 Y17.913 E16.89494
G1 X57.618 Y18.795 E16.94899
G1 X57.604 Y18.952 E16.95863
G1 X57.513 Y19.827 E17.01239
G1 X57.495 Y19.977 E17.02162
G1 X57.378 Y20.855 E17.07576
G1 X57.355 Y21.013 E17.08552
G1 X57.21 Y21.896 E17.1402
G1 X57.015 Y22.906 E17.20307
G1 X56.985 Y23.049 E17.212
G1 X56.792 Y23.912 E17.26604
G1 X56.752 Y24.08 E17.2766
G1 X56.525 Y24.958 E17.33202
G1 X56.488 Y25.094 E17.34064
G1 X56.246 Y25.936 E17.39418
G1 X56.2 Y26.087 E17.40383
G1 X55.93 Y26.93 E17.45792
G1 X55.877 Y27.086 E17.46799
G1 X55.537 Y28.039 E17.52983
G1 X55.22 Y28.863 E17.58379
G1 X55.159 Y29.015 E17.5938
G1 X54.815 Y29.832 E17.64798
G1 X54.752 Y29.975 E17.65753
G1 X54.384 Y30.781 E17.71168
G1 X54.318 Y30.92 E17.72108
G1 X53.927 Y31.714 E17.77517
G1 X53.86 Y31.845 E17.78416
G1 X53.448 Y32.626 E17.83813
G1 X53.367 Y32.774 E17.84844
G1 X52.925 Y33.55 E17.90302
G1 X52.848 Y33.681 E17.91231
G1 X52.388 Y34.437 E17.96639
G1 X52.306 Y34.568 E17.97584
G1 X51.826 Y35.307 E18.02969
G1 X51.742 Y35.432 E18.0389
G1 X51.236 Y36.164 E18.09328
G1 X51.144 Y36.293 E18.10296
G1 X50.53 Y37.124 E18.16611
G1 X49.994 Y37.812 E18.21941
G1 X49.887 Y37.944 E18.2298
G1 X49.32 Y38.625 E18.28395
G1 X49.219 Y38.742 E18.2934
G1 X48.634 Y39.404 E18.34739
G1 X48.534 Y39.514 E18.35648
G1 X47.928 Y40.162 E18.4107
G1 X47.818 Y40.276 E18.42038
G1 X47.086 Y41.011 E18.48378
G1 X46.449 Y41.617 E18.53751
G1 X46.003 Y42.023 E18.57437
G1 X33.47 Y53.23 E19.6019
G1 X32.911 Y53.723 E19.64745
G1 X32.333 Y54.217 E19.69392
G1 X31.763 Y54.687 E19.73907
G1 X31.179 Y55.157 E19.78488
G1 X30.589 Y55.617 E19.83061
G1 X29.992 Y56.068 E19.87633
G1 X29.383 Y56.514 E19.92247
G1 X28.848 Y56.896 E19.96264
G1 X28.217 Y57.328 E20.00938
G1 X28.152 Y57.374 E20.01425
G1 X27.544 Y57.777 E20.05882
G1 X26.907 Y58.189 E20.10519
G1 X26.272 Y58.585 E20.15093
G1 X25.64 Y58.966 E20.19603
G1 X24.991 Y59.345 E20.24196
G1 X24.329 Y59.718 E20.2884
G1 X23.671 Y60.075 E20.33415
G1 X23.008 Y60.421 E20.37985
G1 X22.331 Y60.766 E20.42629
G1 X21.673 Y61.085 E20.47098
G1 X20.995 Y61.403 E20.51675
G1 X20.312 Y61.711 E20.56254
G1 X19.7 Y61.976 E20.6033
G1 X19.622 Y62.012 E20.60855
G1 X18.925 Y62.3 E20.65464
G1 X18.224 Y62.579 E20.70075
G1 X17.554 Y62.833 E20.74454
G1 X16.853 Y63.089 E20.79015
G1 X16.119 Y63.345 E20.83766
G1 X15.421 Y63.574 E20.88255
G1 X14.704 Y63.801 E20.92852
G1 X13.991 Y64.014 E20.974
G1 X13.264 Y64.218 E21.02014
G1 X12.537 Y64.411 E21.06611
G1 X11.828 Y64.587 E21.11076
G1 X11.083 Y64.763 E21.15754
G1 X10.369 Y64.918 E21.2022
G1 X9.633 Y65.067 E21.24809
G1 X8.909 Y65.203 E21.29311
G1 X8.146 Y65.336 E21.34045
G1 X7.411 Y65.45 E21.3859
G1 X6.757 Y65.544 E21.42628
G1 X5.95 Y65.646 E21.476
G1 X5.177 Y65.733 E21.52354
G1 X4.445 Y65.803 E21.56848
G1 X3.692 Y65.863 E21.61464
G1 X2.961 Y65.912 E21.65942
G1 X2.202 Y65.951 E21.70587
G1 X1.454 Y65.979 E21.75161
G1 X0.704 Y65.995 E21.79746
G1 X-0.057 Y66 E21.84397
G1 X-.807 Y65.994 E21.88981
G1 X-1.535 Y65.976 E21.93431
G1 X-2.281 Y65.948 E21.97994
G1 X-3.039 Y65.908 E22.02633
G1 X-3.771 Y65.858 E22.07117
G1 X-4.529 Y65.795 E22.11765
G1 X-5.285 Y65.721 E22.16408
G1 X-6.019 Y65.638 E22.20922
G1 X-6.747 Y65.544 E22.25408
G1 X-7.497 Y65.437 E22.30038
G1 X-8.26 Y65.316 E22.3476
G1 X-8.99 Y65.188 E22.39289
G1 X-9.731 Y65.048 E22.43898
G1 X-10.444 Y64.902 E22.48346
G1 X-11.152 Y64.746 E22.52777
G1 X-11.907 Y64.57 E22.57515
G1 X-12.649 Y64.383 E22.62191
G1 X-13.34 Y64.196 E22.66566
G1 X-14.07 Y63.991 E22.712
G1 X-14.789 Y63.775 E22.75789
G1 X-15.5 Y63.549 E22.80348
G1 X-16.205 Y63.314 E22.8489
G1 X-16.918 Y63.066 E22.89503
G1 X-17.609 Y62.813 E22.94001
G1 X-18.323 Y62.542 E22.98668
G1 X-19.018 Y62.263 E23.03245
G1 X-19.716 Y61.971 E23.07869
G1 X-20.38 Y61.68 E23.123
G1 X-21.066 Y61.371 E23.16898
G1 X-21.746 Y61.051 E23.21491
G1 X-22.436 Y60.714 E23.26184
G1 X-23.088 Y60.383 E23.30653
G1 X-23.753 Y60.032 E23.35248
G1 X-24.403 Y59.676 E23.39778
G1 X-25.067 Y59.301 E23.44438
G1 X-25.715 Y58.92 E23.49032
G1 X-26.343 Y58.54 E23.53518
G1 X-26.993 Y58.134 E23.58202
G1 X-27.592 Y57.745 E23.62567
G1 X-28.15 Y57.375 E23.66659
G1 X-28.855 Y56.89 E23.71889
G1 X-29.458 Y56.461 E23.76412
G1 X-30.056 Y56.021 E23.80949
G1 X-30.663 Y55.561 E23.85604
G1 X-31.269 Y55.086 E23.90309
G1 X-31.807 Y54.65 E23.94541
G1 X-32.409 Y54.153 E23.99312
G1 X-32.967 Y53.674 E24.03807
G1 X-33.5 Y53.204 E24.0815
G1 X-46.064 Y41.966 E25.1117
G1 X-46.823 Y41.263 E25.17493
G1 X-47.456 Y40.645 E25.22899
G1 X-47.568 Y40.532 E25.23872
G1 X-48.183 Y39.894 E25.29288
G1 X-48.289 Y39.78 E25.30239
G1 X-48.883 Y39.126 E25.35638
G1 X-48.986 Y39.009 E25.36591
G1 X-49.561 Y38.337 E25.41996
G1 X-49.656 Y38.222 E25.42908
G1 X-50.21 Y37.536 E25.48297
G1 X-50.311 Y37.407 E25.49298
G1 X-50.835 Y36.715 E25.54603
G1 X-50.922 Y36.597 E25.55499
G1 X-51.542 Y35.726 E25.62033
G1 X-52.031 Y34.997 E25.67398
G1 X-52.12 Y34.86 E25.68396
G1 X-52.595 Y34.102 E25.73863
G1 X-52.67 Y33.978 E25.74749
G1 X-53.111 Y33.229 E25.80061
G1 X-53.19 Y33.09 E25.81038
G1 X-53.619 Y32.308 E25.86489
G1 X-53.693 Y32.169 E25.87452
G1 X-54.096 Y31.379 E25.92872
G1 X-54.538 Y30.452 E25.99148
G1 X-54.611 Y30.292 E26.00223
G1 X-55.018 Y29.353 E26.06478
G1 X-55.351 Y28.53 E26.11904
G1 X-55.406 Y28.387 E26.1284
G1 X-55.714 Y27.557 E26.18251
G1 X-55.771 Y27.395 E26.193
G1 X-56.096 Y26.418 E26.25593
G1 X-56.345 Y25.603 E26.30801
G1 X-56.391 Y25.441 E26.3183
G1 X-56.632 Y24.551 E26.37465
G1 X-56.669 Y24.407 E26.38374
G1 X-56.873 Y23.559 E26.43704
G1 X-56.907 Y23.408 E26.4465
G1 X-57.091 Y22.53 E26.50133
G1 X-57.121 Y22.378 E26.5108
G1 X-57.274 Y21.523 E26.56388
G1 X-57.3 Y21.364 E26.57373
G1 X-57.43 Y20.482 E26.62821
G1 X-57.45 Y20.332 E26.63746
G1 X-57.554 Y19.452 E26.69162
G1 X-57.57 Y19.299 E26.70102
G1 X-57.648 Y18.418 E26.75507
G1 X-57.659 Y18.27 E26.76414
G1 X-57.712 Y17.388 E26.81815
G1 X-57.719 Y17.227 E26.82799
G1 X-57.747 Y16.225 E26.88926
G1 X-57.75 Y15.788 E26.91596
G0 F3600 X-57.05 Y15.783
G1 F1200 X-57.05 Y-60.545 E31.58079
G1 X-57.01 Y-61.147 E31.61766
G1 X-56.891 Y-61.738 E31.6545
G1 X-56.695 Y-62.308 E31.69134
G1 X-56.425 Y-62.847 E31.72819
G1 X-56.086 Y-63.346 E31.76505
G1 X-55.717 Y-63.762 E31.79904
G1 X-55.512 Y-63.967 E31.81676
G1 X-55.059 Y-64.365 E31.85361
G1 X-54.556 Y-64.698 E31.89048
G1 X-54.014 Y-64.963 E31.92735
G1 X-53.442 Y-65.153 E31.96418
G1 X-52.85 Y-65.266 E32.00102
G1 X-52.295 Y-65.3 E32.035
G1 X52.295 Y-65.3 E38.42707
G1 X52.897 Y-65.26 E38.46394
G1 X53.488 Y-65.141 E38.50079
G1 X54.058 Y-64.945 E38.53763
G1 X54.597 Y-64.675 E38.57447
G1 X55.096 Y-64.336 E38.61134
G1 X55.512 Y-63.967 E38.64532
G1 X55.717 Y-63.762 E38.66304
G1 X56.115 Y-63.309 E38.69989
G1 X56.448 Y-62.806 E38.73676
G1 X56.713 Y-62.264 E38.77363
G1 X56.903 Y-61.692 E38.81047
G1 X57.016 Y-61.1 E38.8473
G1 X57.05 Y-60.545 E38.88128
G1 X57.05 Y15.819 E43.54831
G1 X57.037 Y16.702 E43.60228
G1 X56.992 Y17.731 E43.66523
G1 X56.985 Y17.861 E43.67318
G1 X56.92 Y18.743 E43.72723
G1 X56.908 Y18.88 E43.73564
G1 X56.817 Y19.755 E43.7894
G1 X56.684 Y20.763 E43.85154
G1 X56.664 Y20.899 E43.85994
G1 X56.519 Y21.782 E43.91463
G1 X56.495 Y21.914 E43.92283
G1 X56.328 Y22.772 E43.97625
G1 X56.302 Y22.896 E43.98399
G1 X56.109 Y23.759 E44.03804
G1 X56.074 Y23.905 E44.04722
G1 X55.815 Y24.901 E44.11011
G1 X55.573 Y25.743 E44.16365
G1 X55.533 Y25.874 E44.17202
G1 X55.263 Y26.717 E44.22612
G1 X55.218 Y26.852 E44.23482
G1 X54.884 Y27.788 E44.29556
G1 X54.567 Y28.612 E44.34951
G1 X54.169 Y29.561 E44.41241
G1 X54.115 Y29.685 E44.42067
G1 X53.747 Y30.491 E44.47482
G1 X53.69 Y30.611 E44.48294
G1 X53.299 Y31.405 E44.53703
G1 X52.829 Y32.299 E44.59876
G1 X52.759 Y32.428 E44.60773
G1 X52.317 Y33.204 E44.66231
G1 X51.79 Y34.073 E44.72442
G1 X51.719 Y34.186 E44.73258
G1 X51.239 Y34.925 E44.78643
G1 X51.166 Y35.034 E44.79445
G1 X50.66 Y35.766 E44.84884
G1 X50.58 Y35.878 E44.85725
G1 X50.051 Y36.596 E44.91175
G1 X49.441 Y37.381 E44.97251
G1 X49.349 Y37.496 E44.98151
G1 X48.695 Y38.279 E45.04386
G1 X48.11 Y38.941 E45.09785
G1 X47.417 Y39.684 E45.15995
G1 X47.322 Y39.783 E45.16833
G1 X46.695 Y40.414 E45.2227
G1 X46.603 Y40.504 E45.23056
G1 X45.966 Y41.11 E45.2843
G1 X45.536 Y41.502 E45.31986
G1 X33.008 Y52.705 E46.34699
G1 X32.455 Y53.191 E46.39199
G1 X31.887 Y53.677 E46.43767
G1 X31.324 Y54.142 E46.4823
G1 X30.748 Y54.605 E46.52747
G1 X30.166 Y55.059 E46.57258
G1 X29.578 Y55.503 E46.61761
G1 X28.976 Y55.944 E46.66321
G1 X28.367 Y56.378 E46.70892
G1 X27.765 Y56.791 E46.75354
G1 X27.163 Y57.19 E46.79767
G1 X26.536 Y57.595 E46.84329
G1 X25.91 Y57.986 E46.8884
G1 X25.286 Y58.362 E46.93292
G1 X24.647 Y58.735 E46.97814
G1 X23.994 Y59.103 E47.02395
G1 X23.346 Y59.455 E47.06902
G1 X22.691 Y59.798 E47.11421
G1 X22.024 Y60.136 E47.15991
G1 X21.376 Y60.452 E47.20397
G1 X20.707 Y60.765 E47.24911
G1 X20.034 Y61.068 E47.29422
G1 X19.422 Y61.333 E47.33498
G1 X19.353 Y61.365 E47.33962
G1 X18.665 Y61.65 E47.38514
G1 X17.975 Y61.925 E47.43053
G1 X17.314 Y62.175 E47.47372
G1 X16.622 Y62.428 E47.51875
G1 X15.9 Y62.68 E47.56549
G1 X15.209 Y62.907 E47.60994
G1 X14.503 Y63.131 E47.65521
G1 X13.801 Y63.34 E47.69997
G1 X13.084 Y63.542 E47.7455
G1 X12.367 Y63.732 E47.79083
G1 X11.667 Y63.906 E47.83491
G1 X10.934 Y64.079 E47.88094
G1 X10.229 Y64.232 E47.92503
G1 X9.503 Y64.38 E47.97031
G1 X8.788 Y64.514 E48.01477
G1 X8.038 Y64.644 E48.06129
G1 X7.311 Y64.757 E48.10625
G1 X6.581 Y64.861 E48.15132
G1 X5.87 Y64.951 E48.19512
G1 X5.111 Y65.037 E48.2418
G1 X4.388 Y65.105 E48.28618
G1 X3.645 Y65.165 E48.33174
G1 X2.923 Y65.213 E48.37596
G1 X2.176 Y65.252 E48.42168
G1 X1.438 Y65.279 E48.46681
G1 X0.699 Y65.295 E48.51199
G1 X-0.052 Y65.3 E48.55789
G1 X-.79 Y65.294 E48.60299
G1 X-1.509 Y65.277 E48.64694
G1 X-2.245 Y65.249 E48.69196
G1 X-2.992 Y65.21 E48.73767
G1 X-3.715 Y65.16 E48.78197
G1 X-4.461 Y65.099 E48.82771
G1 X-5.207 Y65.025 E48.87353
G1 X-5.93 Y64.943 E48.918
G1 X-6.649 Y64.851 E48.9623
G1 X-7.388 Y64.746 E49.00791
G1 X-8.14 Y64.626 E49.05445
G1 X-8.86 Y64.501 E49.09912
G1 X-9.59 Y64.363 E49.14452
G1 X-10.294 Y64.218 E49.18845
G1 X-10.995 Y64.064 E49.23231
G1 X-11.736 Y63.892 E49.2788
G1 X-12.466 Y63.707 E49.32483
G1 X-13.15 Y63.523 E49.36812
G1 X-13.87 Y63.32 E49.41383
G1 X-14.577 Y63.108 E49.45894
G1 X-15.28 Y62.885 E49.50402
G1 X-15.975 Y62.653 E49.5488
G1 X-16.678 Y62.408 E49.5943
G1 X-17.361 Y62.158 E49.63875
G1 X-18.063 Y61.892 E49.68463
G1 X-18.749 Y61.617 E49.72979
G1 X-19.435 Y61.33 E49.77524
G1 X-20.093 Y61.042 E49.81914
G1 X-20.769 Y60.737 E49.86446
G1 X-21.439 Y60.422 E49.90971
G1 X-22.12 Y60.09 E49.95601
G1 X-22.761 Y59.764 E49.99996
G1 X-23.418 Y59.417 E50.04537
G1 X-24.059 Y59.066 E50.09004
G1 X-24.714 Y58.697 E50.13598
G1 X-25.353 Y58.321 E50.18129
G1 X-25.972 Y57.947 E50.22549
G1 X-26.613 Y57.546 E50.2717
G1 X-27.205 Y57.162 E50.31483
G1 X-27.763 Y56.792 E50.35575
G1 X-28.449 Y56.32 E50.40664
G1 X-29.043 Y55.897 E50.4512
G1 X-29.634 Y55.462 E50.49605
G1 X-30.232 Y55.01 E50.54186
G1 X-30.829 Y54.541 E50.58826
G1 X-31.362 Y54.109 E50.63019
G1 X-31.953 Y53.622 E50.677
G1 X-32.504 Y53.149 E50.72138
G1 X-33.033 Y52.682 E50.7645
G1 X-45.589 Y41.452 E51.79401
G1 X-46.334 Y40.762 E51.85607
G1 X-46.967 Y40.144 E51.91014
G1 X-47.064 Y40.046 E51.91857
G1 X-47.679 Y39.408 E51.97272
G1 X-48.365 Y38.655 E52.03498
G1 X-48.454 Y38.554 E52.04321
G1 X-49.112 Y37.783 E52.10515
G1 X-49.666 Y37.097 E52.15904
G1 X-49.753 Y36.985 E52.16771
G1 X-50.353 Y36.19 E52.22858
G1 X-50.961 Y35.336 E52.29265
G1 X-51.45 Y34.607 E52.3463
G1 X-51.527 Y34.488 E52.35496
G1 X-52.002 Y33.73 E52.40963
G1 X-52.067 Y33.623 E52.41728
G1 X-52.508 Y32.874 E52.4704
G1 X-53.005 Y31.971 E52.5334
G1 X-53.069 Y31.851 E52.54171
G1 X-53.472 Y31.061 E52.59591
G1 X-53.528 Y30.947 E52.60367
G1 X-53.906 Y30.152 E52.65747
G1 X-53.97 Y30.013 E52.66682
G1 X-54.324 Y29.199 E52.72107
G1 X-54.702 Y28.268 E52.78248
G1 X-54.75 Y28.144 E52.79061
G1 X-55.058 Y27.314 E52.84471
G1 X-55.107 Y27.173 E52.85384
G1 X-55.39 Y26.326 E52.90841
G1 X-55.675 Y25.398 E52.96774
G1 X-55.716 Y25.258 E52.97666
G1 X-55.957 Y24.368 E53.03301
G1 X-55.989 Y24.243 E53.0409
G1 X-56.193 Y23.395 E53.0942
G1 X-56.406 Y22.386 E53.15722
G1 X-56.432 Y22.254 E53.16545
G1 X-56.585 Y21.399 E53.21853
G1 X-56.607 Y21.261 E53.22707
G1 X-56.755 Y20.25 E53.28952
G1 X-56.859 Y19.37 E53.34367
G1 X-56.95 Y18.356 E53.40589
G1 X-56.96 Y18.228 E53.41374
G1 X-57.013 Y17.346 E53.46774
G1 X-57.019 Y17.207 E53.47624
G1 X-57.047 Y16.22 E53.53659
G1 X-57.05 Y15.783 E53.5633
G0 F3600 X-56.35 Y15.778
G1 F1200 X-56.35 Y-60.545 E58.22782
G1 X-56.31 Y-61.098 E58.2617
G1 X-56.191 Y-61.64 E58.29561
G1 X-55.995 Y-62.159 E58.32952
G1 X-55.727 Y-62.644 E58.36339
G1 X-55.222 Y-63.267 E58.4124
G1 X-55.017 Y-63.472 E58.43012
G1 X-54.598 Y-63.835 E58.464
G1 X-54.131 Y-64.134 E58.49789
G1 X-53.625 Y-64.363 E58.53183
G1 X-53.093 Y-64.516 E58.56566
G1 X-52.295 Y-64.6 E58.6147
G1 X52.295 Y-64.6 E65.00677
G1 X52.848 Y-64.56 E65.04066
G1 X53.39 Y-64.441 E65.07457
G1 X53.909 Y-64.245 E65.10848
G1 X54.394 Y-63.977 E65.14234
G1 X55.017 Y-63.472 E65.19135
G1 X55.222 Y-63.267 E65.20907
G1 X55.585 Y-62.848 E65.24295
G1 X55.884 Y-62.381 E65.27684
G1 X56.113 Y-61.875 E65.31079
G1 X56.266 Y-61.343 E65.34462
G1 X56.35 Y-60.545 E65.39366
G1 X56.35 Y15.809 E70.06007
G1 X56.337 Y16.692 E70.11404
G1 X56.293 Y17.699 E70.17564
G1 X56.287 Y17.81 E70.18244
G1 X56.222 Y18.692 E70.23649
G1 X56.12 Y19.682 E70.29731
G1 X56.107 Y19.793 E70.30414
G1 X55.99 Y20.671 E70.35828
G1 X55.973 Y20.786 E70.36538
G1 X55.808 Y21.781 E70.42702
G1 X55.641 Y22.639 E70.48044
G1 X55.426 Y23.606 E70.54098
G1 X55.396 Y23.73 E70.54878
G1 X55.142 Y24.707 E70.61048
G1 X54.867 Y25.66 E70.67109
G1 X54.597 Y26.503 E70.72519
G1 X54.265 Y27.442 E70.78606
G1 X53.913 Y28.36 E70.84615
G1 X53.868 Y28.472 E70.85353
G1 X53.524 Y29.289 E70.9077
G1 X53.478 Y29.394 E70.91471
G1 X53.062 Y30.302 E70.97575
G1 X52.671 Y31.096 E71.02984
G1 X52.21 Y31.972 E71.09034
G1 X52.15 Y32.081 E71.09794
G1 X51.652 Y32.953 E71.15931
G1 X51.132 Y33.805 E71.22031
G1 X50.652 Y34.544 E71.27417
G1 X50.084 Y35.368 E71.33533
G1 X50.017 Y35.463 E71.34244
G1 X49.488 Y36.181 E71.39694
G1 X48.889 Y36.951 E71.45657
G1 X48.811 Y37.048 E71.46417
