;FLAVOR:Marlin
;TIME:3431
;Filament used: 6.96184m
;Layer height: 0.3
;MINX:-33.748
;MINY:-23.75
;MINZ:0.2
;MAXX:33.748
;MAXY:19.165
;MAXZ:22.1
;Generated with Cura_SteamEngine 4.13.1
M140 S70
M105
M190 S70
M104 S205
M105
M109 S205
M82 ;absolute extrusion mode
G28 ;Home
G1 Z15.0 F6000 ;Move the platform down 15mm
;Prime the extruder
G92 E0
G1 F200 E3
G92 E0
G92 E0
G92 E0
G1 F4200 E-4.1
;LAYER_COUNT:74
;LAYER:0
M107
G1 F600 Z0.4
G0 F3600 X12.499 Y18.75 Z0.4
;TYPE:SKIRT
G1 F600 Z0.2
G1 F4200 E0
G1 F1200 X-12.592 Y18.749 E1.53345
G1 X-13.155 Y18.739 E1.56786
G1 X-13.346 Y18.732 E1.57954
G1 X-13.918 Y18.701 E1.61455
G1 X-14.088 Y18.689 E1.62497
G1 X-14.653 Y18.64 E1.65963
G1 X-14.854 Y18.619 E1.67198
G1 X-15.403 Y18.55 E1.7058
G1 X-15.577 Y18.525 E1.71654
G1 X-16.146 Y18.434 E1.75176
G1 X-16.33 Y18.401 E1.76318
G1 X-16.874 Y18.294 E1.79706
G1 X-17.057 Y18.255 E1.8085
G1 X-17.604 Y18.127 E1.84283
G1 X-17.777 Y18.083 E1.85374
G1 X-18.336 Y17.932 E1.88913
G1 X-18.533 Y17.875 E1.90166
G1 X-19.08 Y17.704 E1.93669
G1 X-19.239 Y17.651 E1.94693
G1 X-19.765 Y17.468 E1.98097
G1 X-19.941 Y17.404 E1.99241
G1 X-20.456 Y17.204 E2.02618
G1 X-20.631 Y17.132 E2.03774
G1 X-21.163 Y16.903 E2.07314
G1 X-21.33 Y16.828 E2.08433
G1 X-21.838 Y16.588 E2.11867
G1 X-22 Y16.508 E2.12971
G1 X-22.491 Y16.255 E2.16347
G1 X-22.671 Y16.157 E2.17599
G1 X-23.173 Y15.873 E2.21124
G1 X-23.314 Y15.791 E2.22121
G1 X-23.798 Y15.497 E2.25582
G1 X-23.958 Y15.395 E2.26742
G1 X-24.429 Y15.085 E2.30188
G1 X-24.578 Y14.984 E2.31288
G1 X-25.031 Y14.663 E2.34681
G1 X-25.203 Y14.536 E2.35988
G1 X-25.658 Y14.185 E2.395
G1 X-26.206 Y13.738 E2.43822
G1 X-26.352 Y13.615 E2.44988
G1 X-26.777 Y13.24 E2.48452
G1 X-26.923 Y13.106 E2.49663
G1 X-27.339 Y12.71 E2.53174
G1 X-27.464 Y12.586 E2.5425
G1 X-27.852 Y12.191 E2.57634
G1 X-27.981 Y12.055 E2.58779
G1 X-28.367 Y11.633 E2.62274
G1 X-28.508 Y11.475 E2.63569
G1 X-28.973 Y10.923 E2.6798
G1 X-29.317 Y10.49 E2.71359
G1 X-29.435 Y10.335 E2.7255
G1 X-29.777 Y9.87 E2.76078
G1 X-29.88 Y9.725 E2.77165
G1 X-30.199 Y9.259 E2.80616
G1 X-30.307 Y9.095 E2.81816
G1 X-30.608 Y8.618 E2.85263
G1 X-30.696 Y8.473 E2.863
G1 X-30.983 Y7.984 E2.89765
G1 X-31.084 Y7.803 E2.91032
G1 X-31.345 Y7.315 E2.94414
G1 X-31.417 Y7.176 E2.95371
G1 X-31.673 Y6.661 E2.98886
G1 X-31.759 Y6.48 E3.0011
G1 X-31.991 Y5.965 E3.03562
G1 X-32.065 Y5.792 E3.04712
G1 X-32.278 Y5.27 E3.08158
G1 X-32.343 Y5.103 E3.09253
G1 X-32.534 Y4.585 E3.12627
G1 X-32.598 Y4.402 E3.13812
G1 X-32.778 Y3.852 E3.17349
G1 X-32.827 Y3.691 E3.18378
G1 X-32.985 Y3.15 E3.21822
G1 X-33.039 Y2.954 E3.23065
G1 X-33.176 Y2.407 E3.26511
G1 X-33.217 Y2.227 E3.27639
G1 X-33.335 Y1.674 E3.31095
G1 X-33.369 Y1.5 E3.32178
G1 X-33.466 Y0.956 E3.35555
G1 X-33.496 Y0.771 E3.36701
G1 X-33.577 Y0.2 E3.40225
G1 X-33.599 Y0.019 E3.4134
G1 X-33.659 Y-.544 E3.448
G1 X-33.676 Y-.729 E3.45936
G1 X-33.715 Y-1.28 E3.49311
G1 X-33.725 Y-1.463 E3.50431
G1 X-33.745 Y-2.021 E3.53844
G1 X-33.748 Y-2.209 E3.54993
G1 X-33.748 Y-2.778 E3.58471
G1 X-33.745 Y-2.968 E3.59632
G1 X-33.724 Y-3.548 E3.63179
G1 X-33.714 Y-3.73 E3.64293
G1 X-33.675 Y-4.279 E3.67657
G1 X-33.658 Y-4.464 E3.68792
G1 X-33.598 Y-5.026 E3.72246
G1 X-33.577 Y-5.196 E3.73293
G1 X-33.497 Y-5.768 E3.76823
G1 X-33.464 Y-5.975 E3.78104
G1 X-33.366 Y-6.517 E3.8147
G1 X-33.335 Y-6.677 E3.82466
G1 X-33.217 Y-7.231 E3.85928
G1 X-33.173 Y-7.419 E3.87108
G1 X-33.035 Y-7.967 E3.90562
G1 X-32.982 Y-8.163 E3.91802
G1 X-32.823 Y-8.705 E3.95255
G1 X-32.776 Y-8.857 E3.96227
G1 X-32.597 Y-9.405 E3.9975
G1 X-32.531 Y-9.594 E4.00974
G1 X-32.34 Y-10.111 E4.04342
G1 X-32.275 Y-10.277 E4.05432
G1 X-32.061 Y-10.801 E4.08891
G1 X-31.986 Y-10.976 E4.10054
G1 X-31.754 Y-11.49 E4.13501
G1 X-31.67 Y-11.667 E4.14698
G1 X-31.414 Y-12.182 E4.18213
G1 X-31.342 Y-12.321 E4.1917
G1 X-31.081 Y-12.809 E4.22552
G1 X-30.977 Y-12.994 E4.23849
G1 X-30.605 Y-13.623 E4.28315
G1 X-30.304 Y-14.1 E4.31762
G1 X-30.196 Y-14.264 E4.32962
G1 X-29.877 Y-14.73 E4.36414
G1 X-29.77 Y-14.88 E4.3754
G1 X-29.427 Y-15.345 E4.41071
G1 X-29.314 Y-15.494 E4.42214
G1 X-28.971 Y-15.926 E4.45585
G1 X-28.866 Y-16.053 E4.46592
G1 X-28.507 Y-16.477 E4.49988
G1 X-27.97 Y-17.066 E4.54859
G1 X-27.852 Y-17.19 E4.55905
G1 X-27.465 Y-17.585 E4.59285
G1 X-27.331 Y-17.717 E4.60434
G1 X-26.912 Y-18.115 E4.63966
G1 X-26.77 Y-18.246 E4.65147
G1 X-26.345 Y-18.621 E4.68611
G1 X-26.202 Y-18.742 E4.69756
G1 X-25.778 Y-19.09 E4.73108
G1 X-25.648 Y-19.194 E4.74125
G1 X-25.189 Y-19.547 E4.77664
G1 X-25.022 Y-19.669 E4.78928
G1 X-24.573 Y-19.987 E4.82291
G1 X-24.421 Y-20.091 E4.83416
G1 X-23.949 Y-20.401 E4.86868
G1 X-23.802 Y-20.494 E4.87931
G1 X-23.317 Y-20.79 E4.91403
G1 X-23.153 Y-20.886 E4.92565
G1 X-22.651 Y-21.168 E4.96084
G1 X-22.485 Y-21.258 E4.97238
G1 X-21.994 Y-21.511 E5.00613
G1 X-21.824 Y-21.594 E5.01769
G1 X-21.314 Y-21.834 E5.05214
G1 X-21.157 Y-21.905 E5.06267
G1 X-20.628 Y-22.133 E5.09788
G1 X-20.447 Y-22.207 E5.10983
G1 X-19.931 Y-22.407 E5.14365
G1 X-19.768 Y-22.468 E5.15429
G1 X-19.222 Y-22.659 E5.18964
G1 X-19.028 Y-22.722 E5.2021
G1 X-18.5 Y-22.884 E5.23586
G1 X-18.336 Y-22.932 E5.2463
G1 X-17.802 Y-23.077 E5.28012
G1 X-17.629 Y-23.12 E5.29101
G1 X-17.064 Y-23.253 E5.32649
G1 X-16.864 Y-23.296 E5.33899
G1 X-16.314 Y-23.403 E5.37323
G1 X-16.158 Y-23.431 E5.38292
G1 X-15.589 Y-23.524 E5.41816
G1 X-15.371 Y-23.555 E5.43161
G1 X-14.824 Y-23.621 E5.46529
G1 X-14.658 Y-23.639 E5.47549
G1 X-14.093 Y-23.689 E5.51016
G1 X-13.913 Y-23.701 E5.52118
G1 X-13.338 Y-23.732 E5.55637
G1 X-13.14 Y-23.739 E5.56848
G1 X-12.5 Y-23.749 E5.6076
G1 X12.499 Y-23.75 E7.13543
G1 X13.155 Y-23.739 E7.17553
G1 X13.346 Y-23.732 E7.18721
G1 X13.918 Y-23.701 E7.22222
G1 X14.091 Y-23.689 E7.23281
G1 X14.652 Y-23.64 E7.26723
G1 X14.845 Y-23.62 E7.27909
G1 X15.398 Y-23.551 E7.31315
G1 X15.577 Y-23.525 E7.3242
G1 X16.146 Y-23.434 E7.35942
G1 X16.332 Y-23.401 E7.37096
G1 X16.875 Y-23.294 E7.40479
G1 X17.052 Y-23.256 E7.41585
G1 X17.601 Y-23.128 E7.4503
G1 X17.78 Y-23.083 E7.46158
G1 X18.338 Y-22.932 E7.49691
G1 X18.533 Y-22.875 E7.50933
G1 X19.08 Y-22.704 E7.54435
G1 X19.239 Y-22.651 E7.5546
G1 X19.765 Y-22.468 E7.58863
G1 X19.941 Y-22.404 E7.60008
G1 X20.456 Y-22.204 E7.63384
G1 X20.63 Y-22.133 E7.64533
G1 X21.16 Y-21.905 E7.68059
G1 X21.328 Y-21.829 E7.69186
G1 X21.838 Y-21.588 E7.72633
G1 X22 Y-21.508 E7.73738
G1 X22.491 Y-21.255 E7.77113
G1 X22.671 Y-21.157 E7.78366
G1 X23.173 Y-20.873 E7.81891
G1 X23.314 Y-20.791 E7.82888
G1 X23.798 Y-20.497 E7.86349
G1 X23.958 Y-20.395 E7.87508
G1 X24.429 Y-20.085 E7.90954
G1 X24.578 Y-19.984 E7.92054
G1 X25.031 Y-19.663 E7.95448
G1 X25.203 Y-19.536 E7.96754
G1 X25.658 Y-19.185 E8.00266
G1 X26.204 Y-18.74 E8.04571
G1 X26.351 Y-18.616 E8.05746
G1 X26.776 Y-18.241 E8.0921
G1 X26.92 Y-18.108 E8.10408
G1 X27.328 Y-17.72 E8.13849
G1 X27.455 Y-17.596 E8.14934
G1 X27.852 Y-17.192 E8.18396
G1 X27.978 Y-17.058 E8.1952
G1 X28.36 Y-16.641 E8.22976
G1 X28.485 Y-16.5 E8.24128
G1 X28.859 Y-16.061 E8.27652
G1 X28.975 Y-15.921 E8.28764
G1 X29.318 Y-15.489 E8.32135
G1 X29.438 Y-15.331 E8.33347
G1 X29.772 Y-14.876 E8.36797
G1 X29.867 Y-14.742 E8.37801
G1 X30.194 Y-14.266 E8.4133
G1 X30.306 Y-14.097 E8.42569
G1 X30.601 Y-13.63 E8.45945
G1 X30.974 Y-12.999 E8.50425
G1 X31.078 Y-12.815 E8.51717
G1 X31.344 Y-12.318 E8.55162
G1 X31.416 Y-12.178 E8.56124
G1 X31.673 Y-11.661 E8.59652
G1 X31.759 Y-11.48 E8.60877
G1 X31.986 Y-10.976 E8.64255
G1 X32.06 Y-10.804 E8.654
G1 X32.278 Y-10.27 E8.68925
G1 X32.344 Y-10.099 E8.70045
G1 X32.535 Y-9.58 E8.73425
G1 X32.596 Y-9.405 E8.74557
G1 X32.775 Y-8.86 E8.78063
G1 X32.826 Y-8.695 E8.79119
G1 X32.985 Y-8.151 E8.82582
G1 X33.039 Y-7.954 E8.83831
G1 X33.173 Y-7.419 E8.87202
G1 X33.213 Y-7.247 E8.88281
G1 X33.332 Y-6.694 E8.91738
G1 X33.368 Y-6.51 E8.92884
G1 X33.467 Y-5.954 E8.96335
G1 X33.496 Y-5.771 E8.97468
G1 X33.577 Y-5.2 E9.00992
G1 X33.599 Y-5.024 E9.02076
G1 X33.658 Y-4.475 E9.05451
G1 X33.675 Y-4.287 E9.06604
G1 X33.715 Y-3.725 E9.10048
G1 X33.725 Y-3.539 E9.11186
G1 X33.745 Y-2.978 E9.14617
G1 X33.748 Y-2.791 E9.1576
G1 X33.748 Y-2.222 E9.19237
G1 X33.745 Y-2.032 E9.20399
G1 X33.724 Y-1.452 E9.23946
G1 X33.714 Y-1.27 E9.2506
G1 X33.675 Y-.721 E9.28423
G1 X33.658 Y-.536 E9.29559
G1 X33.598 Y0.026 E9.33013
G1 X33.577 Y0.196 E9.3406
G1 X33.497 Y0.768 E9.3759
G1 X33.464 Y0.975 E9.38871
G1 X33.366 Y1.517 E9.42237
G1 X33.335 Y1.677 E9.43233
G1 X33.217 Y2.231 E9.46695
G1 X33.173 Y2.419 E9.47875
G1 X33.035 Y2.967 E9.51328
G1 X32.983 Y3.159 E9.52544
G1 X32.825 Y3.699 E9.55983
G1 X32.776 Y3.858 E9.57
G1 X32.596 Y4.408 E9.60536
G1 X32.531 Y4.594 E9.61741
G1 X32.34 Y5.111 E9.65109
G1 X32.275 Y5.277 E9.66198
G1 X32.061 Y5.801 E9.69658
G1 X31.986 Y5.976 E9.70821
G1 X31.754 Y6.49 E9.74268
G1 X31.67 Y6.667 E9.75465
G1 X31.414 Y7.182 E9.7898
G1 X31.344 Y7.318 E9.79915
G1 X31.084 Y7.805 E9.83289
G1 X30.977 Y7.996 E9.84627
G1 X30.689 Y8.485 E9.88095
G1 X30.605 Y8.623 E9.89082
G1 X30.304 Y9.1 E9.9253
G1 X30.196 Y9.264 E9.9373
G1 X29.877 Y9.73 E9.97181
G1 X29.77 Y9.88 E9.98307
G1 X29.427 Y10.345 E10.01838
G1 X29.314 Y10.494 E10.02981
G1 X28.971 Y10.926 E10.06353
G1 X28.866 Y11.053 E10.0736
G1 X28.507 Y11.477 E10.10755
G1 X27.97 Y12.066 E10.15626
G1 X27.852 Y12.19 E10.16672
G1 X27.465 Y12.585 E10.20052
G1 X27.33 Y12.718 E10.2121
G1 X26.912 Y13.115 E10.24733
G1 X26.771 Y13.244 E10.25901
G1 X26.345 Y13.62 E10.29374
G1 X26.198 Y13.745 E10.30553
G1 X25.65 Y14.192 E10.34875
G1 X25.201 Y14.538 E10.3834
G1 X25.032 Y14.662 E10.39621
G1 X24.575 Y14.986 E10.43044
G1 X24.421 Y15.091 E10.44183
G1 X23.949 Y15.401 E10.47635
G1 X23.798 Y15.497 E10.48728
G1 X23.312 Y15.793 E10.52206
G1 X23.156 Y15.884 E10.5331
G1 X22.655 Y16.166 E10.56823
G1 X22.485 Y16.258 E10.58005
G1 X21.994 Y16.511 E10.6138
G1 X21.824 Y16.594 E10.62537
G1 X21.314 Y16.834 E10.65981
G1 X21.157 Y16.905 E10.67034
G1 X20.628 Y17.133 E10.70555
G1 X20.447 Y17.207 E10.7175
G1 X19.931 Y17.407 E10.75132
G1 X19.768 Y17.468 E10.76196
G1 X19.222 Y17.659 E10.79731
G1 X19.025 Y17.723 E10.80997
G1 X18.496 Y17.885 E10.84378
G1 X18.337 Y17.931 E10.8539
G1 X17.804 Y18.076 E10.88765
G1 X17.629 Y18.12 E10.89868
G1 X17.064 Y18.253 E10.93416
G1 X16.864 Y18.296 E10.94666
G1 X16.314 Y18.403 E10.9809
G1 X16.158 Y18.431 E10.99059
G1 X15.589 Y18.524 E11.02583
G1 X15.371 Y18.555 E11.03928
G1 X14.824 Y18.621 E11.07296
G1 X14.658 Y18.639 E11.08316
G1 X14.093 Y18.689 E11.11783
G1 X13.913 Y18.701 E11.12885
G1 X13.338 Y18.732 E11.16404
G1 X13.149 Y18.739 E11.1756
G1 X12.499 Y18.75 E11.21533
G0 F3600 X12.499 Y18.05
G1 F1200 X-12.58 Y18.049 E12.74805
G1 X-13.143 Y18.039 E12.78246
G1 X-13.308 Y18.033 E12.79255
G1 X-13.88 Y18.002 E12.82756
G1 X-14.027 Y17.992 E12.83657
G1 X-14.592 Y17.943 E12.87123
G1 X-14.766 Y17.924 E12.88192
G1 X-15.315 Y17.855 E12.91574
G1 X-15.467 Y17.834 E12.92512
G1 X-16.036 Y17.743 E12.96033
G1 X-16.195 Y17.714 E12.97021
G1 X-16.739 Y17.607 E13.0041
G1 X-16.898 Y17.573 E13.01403
G1 X-17.445 Y17.445 E13.04837
G1 X-17.595 Y17.408 E13.05781
G1 X-18.154 Y17.257 E13.0932
G1 X-18.325 Y17.207 E13.10408
G1 X-18.872 Y17.036 E13.13911
G1 X-19.535 Y16.807 E13.18198
G1 X-19.687 Y16.751 E13.19188
G1 X-20.202 Y16.551 E13.22564
G1 X-20.354 Y16.489 E13.23568
G1 X-20.886 Y16.26 E13.27107
G1 X-21.031 Y16.195 E13.28079
G1 X-21.539 Y15.955 E13.31512
G1 X-21.679 Y15.886 E13.32466
G1 X-22.17 Y15.633 E13.35842
G1 X-22.326 Y15.548 E13.36928
G1 X-22.95 Y15.193 E13.41315
G1 X-23.434 Y14.899 E13.44776
G1 X-23.573 Y14.811 E13.45782
G1 X-24.044 Y14.501 E13.49228
G1 X-24.174 Y14.412 E13.5019
G1 X-24.627 Y14.091 E13.53584
G1 X-24.775 Y13.982 E13.54707
G1 X-25.23 Y13.631 E13.58219
G1 X-25.762 Y13.197 E13.62415
G1 X-25.888 Y13.09 E13.63425
G1 X-26.313 Y12.715 E13.66889
G1 X-26.44 Y12.599 E13.6794
G1 X-26.856 Y12.203 E13.71451
G1 X-26.965 Y12.095 E13.72388
G1 X-27.353 Y11.7 E13.75772
G1 X-27.464 Y11.583 E13.76758
G1 X-27.85 Y11.161 E13.80253
G1 X-27.974 Y11.023 E13.81387
G1 X-28.336 Y10.595 E13.84813
G1 X-28.425 Y10.487 E13.85668
G1 X-28.769 Y10.054 E13.89048
G1 X-28.871 Y9.92 E13.90077
G1 X-29.213 Y9.455 E13.93605
G1 X-29.303 Y9.329 E13.94551
G1 X-29.622 Y8.863 E13.98003
G1 X-29.715 Y8.721 E13.9904
G1 X-30.016 Y8.244 E14.02487
G1 X-30.092 Y8.119 E14.03381
G1 X-30.379 Y7.63 E14.06846
G1 X-30.467 Y7.473 E14.07946
G1 X-30.728 Y6.985 E14.11329
G1 X-31.046 Y6.349 E14.15674
G1 X-31.12 Y6.193 E14.16729
G1 X-31.352 Y5.678 E14.20182
G1 X-31.417 Y5.528 E14.21181
G1 X-31.63 Y5.006 E14.24626
G1 X-31.686 Y4.861 E14.25576
G1 X-31.877 Y4.343 E14.2895
G1 X-31.932 Y4.184 E14.29979
G1 X-32.156 Y3.495 E14.34406
G1 X-32.314 Y2.954 E14.37851
G1 X-32.36 Y2.783 E14.38933
G1 X-32.497 Y2.236 E14.42379
G1 X-32.533 Y2.081 E14.43352
G1 X-32.651 Y1.528 E14.46808
G1 X-32.68 Y1.377 E14.47747
G1 X-32.777 Y0.833 E14.51124
G1 X-32.803 Y0.673 E14.52115
G1 X-32.884 Y0.102 E14.5564
G1 X-32.903 Y-0.055 E14.56606
G1 X-32.963 Y-.618 E14.60067
G1 X-32.978 Y-.779 E14.61055
G1 X-33.017 Y-1.33 E14.64431
G1 X-33.025 Y-1.488 E14.65398
G1 X-33.045 Y-2.046 E14.6881
G1 X-33.048 Y-2.209 E14.69806
G1 X-33.048 Y-2.778 E14.73284
G1 X-33.045 Y-2.943 E14.74292
G1 X-33.024 Y-3.523 E14.77839
G1 X-33.016 Y-3.68 E14.788
G1 X-32.977 Y-4.229 E14.82164
G1 X-32.962 Y-4.39 E14.83152
G1 X-32.902 Y-4.952 E14.86606
G1 X-32.884 Y-5.099 E14.87511
G1 X-32.804 Y-5.671 E14.91041
G1 X-32.775 Y-5.851 E14.92156
G1 X-32.677 Y-6.393 E14.95522
G1 X-32.65 Y-6.531 E14.96381
G1 X-32.532 Y-7.085 E14.99843
G1 X-32.494 Y-7.248 E15.00866
G1 X-32.356 Y-7.796 E15.04319
G1 X-32.31 Y-7.966 E15.05396
G1 X-32.151 Y-8.508 E15.08848
G1 X-32.11 Y-8.64 E15.09693
G1 X-31.931 Y-9.188 E15.13216
G1 X-31.874 Y-9.352 E15.14277
G1 X-31.683 Y-9.869 E15.17645
G1 X-31.627 Y-10.012 E15.18584
G1 X-31.413 Y-10.536 E15.22043
G1 X-31.348 Y-10.688 E15.23053
G1 X-31.116 Y-11.202 E15.265
G1 X-31.043 Y-11.355 E15.27536
G1 X-30.725 Y-11.991 E15.31882
G1 X-30.464 Y-12.479 E15.35264
G1 X-30.374 Y-12.64 E15.36391
G1 X-30.087 Y-13.128 E15.39851
G1 X-30.013 Y-13.249 E15.40718
G1 X-29.712 Y-13.726 E15.44165
G1 X-29.619 Y-13.868 E15.45202
G1 X-29.3 Y-14.334 E15.48654
G1 X-29.207 Y-14.465 E15.49636
G1 X-28.864 Y-14.93 E15.53167
G1 X-28.765 Y-15.058 E15.54156
G1 X-28.422 Y-15.49 E15.57527
G1 X-28.331 Y-15.601 E15.58404
G1 X-27.972 Y-16.025 E15.618
G1 X-27.454 Y-16.593 E15.66498
G1 X-27.352 Y-16.7 E15.67401
G1 X-26.965 Y-17.095 E15.70781
G1 X-26.849 Y-17.21 E15.71779
G1 X-26.43 Y-17.608 E15.75311
G1 X-26.306 Y-17.721 E15.76336
G1 X-25.881 Y-18.096 E15.798
G1 X-25.758 Y-18.201 E15.80789
G1 X-25.334 Y-18.549 E15.84141
G1 X-25.221 Y-18.639 E15.85024
G1 X-24.762 Y-18.992 E15.88563
G1 X-24.618 Y-19.098 E15.89656
G1 X-24.169 Y-19.416 E15.93018
G1 X-24.037 Y-19.506 E15.93995
G1 X-23.565 Y-19.816 E15.97446
G1 X-23.437 Y-19.897 E15.98372
G1 X-22.952 Y-20.193 E16.01844
G1 X-22.81 Y-20.276 E16.02849
G1 X-22.308 Y-20.558 E16.06368
G1 X-22.164 Y-20.636 E16.07369
G1 X-21.673 Y-20.889 E16.10745
G1 X-21.526 Y-20.961 E16.11745
G1 X-21.016 Y-21.201 E16.1519
G1 X-20.88 Y-21.262 E16.16101
G1 X-20.351 Y-21.49 E16.19621
G1 X-20.194 Y-21.554 E16.20658
G1 X-19.678 Y-21.754 E16.2404
G1 X-19.536 Y-21.807 E16.24966
G1 X-18.99 Y-21.998 E16.28501
G1 X-18.823 Y-22.053 E16.29576
G1 X-18.295 Y-22.215 E16.32951
G1 X-18.152 Y-22.256 E16.3386
G1 X-17.618 Y-22.401 E16.37242
G1 X-17.469 Y-22.439 E16.38182
G1 X-16.904 Y-22.572 E16.41729
G1 X-16.73 Y-22.609 E16.42816
G1 X-16.18 Y-22.716 E16.46241
G1 X-16.045 Y-22.74 E16.47079
G1 X-15.476 Y-22.833 E16.50602
G1 X-15.287 Y-22.86 E16.51769
G1 X-14.74 Y-22.926 E16.55137
G1 X-14.596 Y-22.941 E16.56021
G1 X-14.031 Y-22.991 E16.59488
