;FLAVOR:Marlin
;TIME:7899
;Filament used: 16.6023m
;Layer height: 0.3
;MINX:-58.25
;MINY:-20.25
;MINZ:0.2
;MAXX:58.25
;MAXY:20.25
;MAXZ:52.1
;Generated with Cura_SteamEngine 4.13.1
M140 S70
M105
M190 S70
M104 S205
M105
M109 S205
M82 ;absolute extrusion mode
G28 ;Home
G1 Z15.0 F6000 ;Move the platform down 15mm
;Prime the extruder
G92 E0
G1 F200 E3
G92 E0
G92 E0
G92 E0
G1 F4200 E-4.1
;LAYER_COUNT:174
;LAYER:0
M107
G1 F600 Z0.4
G0 F3600 X50.996 Y20.25 Z0.4
;TYPE:SKIRT
G1 F600 Z0.2
G1 F4200 E0
G1 F1200 X-50.998 Y20.25 E6.23341
G1 X-51.767 Y20.195 E6.28053
G1 X-52.305 Y20.118 E6.31375
G1 X-53.127 Y19.932 E6.36525
G1 X-53.175 Y19.917 E6.36833
G1 X-53.883 Y19.638 E6.41484
G1 X-54.372 Y19.403 E6.44799
G1 X-55.035 Y19.022 E6.49473
G1 X-55.075 Y18.995 E6.49768
G1 X-55.689 Y18.51 E6.5455
G1 X-56.094 Y18.138 E6.5791
G1 X-56.643 Y17.552 E6.62818
G1 X-56.675 Y17.512 E6.63131
G1 X-57.099 Y16.896 E6.67701
G1 X-57.361 Y16.451 E6.70857
G1 X-57.663 Y15.855 E6.74941
G1 X-57.684 Y15.806 E6.75267
G1 X-57.949 Y15.018 E6.80348
G1 X-58.075 Y14.517 E6.83505
G1 X-58.181 Y13.979 E6.86856
G1 X-58.242 Y13.278 E6.91156
G1 X-58.25 Y12.997 E6.92874
G1 X-58.25 Y-12.993 E8.51714
G1 X-58.196 Y-13.752 E8.56364
G1 X-58.12 Y-14.29 E8.59685
G1 X-57.923 Y-15.152 E8.65089
G1 X-57.908 Y-15.199 E8.6539
G1 X-57.65 Y-15.853 E8.69687
G1 X-57.418 Y-16.342 E8.72995
G1 X-57.043 Y-17.004 E8.77645
G1 X-57.013 Y-17.049 E8.77975
G1 X-56.52 Y-17.68 E8.82869
G1 X-56.157 Y-18.077 E8.86157
G1 X-55.643 Y-18.567 E8.90497
G1 X-55.601 Y-18.602 E8.90831
G1 X-54.918 Y-19.085 E8.95943
G1 X-54.461 Y-19.356 E8.9919
G1 X-53.7 Y-19.728 E9.04367
G1 X-53.649 Y-19.748 E9.04702
G1 X-53.015 Y-19.951 E9.08771
G1 X-52.523 Y-20.075 E9.11871
G1 X-51.982 Y-20.181 E9.15241
G1 X-51.481 Y-20.232 E9.18318
G1 X-50.996 Y-20.25 E9.21284
G1 X50.998 Y-20.25 E15.44626
G1 X51.767 Y-20.195 E15.49338
G1 X52.305 Y-20.118 E15.52659
G1 X53.127 Y-19.932 E15.5781
G1 X53.175 Y-19.917 E15.58117
G1 X53.883 Y-19.638 E15.62768
G1 X54.37 Y-19.404 E15.6607
G1 X55.008 Y-19.04 E15.70559
G1 X55.05 Y-19.012 E15.70868
G1 X55.687 Y-18.513 E15.75813
G1 X56.086 Y-18.147 E15.79122
G1 X56.578 Y-17.629 E15.83488
G1 X56.612 Y-17.588 E15.83814
G1 X57.085 Y-16.917 E15.88831
G1 X57.351 Y-16.469 E15.92015
G1 X57.712 Y-15.739 E15.96993
G1 X57.732 Y-15.689 E15.97322
G1 X57.947 Y-15.027 E16.01576
G1 X58.074 Y-14.525 E16.0474
G1 X58.175 Y-14.023 E16.0787
G1 X58.18 Y-13.99 E16.08074
G1 X58.232 Y-13.483 E16.11188
G1 X58.25 Y-12.997 E16.14161
G1 X58.25 Y12.998 E17.7303
G1 X58.195 Y13.767 E17.77742
G1 X58.118 Y14.305 E17.81064
G1 X57.932 Y15.127 E17.86214
G1 X57.917 Y15.175 E17.86522
G1 X57.642 Y15.874 E17.91112
G1 X57.411 Y16.357 E17.94385
G1 X57.043 Y17.004 E17.98934
G1 X57.013 Y17.049 E17.99264
G1 X56.52 Y17.68 E18.04158
G1 X56.157 Y18.077 E18.07446
G1 X55.585 Y18.615 E18.12245
G1 X55.543 Y18.649 E18.12575
G1 X54.925 Y19.079 E18.17176
G1 X54.468 Y19.351 E18.20427
G1 X53.7 Y19.728 E18.25655
G1 X53.649 Y19.748 E18.2599
G1 X53.015 Y19.951 E18.30059
G1 X52.523 Y20.075 E18.33159
G1 X51.982 Y20.181 E18.36529
G1 X51.481 Y20.232 E18.39606
G1 X50.996 Y20.25 E18.42573
G0 F3600 X50.996 Y19.55
G1 F1200 X-50.998 Y19.55 E24.65914
G1 X-51.668 Y19.502 E24.70019
G1 X-52.206 Y19.425 E24.73341
G1 X-52.918 Y19.264 E24.77802
G1 X-52.966 Y19.249 E24.78109
G1 X-53.58 Y19.007 E24.82143
G1 X-54.069 Y18.772 E24.85458
G1 X-54.644 Y18.442 E24.8951
G1 X-54.684 Y18.415 E24.89805
G1 X-55.216 Y17.995 E24.93948
G1 X-55.621 Y17.623 E24.97308
G1 X-56.096 Y17.114 E25.01563
G1 X-56.128 Y17.074 E25.01876
G1 X-56.496 Y16.54 E25.0584
G1 X-56.758 Y16.095 E25.08996
G1 X-57.019 Y15.579 E25.1253
G1 X-57.04 Y15.53 E25.12856
G1 X-57.271 Y14.848 E25.17256
G1 X-57.397 Y14.347 E25.20414
G1 X-57.493 Y13.845 E25.23537
G1 X-57.543 Y13.241 E25.27241
G1 X-57.55 Y12.997 E25.28733
G1 X-57.55 Y-12.993 E26.87572
G1 X-57.503 Y-13.654 E26.91622
G1 X-57.427 Y-14.192 E26.94943
G1 X-57.257 Y-14.939 E26.99625
G1 X-57.242 Y-14.986 E26.99926
G1 X-57.018 Y-15.553 E27.03652
G1 X-56.786 Y-16.042 E27.0696
G1 X-56.461 Y-16.616 E27.10991
G1 X-56.431 Y-16.661 E27.11322
G1 X-56.003 Y-17.207 E27.15562
G1 X-55.64 Y-17.604 E27.1885
G1 X-55.195 Y-18.029 E27.2261
G1 X-55.153 Y-18.064 E27.22944
G1 X-54.561 Y-18.483 E27.27377
G1 X-54.104 Y-18.754 E27.30624
G1 X-53.444 Y-19.076 E27.35112
G1 X-53.393 Y-19.096 E27.35447
G1 X-52.844 Y-19.272 E27.3897
G1 X-52.352 Y-19.396 E27.42071
G1 X-51.848 Y-19.493 E27.45208
G1 X-51.235 Y-19.544 E27.48967
G1 X-50.996 Y-19.55 E27.50429
G1 X50.998 Y-19.55 E33.7377
G1 X51.668 Y-19.502 E33.77875
G1 X52.206 Y-19.425 E33.81197
G1 X52.918 Y-19.264 E33.85658
G1 X52.966 Y-19.249 E33.85965
G1 X53.58 Y-19.007 E33.89999
G1 X54.067 Y-18.773 E33.93301
G1 X54.62 Y-18.458 E33.9719
G1 X54.662 Y-18.43 E33.97499
G1 X55.214 Y-17.997 E34.01787
G1 X55.613 Y-17.631 E34.05096
G1 X56.039 Y-17.182 E34.08878
G1 X56.073 Y-17.141 E34.09204
G1 X56.483 Y-16.56 E34.1355
G1 X56.749 Y-16.112 E34.16734
G1 X57.062 Y-15.479 E34.2105
G1 X57.082 Y-15.429 E34.21379
G1 X57.268 Y-14.855 E34.25066
G1 X57.395 Y-14.353 E34.28231
G1 X57.533 Y-13.445 E34.33844
G1 X57.55 Y-12.997 E34.36584
G1 X57.55 Y12.998 E35.95454
G1 X57.502 Y13.668 E35.99559
G1 X57.425 Y14.206 E36.0288
G1 X57.264 Y14.918 E36.07342
G1 X57.249 Y14.966 E36.07649
G1 X57.011 Y15.572 E36.11628
G1 X56.78 Y16.055 E36.149
G1 X56.461 Y16.616 E36.18844
G1 X56.431 Y16.661 E36.19175
G1 X56.003 Y17.207 E36.23415
G1 X55.64 Y17.604 E36.26702
G1 X55.145 Y18.07 E36.30857
G1 X55.103 Y18.104 E36.31187
G1 X54.567 Y18.478 E36.35182
G1 X54.11 Y18.75 E36.38432
G1 X53.444 Y19.076 E36.42964
G1 X53.393 Y19.096 E36.43299
G1 X52.844 Y19.272 E36.46822
G1 X52.352 Y19.396 E36.49923
G1 X51.848 Y19.493 E36.5306
G1 X51.235 Y19.544 E36.56819
G1 X50.996 Y19.55 E36.5828
G0 F3600 X50.996 Y18.85
G1 F1200 X-50.998 Y18.85 E42.81622
G1 X-51.568 Y18.809 E42.85114
G1 X-52.106 Y18.732 E42.88436
G1 X-52.709 Y18.596 E42.92214
G1 X-52.757 Y18.581 E42.92521
G1 X-53.277 Y18.376 E42.95937
G1 X-53.766 Y18.141 E42.99253
G1 X-54.252 Y17.862 E43.02678
G1 X-54.292 Y17.835 E43.02972
G1 X-54.742 Y17.479 E43.06479
G1 X-55.147 Y17.107 E43.0984
G1 X-55.549 Y16.677 E43.13438
G1 X-55.581 Y16.637 E43.13751
G1 X-55.893 Y16.185 E43.17107
G1 X-56.155 Y15.74 E43.20263
G1 X-56.397 Y15.255 E43.23576
G1 X-56.592 Y14.677 E43.27304
G1 X-56.718 Y14.176 E43.30461
G1 X-56.833 Y13.408 E43.35207
G1 X-56.85 Y12.997 E43.37721
G1 X-56.85 Y-12.993 E44.9656
G1 X-56.81 Y-13.557 E45.00016
G1 X-56.734 Y-14.095 E45.03337
G1 X-56.59 Y-14.727 E45.07298
G1 X-56.575 Y-14.774 E45.076
G1 X-56.385 Y-15.253 E45.10749
G1 X-56.153 Y-15.742 E45.14057
G1 X-55.878 Y-16.228 E45.1747
G1 X-55.848 Y-16.273 E45.178
G1 X-55.486 Y-16.735 E45.21387
G1 X-55.123 Y-17.132 E45.24675
G1 X-54.747 Y-17.492 E45.27856
G1 X-54.705 Y-17.527 E45.2819
G1 X-54.204 Y-17.881 E45.31939
G1 X-53.747 Y-18.152 E45.35187
G1 X-53.189 Y-18.424 E45.3898
G1 X-52.673 Y-18.593 E45.42299
G1 X-52.181 Y-18.717 E45.454
G1 X-51.407 Y-18.834 E45.50184
G1 X-50.996 Y-18.85 E45.52697
G1 X50.998 Y-18.85 E51.76039
G1 X51.568 Y-18.809 E51.79531
G1 X52.106 Y-18.732 E51.82853
G1 X52.709 Y-18.596 E51.86631
G1 X52.757 Y-18.581 E51.86938
G1 X53.276 Y-18.376 E51.90349
G1 X53.763 Y-18.142 E51.93651
G1 X54.232 Y-17.875 E51.96949
G1 X54.274 Y-17.847 E51.97257
G1 X54.741 Y-17.481 E52.00884
G1 X55.14 Y-17.115 E52.04193
G1 X55.501 Y-16.736 E52.07391
G1 X55.535 Y-16.695 E52.07717
G1 X55.881 Y-16.203 E52.11393
G1 X56.147 Y-15.755 E52.14577
G1 X56.412 Y-15.219 E52.18231
G1 X56.432 Y-15.169 E52.18561
G1 X56.589 Y-14.683 E52.21682
G1 X56.716 Y-14.181 E52.24847
G1 X56.834 Y-13.408 E52.29626
G1 X56.85 Y-12.997 E52.32139
G1 X56.85 Y12.998 E53.91009
G1 X56.809 Y13.568 E53.94502
G1 X56.732 Y14.106 E53.97823
G1 X56.596 Y14.709 E54.01601
G1 X56.581 Y14.757 E54.01908
G1 X56.379 Y15.27 E54.05278
G1 X56.148 Y15.753 E54.0855
G1 X55.878 Y16.228 E54.11889
G1 X55.848 Y16.273 E54.1222
G1 X55.486 Y16.735 E54.15807
G1 X55.123 Y17.132 E54.19094
G1 X54.704 Y17.526 E54.22609
G1 X54.662 Y17.56 E54.2294
G1 X54.209 Y17.876 E54.26315
G1 X53.752 Y18.148 E54.29566
G1 X53.189 Y18.424 E54.33398
G1 X52.673 Y18.593 E54.36716
G1 X52.181 Y18.717 E54.39817
G1 X51.407 Y18.834 E54.44601
G1 X50.996 Y18.85 E54.47115
G0 F3600 X50.996 Y18.15
G1 F1200 X-50.998 Y18.15 E60.70456
G1 X-51.469 Y18.116 E60.73342
G1 X-52.007 Y18.039 E60.76664
G1 X-52.501 Y17.928 E60.79758
G1 X-52.973 Y17.745 E60.82852
G1 X-53.462 Y17.51 E60.86168
G1 X-53.9 Y17.255 E60.89265
G1 X-54.269 Y16.964 E60.92137
G1 X-54.674 Y16.592 E60.95498
G1 X-55.035 Y16.2 E60.98755
G1 X-55.289 Y15.83 E61.01498
G1 X-55.551 Y15.385 E61.04654
G1 X-55.753 Y14.979 E61.07425
G1 X-55.913 Y14.506 E61.10477
G1 X-56.039 Y14.005 E61.13634
G1 X-56.134 Y13.371 E61.17552
G1 X-56.15 Y12.997 E61.1984
G1 X-56.15 Y-12.993 E62.78679
G1 X-56.117 Y-13.459 E62.81534
G1 X-56.041 Y-13.997 E62.84855
G1 X-55.923 Y-14.514 E62.88096
G1 X-55.753 Y-14.953 E62.90973
G1 X-55.521 Y-15.442 E62.94281
G1 X-55.266 Y-15.884 E62.97399
G1 X-54.97 Y-16.263 E63.00338
G1 X-54.607 Y-16.66 E63.03626
G1 X-54.257 Y-16.989 E63.06562
G1 X-53.847 Y-17.278 E63.09627
G1 X-53.39 Y-17.549 E63.12874
G1 X-52.933 Y-17.773 E63.15985
G1 X-52.502 Y-17.914 E63.18756
G1 X-52.01 Y-18.038 E63.21857
G1 X-51.371 Y-18.135 E63.25807
G1 X-50.996 Y-18.15 E63.28101
G1 X50.998 Y-18.15 E69.51442
G1 X51.469 Y-18.116 E69.54328
G1 X52.007 Y-18.039 E69.5765
G1 X52.501 Y-17.928 E69.60744
G1 X52.973 Y-17.745 E69.63838
G1 X53.46 Y-17.511 E69.6714
G1 X53.885 Y-17.265 E69.70141
G1 X54.267 Y-16.965 E69.7311
G1 X54.666 Y-16.599 E69.76419
G1 X54.996 Y-16.248 E69.79363
G1 X55.28 Y-15.845 E69.82376
G1 X55.546 Y-15.397 E69.85561
G1 X55.782 Y-14.909 E69.88873
G1 X55.911 Y-14.512 E69.91425
G1 X56.038 Y-14.01 E69.94589
G1 X56.135 Y-13.371 E69.98539
G1 X56.15 Y-12.997 E70.00827
G1 X56.15 Y12.998 E71.59697
G1 X56.116 Y13.469 E71.62583
G1 X56.039 Y14.007 E71.65904
G1 X55.928 Y14.501 E71.68999
G1 X55.748 Y14.968 E71.72057
G1 X55.517 Y15.451 E71.75329
G1 X55.266 Y15.884 E71.78388
G1 X54.97 Y16.263 E71.81327
G1 X54.607 Y16.66 E71.84615
G1 X54.222 Y17.016 E71.87819
G1 X53.851 Y17.275 E71.90585
G1 X53.394 Y17.547 E71.93835
G1 X52.933 Y17.773 E71.96973
G1 X52.502 Y17.914 E71.99744
G1 X52.01 Y18.038 E72.02845
G1 X51.371 Y18.135 E72.06795
G1 X50.996 Y18.15 E72.09089
G0 F3600 X50.996 Y17.45
G1 F1200 X-50.998 Y17.45 E78.3243
G1 X-51.37 Y17.423 E78.3471
G1 X-51.908 Y17.346 E78.38031
G1 X-52.34 Y17.244 E78.40744
G1 X-52.67 Y17.114 E78.42912
G1 X-53.159 Y16.879 E78.46227
G1 X-53.509 Y16.675 E78.48703
G1 X-53.795 Y16.448 E78.50935
G1 X-54.2 Y16.076 E78.54296
G1 X-54.488 Y15.763 E78.56895
G1 X-54.686 Y15.475 E78.59031
G1 X-54.948 Y15.03 E78.62187
G1 X-55.11 Y14.703 E78.64417
G1 X-55.234 Y14.336 E78.66785
G1 X-55.36 Y13.835 E78.69942
G1 X-55.435 Y13.333 E78.73044
G1 X-55.45 Y12.997 E78.751
G1 X-55.45 Y-12.993 E80.33939
G1 X-55.424 Y-13.361 E80.36194
G1 X-55.348 Y-13.899 E80.39514
G1 X-55.241 Y-14.348 E80.42335
G1 X-55.121 Y-14.653 E80.44338
G1 X-54.889 Y-15.142 E80.47646
G1 X-54.684 Y-15.496 E80.50146
G1 X-54.453 Y-15.79 E80.52431
G1 X-54.09 Y-16.187 E80.55719
G1 X-53.808 Y-16.451 E80.5808
G1 X-53.49 Y-16.676 E80.6046
G1 X-53.033 Y-16.947 E80.63708
G1 X-52.626 Y-17.141 E80.66463
G1 X-52.331 Y-17.236 E80.68357
G1 X-51.839 Y-17.36 E80.71458
G1 X-51.334 Y-17.436 E80.74579
G1 X-50.996 Y-17.45 E80.76647
G1 X50.998 Y-17.45 E86.99988
G1 X51.37 Y-17.423 E87.02268
G1 X51.908 Y-17.346 E87.05589
G1 X52.34 Y-17.244 E87.08302
G1 X52.67 Y-17.114 E87.10469
G1 X53.157 Y-16.88 E87.13772
G1 X53.497 Y-16.683 E87.16173
G1 X53.794 Y-16.449 E87.18484
G1 X54.193 Y-16.083 E87.21793
G1 X54.457 Y-15.801 E87.24154
G1 X54.678 Y-15.488 E87.26495
G1 X54.944 Y-15.04 E87.2968
G1 X55.132 Y-14.649 E87.32331
G1 X55.232 Y-14.34 E87.34316
G1 X55.359 Y-13.838 E87.37481
G1 X55.436 Y-13.334 E87.40597
G1 X55.45 Y-12.997 E87.42658
G1 X55.45 Y12.998 E89.01528
G1 X55.423 Y13.37 E89.03807
G1 X55.346 Y13.908 E89.07129
G1 X55.244 Y14.34 E89.09842
G1 X55.116 Y14.666 E89.11982
G1 X54.885 Y15.149 E89.15254
G1 X54.684 Y15.496 E89.17705
G1 X54.453 Y15.79 E89.1999
G1 X54.09 Y16.187 E89.23278
G1 X53.782 Y16.472 E89.25842
G1 X53.493 Y16.673 E89.27994
G1 X53.036 Y16.945 E89.31244
G1 X52.626 Y17.141 E89.34021
G1 X52.331 Y17.236 E89.35915
G1 X51.839 Y17.36 E89.39016
G1 X51.334 Y17.436 E89.42137
G1 X50.996 Y17.45 E89.44205
G0 F3600 X50.996 Y16.75
G1 F1200 X-50.998 Y16.75 E95.67546
G1 X-51.271 Y16.73 E95.69219
G1 X-51.809 Y16.653 E95.72541
G1 X-52.367 Y16.483 E95.76106
G1 X-52.856 Y16.248 E95.79421
G1 X-53.322 Y15.933 E95.82859
G1 X-53.727 Y15.561 E95.8622
G1 X-54.083 Y15.12 E95.89684
G1 X-54.345 Y14.675 E95.9284
G1 X-54.555 Y14.165 E95.9621
G1 X-54.681 Y13.664 E95.99368
G1 X-54.747 Y13.091 E96.02893
G1 X-54.75 Y12.997 E96.03468
G1 X-54.75 Y-12.993 E97.62307
G1 X-54.731 Y-13.263 E97.63961
G1 X-54.655 Y-13.801 E97.67282
G1 X-54.488 Y-14.353 E97.70806
G1 X-54.256 Y-14.842 E97.74114
G1 X-53.937 Y-15.318 E97.77616
G1 X-53.574 Y-15.715 E97.80904
G1 X-53.133 Y-16.074 E97.84379
G1 X-52.676 Y-16.345 E97.87626
G1 X-52.16 Y-16.557 E97.91035
G1 X-51.668 Y-16.681 E97.94136
G1 X-51.088 Y-16.748 E97.97705
G1 X-50.996 Y-16.75 E97.98267
G1 X50.998 Y-16.75 E104.21608
G1 X51.271 Y-16.73 E104.23281
G1 X51.809 Y-16.653 E104.26603
G1 X52.367 Y-16.483 E104.30168
G1 X52.854 Y-16.249 E104.3347
G1 X53.321 Y-15.934 E104.36913
G1 X53.72 Y-15.568 E104.40222
G1 X54.076 Y-15.13 E104.43671
G1 X54.342 Y-14.682 E104.46855
G1 X54.554 Y-14.168 E104.50253
G1 X54.681 Y-13.666 E104.53418
G1 X54.748 Y-13.09 E104.56962
G1 X54.75 Y-12.997 E104.57531
G1 X54.75 Y12.998 E106.164
G1 X54.73 Y13.271 E106.18073
G1 X54.653 Y13.809 E106.21395
G1 X54.485 Y14.364 E106.24939
G1 X54.254 Y14.847 E106.28211
G1 X53.937 Y15.318 E106.31681
G1 X53.574 Y15.715 E106.34968
G1 X53.135 Y16.072 E106.38426
G1 X52.678 Y16.344 E106.41677
G1 X52.16 Y16.557 E106.451
G1 X51.668 Y16.681 E106.482
G1 X51.088 Y16.748 E106.51769
G1 X50.996 Y16.75 E106.52331
G0 F3600 X50.996 Y16.05
G1 F1200 X-50.998 Y16.05 E112.75673
G1 X-51.172 Y16.037 E112.76739
G1 X-51.71 Y15.96 E112.8006
G1 X-52.064 Y15.852 E112.82322
G1 X-52.553 Y15.617 E112.85638
G1 X-52.848 Y15.417 E112.87816
G1 X-53.253 Y15.045 E112.91177
G1 X-53.48 Y14.765 E112.9338
G1 X-53.742 Y14.32 E112.96536
G1 X-53.876 Y13.994 E112.9869
G1 X-54.002 Y13.493 E113.01847
G1 X-54.05 Y12.997 E113.04893
G1 X-54.05 Y-12.993 E114.63732
G1 X-54.038 Y-13.165 E114.64786
G1 X-53.962 Y-13.703 E114.68106
G1 X-53.856 Y-14.053 E114.70341
G1 X-53.624 Y-14.542 E114.73649
G1 X-53.42 Y-14.846 E114.75887
G1 X-53.057 Y-15.243 E114.79174
G1 X-52.776 Y-15.472 E114.8139
G1 X-52.319 Y-15.743 E114.84637
G1 X-51.989 Y-15.878 E114.86816
G1 X-51.497 Y-16.002 E114.89917
G1 X-50.996 Y-16.05 E114.92993
G1 X50.998 Y-16.05 E121.16334
G1 X51.172 Y-16.037 E121.17401
G1 X51.71 Y-15.96 E121.20722
G1 X52.064 Y-15.852 E121.22984
G1 X52.551 Y-15.618 E121.26286
G1 X52.848 Y-15.418 E121.28474
G1 X53.247 Y-15.052 E121.31783
G1 X53.474 Y-14.773 E121.33982
G1 X53.74 Y-14.325 E121.37166
G1 X53.875 Y-13.997 E121.39334
G1 X54.002 Y-13.495 E121.42498
G1 X54.05 Y-12.997 E121.45556
G1 X54.05 Y12.998 E123.04426
G1 X54.037 Y13.172 E123.05492
G1 X53.96 Y13.71 E123.08814
G1 X53.853 Y14.062 E123.11062
G1 X53.622 Y14.545 E123.14334
G1 X53.42 Y14.846 E123.1655
G1 X53.057 Y15.243 E123.19837
G1 X52.777 Y15.47 E123.2204
G1 X52.32 Y15.742 E123.2529
G1 X51.989 Y15.878 E123.27477
G1 X51.497 Y16.002 E123.30578
G1 X50.996 Y16.05 E123.33654
G0 F3600 X51.014 Y15.35
G1 F1200 X-51.026 Y15.349 E129.57277
G1 X-51.073 Y15.344 E129.57566
G1 X-51.611 Y15.267 E129.60887
G1 X-51.761 Y15.221 E129.61846
